(1001)
(T1 D=6 CR=0 - ZMIN=-22.5 - flat end mill)
(T2 D=2 CR=0 - ZMIN=-10 - flat end mill)
G90 G94
G17
G21
G28 G91 Z0
G90

(Pocket4)
T1
S5000 M3
G17 G90 G94
G54
M8
G0 X26.127 Y25.755
Z15
G0 Z1.83
G1 Z1.33 F333.3
X26.121 Y25.774 Z1.178
X26.105 Y25.829 Z1.035
X26.077 Y25.916 Z0.913
X26.036 Y26.029 Z0.817
X25.983 Y26.158 Z0.755
X25.918 Y26.295 Z0.73
G3 X20.839 Y23.707 Z0.43 I-2.539 J-1.294
X25.918 Y26.295 Z0.13 I2.539 J1.294
X20.839 Y23.707 Z-0.17 I-2.539 J-1.294
X26.228 Y25.001 Z-0.425 I2.539 J1.294
X23.772 Y25.001 I-1.228 J0 F1000
X29.828 Y25.001 I3.028 J0
X20.172 Y25.001 I-4.828 J0
X33.428 Y25.001 I6.628 J0
X16.572 Y25.001 I-8.428 J0
X37.028 Y25.001 I10.228 J0
X12.972 Y25.001 I-12.028 J0
X37.028 Y25.001 I12.028 J0
G2 X38.539 Y27.428 I2.706 J0
G3 X39.594 Y30.086 I-0.941 J1.912
G1 X39.087 Y31.443
X38.046 Y33.35
X36.726 Y35.12
X35.147 Y36.705
X33.347 Y38.047
X31.427 Y39.094
X29.349 Y39.867
X27.225 Y40.329
X25 Y40.491
X22.775 Y40.329
X20.651 Y39.867
X18.575 Y39.095
X16.603 Y38.016
X14.854 Y36.706
X13.274 Y35.12
X11.954 Y33.35
X10.914 Y31.444
X10.131 Y29.34
X9.667 Y27.201
X9.511 Y24.977
X9.664 Y22.828
X9.83 Y22.043
X10.133 Y20.65
X10.149 Y20.602
X10.903 Y18.579
X11.954 Y16.651
X13.309 Y14.84
X14.859 Y13.291
X16.606 Y11.982
X18.54 Y10.923
X20.642 Y10.135
X22.775 Y9.671
X25 Y9.509
X27.225 Y9.671
X29.358 Y10.135
X31.46 Y10.923
X33.394 Y11.982
X35.141 Y13.291
X36.691 Y14.84
X38.046 Y16.651
X39.097 Y18.579
X39.852 Y20.606
X40.028 Y21.393
X40.331 Y22.784
X40.336 Y22.825
X40.489 Y24.977
X40.334 Y27.2
X39.856 Y29.385
X39.594 Y30.086
G3 X34.289 Y30.173 Z-0.528 I-2.67 J-0.997 F333.3
G1 X31.714 Y23.916 Z-0.631
G2 X26.228 Y25.001 Z-0.75 I-2.636 J1.085
G3 X23.772 Y25.001 I-1.228 J0 F1000
X29.828 Y25.001 I3.028 J0
X20.172 Y25.001 I-4.828 J0
X33.428 Y25.001 I6.628 J0
X16.572 Y25.001 I-8.428 J0
X37.028 Y25.001 I10.228 J0
X12.972 Y25.001 I-12.028 J0
X37.028 Y25.001 I12.028 J0
G2 X38.539 Y27.428 I2.706 J0
G3 X39.594 Y30.086 I-0.941 J1.912
G1 X39.087 Y31.443
X38.046 Y33.35
X36.726 Y35.12
X35.147 Y36.704
X33.347 Y38.047
X31.427 Y39.094
X29.349 Y39.867
X27.225 Y40.329
X25 Y40.491
X22.775 Y40.329
X20.651 Y39.867
X18.575 Y39.095
X16.604 Y38.016
X14.854 Y36.705
X13.274 Y35.12
X11.954 Y33.35
X10.914 Y31.444
X10.131 Y29.34
X9.667 Y27.201
X9.511 Y24.977
X9.664 Y22.828
X9.83 Y22.043
X10.133 Y20.65
X10.149 Y20.602
X10.903 Y18.579
X11.954 Y16.651
X13.308 Y14.84
X14.859 Y13.292
X16.606 Y11.982
X18.54 Y10.923
X20.642 Y10.135
X22.775 Y9.671
X25 Y9.509
X27.225 Y9.671
X29.358 Y10.135
X31.46 Y10.923
X33.394 Y11.982
X35.141 Y13.292
X36.692 Y14.84
X38.046 Y16.651
X39.097 Y18.579
X39.852 Y20.606
X40.028 Y21.393
X40.331 Y22.784
X40.336 Y22.825
X40.489 Y24.977
X40.334 Y27.2
X39.856 Y29.385
X39.594 Y30.086
G3 X39.25 Y30.199 I-0.218 J-0.081
G1 X38.334 Y29.604
X38.294 Y29.583
X27.006 Y25.063
X26.728 Y25.057
X26.699 Y25.049
X26.678 Y25.028
X26.67 Y24.999
G3 X32.37 Y24.999 Z-1.05 I2.85 J0 F333.3
X26.67 Y24.999 Z-1.35 I-2.85 J0
X26.93 Y24.999 I0.13 J0 F1000
X23.07 Y24.999 I-1.93 J0
X30.53 Y24.999 I3.73 J0
X19.47 Y24.999 I-5.53 J0
X30.53 Y24.999 I5.53 J0
G2 X31.999 Y27.243 I2.448 J0
G3 X32.613 Y29.853 I-0.669 J1.535
G1 X31.372 Y31.335
X31.3 Y31.399
X30.157 Y32.36
X28.816 Y33.134
X28.356 Y33.305
X27.321 Y33.681
X27.304 Y33.685
X25.356 Y34.029
X25.24 Y34.054
X25.126 Y34.086
X25 Y34.127
X24.874 Y34.086
X24.76 Y34.054
X24.644 Y34.029
X22.684 Y33.683
X21.205 Y33.146
X19.862 Y32.371
X19.659 Y32.205
X18.639 Y31.348
X17.386 Y29.853
X17.324 Y29.782
X17.257 Y29.715
X17.098 Y29.562
X17.043 Y29.339
X17.018 Y29.249
X16.988 Y29.161
X16.32 Y27.324
X16.052 Y25.809
X16.048 Y24.218
X16.162 Y23.571
X16.322 Y22.664
X17.004 Y20.79
X17.04 Y20.677
X17.069 Y20.562
X17.095 Y20.442
X17.111 Y20.428
X17.213 Y20.332
X17.281 Y20.262
X17.373 Y20.162
X18.639 Y18.652
X19.839 Y17.644
X21.196 Y16.859
X22.68 Y16.318
X22.696 Y16.315
X24.644 Y15.971
X24.76 Y15.946
X24.874 Y15.914
X25 Y15.873
X25.126 Y15.914
X25.24 Y15.946
X25.356 Y15.971
X27.316 Y16.317
X28.804 Y16.859
X30.161 Y17.644
X31.346 Y18.64
X31.4 Y18.698
X32.627 Y20.162
X32.688 Y20.23
X32.751 Y20.295
X32.888 Y20.427
X32.905 Y20.443
X32.931 Y20.562
X32.96 Y20.677
X32.996 Y20.79
X33.676 Y22.661
X33.68 Y22.676
X33.952 Y24.219
X33.948 Y25.809
X33.68 Y27.324
X33.012 Y29.161
X32.982 Y29.249
X32.957 Y29.339
X32.902 Y29.562
X32.743 Y29.715
X32.676 Y29.782
X32.614 Y29.853
X32.613
G3 X32.331 Y29.847 I-0.139 J-0.116
G1 X31.814 Y29.173
X31.79 Y29.147
X27.362 Y25.259
X27.333 Y25.24
X27.3 Y25.229
X26.777 Y25.128
X26.735 Y25.112
X26.7 Y25.083
X26.678 Y25.043
X26.67 Y24.999
G3 X32.37 Y24.999 Z-1.65 I2.85 J0 F333.3
X26.67 Y24.999 Z-1.95 I-2.85 J0
X26.93 Y24.999 I0.13 J0 F1000
X23.07 Y24.999 I-1.93 J0
X30.53 Y24.999 I3.73 J0
X19.47 Y24.999 I-5.53 J0
X30.53 Y24.999 I5.53 J0
G2 X31.999 Y27.243 I2.448 J0
G3 X32.613 Y29.853 I-0.669 J1.535
G1 X31.372 Y31.335
X31.3 Y31.399
X30.157 Y32.36
X28.816 Y33.134
X28.356 Y33.305
X27.321 Y33.681
X27.304 Y33.685
X25.356 Y34.029
X25.24 Y34.054
X25.126 Y34.086
X25 Y34.127
X24.874 Y34.086
X24.76 Y34.054
X24.644 Y34.029
X22.684 Y33.683
X21.205 Y33.146
X19.862 Y32.371
X19.659 Y32.205
X18.639 Y31.348
X17.386 Y29.853
X17.324 Y29.782
X17.257 Y29.715
X17.098 Y29.562
X17.043 Y29.339
X17.018 Y29.249
X16.988 Y29.161
X16.32 Y27.324
X16.052 Y25.809
X16.048 Y24.218
X16.162 Y23.571
X16.322 Y22.664
X17.004 Y20.79
X17.04 Y20.677
X17.069 Y20.562
X17.095 Y20.442
X17.111 Y20.428
X17.213 Y20.332
X17.281 Y20.262
X17.373 Y20.162
X18.639 Y18.652
X19.839 Y17.644
X21.196 Y16.859
X22.68 Y16.318
X22.696 Y16.315
X24.644 Y15.971
X24.76 Y15.946
X24.874 Y15.914
X25 Y15.873
X25.126 Y15.914
X25.24 Y15.946
X25.356 Y15.971
X27.316 Y16.317
X28.804 Y16.859
X30.161 Y17.644
X31.346 Y18.64
X31.4 Y18.698
X32.627 Y20.162
X32.688 Y20.23
X32.751 Y20.295
X32.888 Y20.427
X32.905 Y20.443
X32.931 Y20.562
X32.96 Y20.677
X32.996 Y20.79
X33.676 Y22.661
X33.68 Y22.676
X33.952 Y24.219
X33.948 Y25.809
X33.68 Y27.324
X33.012 Y29.161
X32.982 Y29.249
X32.957 Y29.339
X32.902 Y29.562
X32.743 Y29.715
X32.676 Y29.782
X32.614 Y29.853
X32.613
G3 X32.331 Y29.847 I-0.139 J-0.116
G1 X31.814 Y29.173
X31.79 Y29.147
X27.362 Y25.259
X27.333 Y25.24
X27.3 Y25.229
X26.777 Y25.128
X26.735 Y25.112
X26.7 Y25.083
X26.678 Y25.043
X26.67 Y24.999
G3 X32.37 Y24.999 Z-2.25 I2.85 J0 F333.3
X26.67 Y24.999 Z-2.55 I-2.85 J0
X26.93 Y24.999 I0.13 J0 F1000
X23.07 Y24.999 I-1.93 J0
X30.53 Y24.999 I3.73 J0
X19.47 Y24.999 I-5.53 J0
X30.53 Y24.999 I5.53 J0
G2 X31.999 Y27.243 I2.448 J0
G3 X32.613 Y29.853 I-0.669 J1.535
G1 X31.372 Y31.335
X31.3 Y31.399
X30.157 Y32.36
X28.816 Y33.134
X28.356 Y33.305
X27.321 Y33.681
X27.304 Y33.685
X25.356 Y34.029
X25.24 Y34.054
X25.126 Y34.086
X25 Y34.127
X24.874 Y34.086
X24.76 Y34.054
X24.644 Y34.029
X22.684 Y33.683
X21.205 Y33.146
X19.862 Y32.371
X19.659 Y32.205
X18.639 Y31.348
X17.386 Y29.853
X17.324 Y29.782
X17.257 Y29.715
X17.098 Y29.562
X17.043 Y29.339
X17.018 Y29.249
X16.988 Y29.161
X16.32 Y27.324
X16.052 Y25.809
X16.048 Y24.218
X16.162 Y23.571
X16.322 Y22.664
X17.004 Y20.79
X17.04 Y20.677
X17.069 Y20.562
X17.095 Y20.442
X17.111 Y20.428
X17.213 Y20.332
X17.281 Y20.262
X17.373 Y20.162
X18.639 Y18.652
X19.839 Y17.644
X21.196 Y16.859
X22.68 Y16.318
X22.696 Y16.315
X24.644 Y15.971
X24.76 Y15.946
X24.874 Y15.914
X25 Y15.873
X25.126 Y15.914
X25.24 Y15.946
X25.356 Y15.971
X27.316 Y16.317
X28.804 Y16.859
X30.161 Y17.644
X31.346 Y18.64
X31.4 Y18.698
X32.627 Y20.162
X32.688 Y20.23
X32.751 Y20.295
X32.888 Y20.427
X32.905 Y20.443
X32.931 Y20.562
X32.96 Y20.677
X32.996 Y20.79
X33.676 Y22.661
X33.68 Y22.676
X33.952 Y24.219
X33.948 Y25.809
X33.68 Y27.324
X33.012 Y29.161
X32.982 Y29.249
X32.957 Y29.339
X32.902 Y29.562
X32.743 Y29.715
X32.676 Y29.782
X32.614 Y29.853
X32.613
G3 X32.331 Y29.847 I-0.139 J-0.116
G1 X31.814 Y29.173
X31.79 Y29.147
X27.362 Y25.259
X27.333 Y25.24
X27.3 Y25.229
X26.777 Y25.128
X26.735 Y25.112
X26.7 Y25.083
X26.678 Y25.043
X26.67 Y24.999
G3 X32.37 Y24.999 Z-2.85 I2.85 J0 F333.3
X26.67 Y24.999 Z-3.15 I-2.85 J0
X26.93 Y24.999 I0.13 J0 F1000
X23.07 Y24.999 I-1.93 J0
X30.53 Y24.999 I3.73 J0
X19.47 Y24.999 I-5.53 J0
X30.53 Y24.999 I5.53 J0
G2 X31.999 Y27.243 I2.448 J0
G3 X32.613 Y29.853 I-0.669 J1.535
G1 X31.372 Y31.335
X31.3 Y31.399
X30.157 Y32.36
X28.816 Y33.134
X28.356 Y33.305
X27.321 Y33.681
X27.304 Y33.685
X25.356 Y34.029
X25.24 Y34.054
X25.126 Y34.086
X25 Y34.127
X24.874 Y34.086
X24.76 Y34.054
X24.644 Y34.029
X22.684 Y33.683
X21.205 Y33.146
X19.862 Y32.371
X19.659 Y32.205
X18.639 Y31.348
X17.386 Y29.853
X17.324 Y29.782
X17.257 Y29.715
X17.098 Y29.562
X17.043 Y29.339
X17.018 Y29.249
X16.988 Y29.161
X16.32 Y27.324
X16.052 Y25.809
X16.048 Y24.218
X16.162 Y23.571
X16.322 Y22.664
X17.004 Y20.79
X17.04 Y20.677
X17.069 Y20.562
X17.095 Y20.442
X17.111 Y20.428
X17.213 Y20.332
X17.281 Y20.262
X17.373 Y20.162
X18.639 Y18.652
X19.839 Y17.644
X21.196 Y16.859
X22.68 Y16.318
X22.696 Y16.315
X24.644 Y15.971
X24.76 Y15.946
X24.874 Y15.914
X25 Y15.873
X25.126 Y15.914
X25.24 Y15.946
X25.356 Y15.971
X27.316 Y16.317
X28.804 Y16.859
X30.161 Y17.644
X31.346 Y18.64
X31.4 Y18.698
X32.627 Y20.162
X32.688 Y20.23
X32.751 Y20.295
X32.888 Y20.427
X32.905 Y20.443
X32.931 Y20.562
X32.96 Y20.677
X32.996 Y20.79
X33.676 Y22.661
X33.68 Y22.676
X33.952 Y24.219
X33.948 Y25.809
X33.68 Y27.324
X33.012 Y29.161
X32.982 Y29.249
X32.957 Y29.339
X32.902 Y29.562
X32.743 Y29.715
X32.676 Y29.782
X32.614 Y29.853
X32.613
G3 X32.331 Y29.847 I-0.139 J-0.116
G1 X31.814 Y29.173
X31.79 Y29.147
X27.362 Y25.259
X27.333 Y25.24
X27.3 Y25.229
X26.777 Y25.128
X26.735 Y25.112
X26.7 Y25.083
X26.678 Y25.043
X26.67 Y24.999
G3 X32.37 Y24.999 Z-3.45 I2.85 J0 F333.3
X26.67 Y24.999 Z-3.75 I-2.85 J0
X26.93 Y24.999 I0.13 J0 F1000
X23.07 Y24.999 I-1.93 J0
X30.53 Y24.999 I3.73 J0
X19.47 Y24.999 I-5.53 J0
X30.53 Y24.999 I5.53 J0
G2 X31.999 Y27.243 I2.448 J0
G3 X32.613 Y29.853 I-0.669 J1.535
G1 X31.372 Y31.335
X31.3 Y31.399
X30.157 Y32.36
X28.816 Y33.134
X28.356 Y33.305
X27.321 Y33.681
X27.304 Y33.685
X25.356 Y34.029
X25.24 Y34.054
X25.126 Y34.086
X25 Y34.127
X24.874 Y34.086
X24.76 Y34.054
X24.644 Y34.029
X22.684 Y33.683
X21.205 Y33.146
X19.862 Y32.371
X19.659 Y32.205
X18.639 Y31.348
X17.386 Y29.853
X17.324 Y29.782
X17.257 Y29.715
X17.098 Y29.562
X17.043 Y29.339
X17.018 Y29.249
X16.988 Y29.161
X16.32 Y27.324
X16.052 Y25.809
X16.048 Y24.218
X16.162 Y23.571
X16.322 Y22.664
X17.004 Y20.79
X17.04 Y20.677
X17.069 Y20.562
X17.095 Y20.442
X17.111 Y20.428
X17.213 Y20.332
X17.281 Y20.262
X17.373 Y20.162
X18.639 Y18.652
X19.839 Y17.644
X21.196 Y16.859
X22.68 Y16.318
X22.696 Y16.315
X24.644 Y15.971
X24.76 Y15.946
X24.874 Y15.914
X25 Y15.873
X25.126 Y15.914
X25.24 Y15.946
X25.356 Y15.971
X27.316 Y16.317
X28.804 Y16.859
X30.161 Y17.644
X31.346 Y18.64
X31.4 Y18.698
X32.627 Y20.162
X32.688 Y20.23
X32.751 Y20.295
X32.888 Y20.427
X32.905 Y20.443
X32.931 Y20.562
X32.96 Y20.677
X32.996 Y20.79
X33.676 Y22.661
X33.68 Y22.676
X33.952 Y24.219
X33.948 Y25.809
X33.68 Y27.324
X33.012 Y29.161
X32.982 Y29.249
X32.957 Y29.339
X32.902 Y29.562
X32.743 Y29.715
X32.676 Y29.782
X32.614 Y29.853
X32.613
G3 X32.331 Y29.847 I-0.139 J-0.116
G1 X31.814 Y29.173
X31.79 Y29.147
X27.362 Y25.259
X27.333 Y25.24
X27.3 Y25.229
X26.777 Y25.128
X26.735 Y25.112
X26.7 Y25.083
X26.678 Y25.043
X26.67 Y24.999
G3 X32.37 Y24.999 Z-4.05 I2.85 J0 F333.3
X26.67 Y24.999 Z-4.35 I-2.85 J0
X26.93 Y24.999 I0.13 J0 F1000
X23.07 Y24.999 I-1.93 J0
X30.53 Y24.999 I3.73 J0
X19.47 Y24.999 I-5.53 J0
X30.53 Y24.999 I5.53 J0
G2 X31.999 Y27.243 I2.448 J0
G3 X32.613 Y29.853 I-0.669 J1.535
G1 X31.372 Y31.335
X31.3 Y31.399
X30.157 Y32.36
X28.816 Y33.134
X28.356 Y33.305
X27.321 Y33.681
X27.304 Y33.685
X25.356 Y34.029
X25.24 Y34.054
X25.126 Y34.086
X25 Y34.127
X24.874 Y34.086
X24.76 Y34.054
X24.644 Y34.029
X22.684 Y33.683
X21.205 Y33.146
X19.862 Y32.371
X19.659 Y32.205
X18.639 Y31.348
X17.386 Y29.853
X17.324 Y29.782
X17.257 Y29.715
X17.098 Y29.562
X17.043 Y29.339
X17.018 Y29.249
X16.988 Y29.161
X16.32 Y27.324
X16.052 Y25.809
X16.048 Y24.218
X16.162 Y23.571
X16.322 Y22.664
X17.004 Y20.79
X17.04 Y20.677
X17.069 Y20.562
X17.095 Y20.442
X17.111 Y20.428
X17.213 Y20.332
X17.281 Y20.262
X17.373 Y20.162
X18.639 Y18.652
X19.839 Y17.644
X21.196 Y16.859
X22.68 Y16.318
X22.696 Y16.315
X24.644 Y15.971
X24.76 Y15.946
X24.874 Y15.914
X25 Y15.873
X25.126 Y15.914
X25.24 Y15.946
X25.356 Y15.971
X27.316 Y16.317
X28.804 Y16.859
X30.161 Y17.644
X31.346 Y18.64
X31.4 Y18.698
X32.627 Y20.162
X32.688 Y20.23
X32.751 Y20.295
X32.888 Y20.427
X32.905 Y20.443
X32.931 Y20.562
X32.96 Y20.677
X32.996 Y20.79
X33.676 Y22.661
X33.68 Y22.676
X33.952 Y24.219
X33.948 Y25.809
X33.68 Y27.324
X33.012 Y29.161
X32.982 Y29.249
X32.957 Y29.339
X32.902 Y29.562
X32.743 Y29.715
X32.676 Y29.782
X32.614 Y29.853
X32.613
G3 X32.153 Y29.852 I-0.23 J-0.193
G1 X30.601 Y27.983
X27.334 Y24.615
X27.314 Y24.598
X27.292 Y24.587
X26.833 Y24.418
X26.797 Y24.396
X26.771 Y24.363
X26.759 Y24.323
X26.762 Y24.281
G3 X32.278 Y25.716 Z-4.663 I2.758 J0.718 F333.3
X26.67 Y24.999 Z-4.95 I-2.758 J-0.718
X26.93 Y24.999 I0.13 J0 F1000
X23.07 Y24.999 I-1.93 J0
X30.53 Y24.999 I3.73 J0
X19.47 Y24.999 I-5.53 J0
X30.53 Y24.999 I5.53 J0
G2 X31.999 Y27.243 I2.448 J0
G3 X32.613 Y29.853 I-0.669 J1.535
G1 X31.372 Y31.335
X31.3 Y31.399
X30.157 Y32.36
X28.816 Y33.134
X28.356 Y33.305
X27.321 Y33.681
X27.304 Y33.685
X25.356 Y34.029
X25.24 Y34.054
X25.126 Y34.086
X25 Y34.127
X24.874 Y34.086
X24.76 Y34.054
X24.644 Y34.029
X22.684 Y33.683
X21.205 Y33.146
X19.862 Y32.371
X19.659 Y32.205
X18.639 Y31.348
X17.386 Y29.853
X17.324 Y29.782
X17.257 Y29.715
X17.098 Y29.562
X17.043 Y29.339
X17.018 Y29.249
X16.988 Y29.161
X16.32 Y27.324
X16.052 Y25.809
X16.048 Y24.218
X16.162 Y23.571
X16.322 Y22.664
X17.004 Y20.79
X17.04 Y20.677
X17.069 Y20.562
X17.095 Y20.442
X17.111 Y20.428
X17.213 Y20.332
X17.281 Y20.262
X17.373 Y20.162
X18.639 Y18.652
X19.839 Y17.644
X21.196 Y16.859
X22.68 Y16.318
X22.696 Y16.315
X24.644 Y15.971
X24.76 Y15.946
X24.874 Y15.914
X25 Y15.873
X25.126 Y15.914
X25.24 Y15.946
X25.356 Y15.971
X27.316 Y16.317
X28.804 Y16.859
X30.161 Y17.644
X31.346 Y18.64
X31.4 Y18.698
X32.627 Y20.162
X32.688 Y20.23
X32.751 Y20.295
X32.888 Y20.427
X32.905 Y20.443
X32.931 Y20.562
X32.96 Y20.677
X32.996 Y20.79
X33.676 Y22.661
X33.68 Y22.676
X33.952 Y24.219
X33.948 Y25.809
X33.68 Y27.324
X33.012 Y29.161
X32.982 Y29.249
X32.957 Y29.339
X32.902 Y29.562
X32.743 Y29.715
X32.676 Y29.782
X32.614 Y29.853
X32.613
G3 X32.153 Y29.852 I-0.23 J-0.193
G1 X30.601 Y27.983
X27.334 Y24.615
X27.314 Y24.598
X27.292 Y24.587
X26.833 Y24.418
X26.797 Y24.396
X26.771 Y24.363
X26.759 Y24.323
X26.762 Y24.281
G3 X32.278 Y25.716 Z-5.263 I2.758 J0.718 F333.3
X26.67 Y24.999 Z-5.55 I-2.758 J-0.718
X26.93 Y24.999 I0.13 J0 F1000
X23.07 Y24.999 I-1.93 J0
X30.53 Y24.999 I3.73 J0
X19.47 Y24.999 I-5.53 J0
X30.53 Y24.999 I5.53 J0
G2 X31.999 Y27.243 I2.448 J0
G3 X32.613 Y29.853 I-0.669 J1.535
G1 X31.372 Y31.335
X31.3 Y31.399
X30.157 Y32.36
X28.816 Y33.134
X28.356 Y33.305
X27.321 Y33.681
X27.304 Y33.685
X25.356 Y34.029
X25.24 Y34.054
X25.126 Y34.086
X25 Y34.127
X24.874 Y34.086
X24.76 Y34.054
X24.644 Y34.029
X22.684 Y33.683
X21.205 Y33.146
X19.862 Y32.371
X19.659 Y32.205
X18.639 Y31.348
X17.386 Y29.853
X17.324 Y29.782
X17.257 Y29.715
X17.098 Y29.562
X17.043 Y29.339
X17.018 Y29.249
X16.988 Y29.161
X16.32 Y27.324
X16.052 Y25.809
X16.048 Y24.218
X16.162 Y23.571
X16.322 Y22.664
X17.004 Y20.79
X17.04 Y20.677
X17.069 Y20.562
X17.095 Y20.442
X17.111 Y20.428
X17.213 Y20.332
X17.281 Y20.262
X17.373 Y20.162
X18.639 Y18.652
X19.839 Y17.644
X21.196 Y16.859
X22.68 Y16.318
X22.696 Y16.315
X24.644 Y15.971
X24.76 Y15.946
X24.874 Y15.914
X25 Y15.873
X25.126 Y15.914
X25.24 Y15.946
X25.356 Y15.971
X27.316 Y16.317
X28.804 Y16.859
X30.161 Y17.644
X31.346 Y18.64
X31.4 Y18.698
X32.627 Y20.162
X32.688 Y20.23
X32.751 Y20.295
X32.888 Y20.427
X32.905 Y20.443
X32.931 Y20.562
X32.96 Y20.677
X32.996 Y20.79
X33.676 Y22.661
X33.68 Y22.676
X33.952 Y24.219
X33.948 Y25.809
X33.68 Y27.324
X33.012 Y29.161
X32.982 Y29.249
X32.957 Y29.339
X32.902 Y29.562
X32.743 Y29.715
X32.676 Y29.782
X32.614 Y29.853
X32.613
G3 X32.153 Y29.852 I-0.23 J-0.193
G1 X30.601 Y27.983
X27.334 Y24.615
X27.314 Y24.598
X27.292 Y24.587
X26.833 Y24.418
X26.797 Y24.396
X26.771 Y24.363
X26.759 Y24.323
X26.762 Y24.281
G3 X32.278 Y25.716 Z-5.863 I2.758 J0.718 F333.3
X26.67 Y24.999 Z-6.15 I-2.758 J-0.718
X26.93 Y24.999 I0.13 J0 F1000
X23.07 Y24.999 I-1.93 J0
X30.53 Y24.999 I3.73 J0
X19.47 Y24.999 I-5.53 J0
X30.53 Y24.999 I5.53 J0
G2 X31.999 Y27.243 I2.448 J0
G3 X32.613 Y29.853 I-0.669 J1.535
G1 X31.372 Y31.335
X31.3 Y31.399
X30.157 Y32.36
X28.816 Y33.134
X28.356 Y33.305
X27.321 Y33.681
X27.304 Y33.685
X25.356 Y34.029
X25.24 Y34.054
X25.126 Y34.086
X25 Y34.127
X24.874 Y34.086
X24.76 Y34.054
X24.644 Y34.029
X22.684 Y33.683
X21.205 Y33.146
X19.862 Y32.371
X19.659 Y32.205
X18.639 Y31.348
X17.386 Y29.853
X17.324 Y29.782
X17.257 Y29.715
X17.098 Y29.562
X17.043 Y29.339
X17.018 Y29.249
X16.988 Y29.161
X16.32 Y27.324
X16.052 Y25.809
X16.048 Y24.218
X16.162 Y23.571
X16.322 Y22.664
X17.004 Y20.79
X17.04 Y20.677
X17.069 Y20.562
X17.095 Y20.442
X17.111 Y20.428
X17.213 Y20.332
X17.281 Y20.262
X17.373 Y20.162
X18.639 Y18.652
X19.839 Y17.644
X21.196 Y16.859
X22.68 Y16.318
X22.696 Y16.315
X24.644 Y15.971
X24.76 Y15.946
X24.874 Y15.914
X25 Y15.873
X25.126 Y15.914
X25.24 Y15.946
X25.356 Y15.971
X27.316 Y16.317
X28.804 Y16.859
X30.161 Y17.644
X31.346 Y18.64
X31.4 Y18.698
X32.627 Y20.162
X32.688 Y20.23
X32.751 Y20.295
X32.888 Y20.427
X32.905 Y20.443
X32.931 Y20.562
X32.96 Y20.677
X32.996 Y20.79
X33.676 Y22.661
X33.68 Y22.676
X33.952 Y24.219
X33.948 Y25.809
X33.68 Y27.324
X33.012 Y29.161
X32.982 Y29.249
X32.957 Y29.339
X32.902 Y29.562
X32.743 Y29.715
X32.676 Y29.782
X32.614 Y29.853
X32.613
G3 X32.153 Y29.852 I-0.23 J-0.193
G1 X30.601 Y27.983
X27.334 Y24.615
X27.314 Y24.598
X27.292 Y24.587
X26.833 Y24.418
X26.797 Y24.396
X26.771 Y24.363
X26.759 Y24.323
X26.762 Y24.281
G3 X32.278 Y25.716 Z-6.463 I2.758 J0.718 F333.3
X26.67 Y24.999 Z-6.75 I-2.758 J-0.718
X26.93 Y24.999 I0.13 J0 F1000
X23.07 Y24.999 I-1.93 J0
X30.53 Y24.999 I3.73 J0
X19.47 Y24.999 I-5.53 J0
X30.53 Y24.999 I5.53 J0
G2 X31.999 Y27.243 I2.448 J0
G3 X32.613 Y29.853 I-0.669 J1.535
G1 X31.372 Y31.335
X31.3 Y31.399
X30.157 Y32.36
X28.816 Y33.134
X28.356 Y33.305
X27.321 Y33.681
X27.304 Y33.685
X25.356 Y34.029
X25.24 Y34.054
X25.126 Y34.086
X25 Y34.127
X24.874 Y34.086
X24.76 Y34.054
X24.644 Y34.029
X22.684 Y33.683
X21.205 Y33.146
X19.862 Y32.371
X19.659 Y32.205
X18.639 Y31.348
X17.386 Y29.853
X17.324 Y29.782
X17.257 Y29.715
X17.098 Y29.562
X17.043 Y29.339
X17.018 Y29.249
X16.988 Y29.161
X16.32 Y27.324
X16.052 Y25.809
X16.048 Y24.218
X16.162 Y23.571
X16.322 Y22.664
X17.004 Y20.79
X17.04 Y20.677
X17.069 Y20.562
X17.095 Y20.442
X17.111 Y20.428
X17.213 Y20.332
X17.281 Y20.262
X17.373 Y20.162
X18.639 Y18.652
X19.839 Y17.644
X21.196 Y16.859
X22.68 Y16.318
X22.696 Y16.315
X24.644 Y15.971
X24.76 Y15.946
X24.874 Y15.914
X25 Y15.873
X25.126 Y15.914
X25.24 Y15.946
X25.356 Y15.971
X27.316 Y16.317
X28.804 Y16.859
X30.161 Y17.644
X31.346 Y18.64
X31.4 Y18.698
X32.627 Y20.162
X32.688 Y20.23
X32.751 Y20.295
X32.888 Y20.427
X32.905 Y20.443
X32.931 Y20.562
X32.96 Y20.677
X32.996 Y20.79
X33.676 Y22.661
X33.68 Y22.676
X33.952 Y24.219
X33.948 Y25.809
X33.68 Y27.324
X33.012 Y29.161
X32.982 Y29.249
X32.957 Y29.339
X32.902 Y29.562
X32.743 Y29.715
X32.676 Y29.782
X32.614 Y29.853
X32.613
G3 X32.153 Y29.852 I-0.23 J-0.193
G1 X30.601 Y27.983
X27.334 Y24.615
X27.314 Y24.598
X27.292 Y24.587
X26.833 Y24.418
X26.797 Y24.396
X26.771 Y24.363
X26.759 Y24.323
X26.762 Y24.281
G3 X32.278 Y25.716 Z-7.063 I2.758 J0.718 F333.3
X26.67 Y24.999 Z-7.35 I-2.758 J-0.718
X26.93 Y24.999 I0.13 J0 F1000
X23.07 Y24.999 I-1.93 J0
X30.53 Y24.999 I3.73 J0
X19.47 Y24.999 I-5.53 J0
X30.53 Y24.999 I5.53 J0
G2 X31.999 Y27.243 I2.448 J0
G3 X32.613 Y29.853 I-0.669 J1.535
G1 X31.372 Y31.335
X31.3 Y31.399
X30.157 Y32.36
X28.816 Y33.134
X28.356 Y33.305
X27.321 Y33.681
X27.304 Y33.685
X25.356 Y34.029
X25.24 Y34.054
X25.126 Y34.086
X25 Y34.127
X24.874 Y34.086
X24.76 Y34.054
X24.644 Y34.029
X22.684 Y33.683
X21.205 Y33.146
X19.862 Y32.371
X19.659 Y32.205
X18.639 Y31.348
X17.386 Y29.853
X17.324 Y29.782
X17.257 Y29.715
X17.098 Y29.562
X17.043 Y29.339
X17.018 Y29.249
X16.988 Y29.161
X16.32 Y27.324
X16.052 Y25.809
X16.048 Y24.218
X16.162 Y23.571
X16.322 Y22.664
X17.004 Y20.79
X17.04 Y20.677
X17.069 Y20.562
X17.095 Y20.442
X17.111 Y20.428
X17.213 Y20.332
X17.281 Y20.262
X17.373 Y20.162
X18.639 Y18.652
X19.839 Y17.644
X21.196 Y16.859
X22.68 Y16.318
X22.696 Y16.315
X24.644 Y15.971
X24.76 Y15.946
X24.874 Y15.914
X25 Y15.873
X25.126 Y15.914
X25.24 Y15.946
X25.356 Y15.971
X27.316 Y16.317
X28.804 Y16.859
X30.161 Y17.644
X31.346 Y18.64
X31.4 Y18.698
X32.627 Y20.162
X32.688 Y20.23
X32.751 Y20.295
X32.888 Y20.427
X32.905 Y20.443
X32.931 Y20.562
X32.96 Y20.677
X32.996 Y20.79
X33.676 Y22.661
X33.68 Y22.676
X33.952 Y24.219
X33.948 Y25.809
X33.68 Y27.324
X33.012 Y29.161
X32.982 Y29.249
X32.957 Y29.339
X32.902 Y29.562
X32.743 Y29.715
X32.676 Y29.782
X32.614 Y29.853
X32.613
G3 X32.153 Y29.852 I-0.23 J-0.193
G1 X30.601 Y27.983
X27.334 Y24.615
X27.314 Y24.598
X27.292 Y24.587
X26.833 Y24.418
X26.797 Y24.396
X26.771 Y24.363
X26.759 Y24.323
X26.762 Y24.281
G3 X32.278 Y25.716 Z-7.663 I2.758 J0.718 F333.3
X26.67 Y24.999 Z-7.95 I-2.758 J-0.718
X26.93 Y24.999 I0.13 J0 F1000
X23.07 Y24.999 I-1.93 J0
X30.53 Y24.999 I3.73 J0
X19.47 Y24.999 I-5.53 J0
X30.53 Y24.999 I5.53 J0
G2 X31.999 Y27.243 I2.448 J0
G3 X32.613 Y29.853 I-0.669 J1.535
G1 X31.372 Y31.335
X31.3 Y31.399
X30.157 Y32.36
X28.816 Y33.134
X28.356 Y33.305
X27.321 Y33.681
X27.304 Y33.685
X25.356 Y34.029
X25.24 Y34.054
X25.126 Y34.086
X25 Y34.127
X24.874 Y34.086
X24.76 Y34.054
X24.644 Y34.029
X22.684 Y33.683
X21.205 Y33.146
X19.862 Y32.371
X19.659 Y32.205
X18.639 Y31.348
X17.386 Y29.853
X17.324 Y29.782
X17.257 Y29.715
X17.098 Y29.562
X17.043 Y29.339
X17.018 Y29.249
X16.988 Y29.161
X16.32 Y27.324
X16.052 Y25.809
X16.048 Y24.218
X16.162 Y23.571
X16.322 Y22.664
X17.004 Y20.79
X17.04 Y20.677
X17.069 Y20.562
X17.095 Y20.442
X17.111 Y20.428
X17.213 Y20.332
X17.281 Y20.262
X17.373 Y20.162
X18.639 Y18.652
X19.839 Y17.644
X21.196 Y16.859
X22.68 Y16.318
X22.696 Y16.315
X24.644 Y15.971
X24.76 Y15.946
X24.874 Y15.914
X25 Y15.873
X25.126 Y15.914
X25.24 Y15.946
X25.356 Y15.971
X27.316 Y16.317
X28.804 Y16.859
X30.161 Y17.644
X31.346 Y18.64
X31.4 Y18.698
X32.627 Y20.162
X32.688 Y20.23
X32.751 Y20.295
X32.888 Y20.427
X32.905 Y20.443
X32.931 Y20.562
X32.96 Y20.677
X32.996 Y20.79
X33.676 Y22.661
X33.68 Y22.676
X33.952 Y24.219
X33.948 Y25.809
X33.68 Y27.324
X33.012 Y29.161
X32.982 Y29.249
X32.957 Y29.339
X32.902 Y29.562
X32.743 Y29.715
X32.676 Y29.782
X32.614 Y29.853
X32.613
G3 X32.331 Y29.847 I-0.139 J-0.116
G1 X31.814 Y29.173
X31.79 Y29.147
X27.362 Y25.259
X27.333 Y25.24
X27.3 Y25.229
X26.777 Y25.128
X26.735 Y25.112
X26.7 Y25.083
X26.678 Y25.043
X26.67 Y24.999
G3 X32.37 Y24.999 Z-8.25 I2.85 J0 F333.3
X26.67 Y24.999 Z-8.55 I-2.85 J0
X26.93 Y24.999 I0.13 J0 F1000
X23.07 Y24.999 I-1.93 J0
X30.53 Y24.999 I3.73 J0
X19.47 Y24.999 I-5.53 J0
X30.53 Y24.999 I5.53 J0
G2 X31.999 Y27.243 I2.448 J0
G3 X32.613 Y29.853 I-0.669 J1.535
G1 X31.372 Y31.335
X31.3 Y31.399
X30.157 Y32.36
X28.816 Y33.134
X28.356 Y33.305
X27.321 Y33.681
X27.304 Y33.685
X25.356 Y34.029
X25.24 Y34.054
X25.126 Y34.086
X25 Y34.127
X24.874 Y34.086
X24.76 Y34.054
X24.644 Y34.029
X22.684 Y33.683
X21.205 Y33.146
X19.862 Y32.371
X19.659 Y32.205
X18.639 Y31.348
X17.386 Y29.853
X17.324 Y29.782
X17.257 Y29.715
X17.098 Y29.562
X17.043 Y29.339
X17.018 Y29.249
X16.988 Y29.161
X16.32 Y27.324
X16.052 Y25.809
X16.048 Y24.218
X16.162 Y23.571
X16.322 Y22.664
X17.004 Y20.79
X17.04 Y20.677
X17.069 Y20.562
X17.095 Y20.442
X17.111 Y20.428
X17.213 Y20.332
X17.281 Y20.262
X17.373 Y20.162
X18.639 Y18.652
X19.839 Y17.644
X21.196 Y16.859
X22.68 Y16.318
X22.696 Y16.315
X24.644 Y15.971
X24.76 Y15.946
X24.874 Y15.914
X25 Y15.873
X25.126 Y15.914
X25.24 Y15.946
X25.356 Y15.971
X27.316 Y16.317
X28.804 Y16.859
X30.161 Y17.644
X31.346 Y18.64
X31.4 Y18.698
X32.627 Y20.162
X32.688 Y20.23
X32.751 Y20.295
X32.888 Y20.427
X32.905 Y20.443
X32.931 Y20.562
X32.96 Y20.677
X32.996 Y20.79
X33.676 Y22.661
X33.68 Y22.676
X33.952 Y24.219
X33.948 Y25.809
X33.68 Y27.324
X33.012 Y29.161
X32.982 Y29.249
X32.957 Y29.339
X32.902 Y29.562
X32.743 Y29.715
X32.676 Y29.782
X32.614 Y29.853
X32.613
G3 X32.153 Y29.852 I-0.23 J-0.193
G1 X30.601 Y27.983
X27.334 Y24.615
X27.314 Y24.598
X27.292 Y24.587
X26.833 Y24.418
X26.797 Y24.396
X26.771 Y24.363
X26.759 Y24.323
X26.762 Y24.281
G3 X32.278 Y25.716 Z-8.863 I2.758 J0.718 F333.3
X26.67 Y24.999 Z-9.15 I-2.758 J-0.718
X26.93 Y24.999 I0.13 J0 F1000
X23.07 Y24.999 I-1.93 J0
X30.53 Y24.999 I3.73 J0
X19.47 Y24.999 I-5.53 J0
X30.53 Y24.999 I5.53 J0
G2 X31.999 Y27.243 I2.448 J0
G3 X32.613 Y29.853 I-0.669 J1.535
G1 X31.372 Y31.335
X31.3 Y31.399
X30.157 Y32.36
X28.816 Y33.134
X28.356 Y33.305
X27.321 Y33.681
X27.304 Y33.685
X25.356 Y34.029
X25.24 Y34.054
X25.126 Y34.086
X25 Y34.127
X24.874 Y34.086
X24.76 Y34.054
X24.644 Y34.029
X22.684 Y33.683
X21.205 Y33.146
X19.862 Y32.371
X19.659 Y32.205
X18.639 Y31.348
X17.386 Y29.853
X17.324 Y29.782
X17.257 Y29.715
X17.098 Y29.562
X17.043 Y29.339
X17.018 Y29.249
X16.988 Y29.161
X16.32 Y27.324
X16.052 Y25.809
X16.048 Y24.218
X16.162 Y23.571
X16.322 Y22.664
X17.004 Y20.79
X17.04 Y20.677
X17.069 Y20.562
X17.095 Y20.442
X17.111 Y20.428
X17.213 Y20.332
X17.281 Y20.262
X17.373 Y20.162
X18.639 Y18.652
X19.839 Y17.644
X21.196 Y16.859
X22.68 Y16.318
X22.696 Y16.315
X24.644 Y15.971
X24.76 Y15.946
X24.874 Y15.914
X25 Y15.873
X25.126 Y15.914
X25.24 Y15.946
X25.356 Y15.971
X27.316 Y16.317
X28.804 Y16.859
X30.161 Y17.644
X31.346 Y18.64
X31.4 Y18.698
X32.627 Y20.162
X32.688 Y20.23
X32.751 Y20.295
X32.888 Y20.427
X32.905 Y20.443
X32.931 Y20.562
X32.96 Y20.677
X32.996 Y20.79
X33.676 Y22.661
X33.68 Y22.676
X33.952 Y24.219
X33.948 Y25.809
X33.68 Y27.324
X33.012 Y29.161
X32.982 Y29.249
X32.957 Y29.339
X32.902 Y29.562
X32.743 Y29.715
X32.676 Y29.782
X32.614 Y29.853
X32.613
G3 X32.085 Y29.687 I-0.23 J-0.193
G1 X31.594 Y24.091
G3 X32.172 Y23.954 I0.299 J-0.026
X26.868 Y26.043 Z-9.463 I-2.652 J1.044 F333.3
X26.67 Y24.999 Z-9.5 I2.652 J-1.044
X26.93 Y24.999 I0.13 J0 F1000
X23.07 Y24.999 I-1.93 J0
X30.53 Y24.999 I3.73 J0
X19.47 Y24.999 I-5.53 J0
X30.53 Y24.999 I5.53 J0
G2 X31.999 Y27.243 I2.448 J0
G3 X32.613 Y29.853 I-0.669 J1.535
G1 X31.372 Y31.335
X31.3 Y31.399
X30.157 Y32.36
X28.816 Y33.134
X28.356 Y33.305
X27.321 Y33.681
X27.304 Y33.685
X25.356 Y34.029
X25.24 Y34.054
X25.126 Y34.086
X25 Y34.127
X24.874 Y34.086
X24.76 Y34.054
X24.644 Y34.029
X22.684 Y33.683
X21.205 Y33.146
X19.862 Y32.371
X19.659 Y32.205
X18.639 Y31.348
X17.386 Y29.853
X17.324 Y29.782
X17.257 Y29.715
X17.098 Y29.562
X17.043 Y29.339
X17.018 Y29.249
X16.988 Y29.161
X16.32 Y27.324
X16.052 Y25.809
X16.048 Y24.218
X16.162 Y23.571
X16.322 Y22.664
X17.004 Y20.79
X17.04 Y20.677
X17.069 Y20.562
X17.095 Y20.442
X17.111 Y20.428
X17.213 Y20.332
X17.281 Y20.262
X17.373 Y20.162
X18.639 Y18.652
X19.839 Y17.644
X21.196 Y16.859
X22.68 Y16.318
X22.696 Y16.315
X24.644 Y15.971
X24.76 Y15.946
X24.874 Y15.914
X25 Y15.873
X25.126 Y15.914
X25.24 Y15.946
X25.356 Y15.971
X27.316 Y16.317
X28.804 Y16.859
X30.161 Y17.644
X31.346 Y18.64
X31.4 Y18.698
X32.627 Y20.162
X32.688 Y20.23
X32.751 Y20.295
X32.888 Y20.427
X32.905 Y20.443
X32.931 Y20.562
X32.96 Y20.677
X32.996 Y20.79
X33.676 Y22.661
X33.68 Y22.676
X33.952 Y24.219
X33.948 Y25.809
X33.68 Y27.324
X33.012 Y29.161
X32.982 Y29.249
X32.957 Y29.339
X32.902 Y29.562
X32.743 Y29.715
X32.676 Y29.782
X32.614 Y29.853
X32.613
X32.566 Y29.901 Z-9.492
X32.514 Y29.943 Z-9.485
X32.461 Y29.977 Z-9.463
X32.404 Y30.005 Z-9.441
X32.351 Y30.024 Z-9.405
X32.296 Y30.039 Z-9.369
X32.202 Y30.051 Z-9.274
X32.13 Y30.05 Z-9.16
X32.086 Y30.045 Z-9.034
X32.071 Y30.042 Z-8.9
G0 Z5
X46.457 Y48.944
G1 Z1.33 F333.3
X46.441 Y48.945 Z1.192
X46.394 Y48.947 Z1.062
X46.318 Y48.948 Z0.946
X46.228 Y48.946 Z0.858
X46.121 Y48.941 Z0.791
X46.003 Y48.929 Z0.748
X45.88 Y48.912 Z0.73
G3 X46.756 Y43.65 Z0.437 I0.438 J-2.631
X45.88 Y48.912 Z0.145 I-0.438 J2.631
X46.756 Y43.65 Z-0.148 I0.438 J-2.631
X46.318 Y48.948 Z-0.425 I-0.438 J2.631
G1 X38.415 Y48.949 F1000
X39.888 Y48.118
X39.982 Y48.061
X40.072 Y47.998
X42.547 Y46.157
X42.562 Y46.146
X42.727 Y46.02
X42.803 Y45.959
X42.875 Y45.894
X43.418 Y45.376
X43.429 Y45.367
X45.235 Y43.616
X45.295 Y43.555
X45.352 Y43.491
X45.546 Y43.262
X45.581 Y43.22
X47.493 Y40.815
X47.559 Y40.726
X47.62 Y40.634
X48.986 Y38.382
X48.985 Y46.277
X48.984 Y48.942
X48.978 Y48.947
X46.318 Y48.948
X46.293 Y48.941
X46.276 Y48.921
X46.271 Y48.896
X46.293 Y48.666
X45.426 Y43.842
X45.408 Y43.774
G3 X47.227 Y48.788 Z-0.718 I0.91 J2.507 F333.3
X46.318 Y48.948 Z-0.75 I-0.91 J-2.507
G1 X38.415 Y48.949 F1000
X39.888 Y48.118
X39.982 Y48.061
X40.072 Y47.998
X42.547 Y46.157
X42.562 Y46.146
X42.727 Y46.02
X42.803 Y45.959
X42.875 Y45.894
X43.418 Y45.376
X43.429 Y45.367
X45.235 Y43.616
X45.295 Y43.555
X45.352 Y43.491
X45.546 Y43.262
X45.581 Y43.22
X47.493 Y40.815
X47.559 Y40.726
X47.62 Y40.634
X48.986 Y38.382
X48.984 Y48.942
X48.978 Y48.947
X46.318 Y48.948
X46.289 Y48.941
X46.266 Y48.922
X46.254 Y48.895
X46.255 Y48.865
X46.269 Y48.839
X46.294 Y48.822
X46.514 Y48.736
X46.745 Y48.786
X46.771 Y48.799
X46.79 Y48.822
X46.795 Y48.852
X46.788 Y48.88
X46.768 Y48.903
X46.74 Y48.914
G3 X45.895 Y43.647 Z-1.043 I-0.423 J-2.633 F333.3
X48.976 Y46.069 Z-1.196 I0.423 J2.633
X46.318 Y48.948 Z-1.35 I-2.659 J0.212
G1 X38.415 Y48.949 F1000
X39.888 Y48.118
X39.982 Y48.061
X40.072 Y47.998
X42.547 Y46.157
X42.562 Y46.146
X42.727 Y46.02
X42.803 Y45.959
X42.875 Y45.894
X43.418 Y45.376
X43.429 Y45.367
X45.235 Y43.616
X45.295 Y43.555
X45.352 Y43.491
X45.546 Y43.262
X45.581 Y43.22
X47.493 Y40.815
X47.559 Y40.726
X47.62 Y40.634
X48.986 Y38.382
X48.984 Y48.942
X48.978 Y48.947
X46.318 Y48.948
X46.289 Y48.941
X46.266 Y48.922
X46.254 Y48.895
X46.255 Y48.865
X46.269 Y48.839
X46.294 Y48.822
X46.514 Y48.736
X46.745 Y48.786
X46.771 Y48.799
X46.79 Y48.822
X46.795 Y48.852
X46.788 Y48.88
X46.768 Y48.903
X46.74 Y48.914
G3 X45.895 Y43.647 Z-1.643 I-0.423 J-2.633 F333.3
X48.976 Y46.069 Z-1.796 I0.423 J2.633
X46.318 Y48.948 Z-1.95 I-2.659 J0.212
G1 X38.415 Y48.949 F1000
X39.888 Y48.118
X39.982 Y48.061
X40.072 Y47.998
X42.547 Y46.157
X42.562 Y46.146
X42.727 Y46.02
X42.803 Y45.959
X42.875 Y45.894
X43.418 Y45.376
X43.429 Y45.367
X45.235 Y43.616
X45.295 Y43.555
X45.352 Y43.491
X45.546 Y43.262
X45.581 Y43.22
X47.493 Y40.815
X47.559 Y40.726
X47.62 Y40.634
X48.986 Y38.382
X48.984 Y48.942
X48.978 Y48.947
X46.318 Y48.948
X46.289 Y48.941
X46.266 Y48.922
X46.254 Y48.895
X46.255 Y48.865
X46.269 Y48.839
X46.294 Y48.822
X46.514 Y48.736
X46.745 Y48.786
X46.771 Y48.799
X46.79 Y48.822
X46.795 Y48.852
X46.788 Y48.88
X46.768 Y48.903
X46.74 Y48.914
G3 X45.895 Y43.647 Z-2.243 I-0.423 J-2.633 F333.3
X48.976 Y46.069 Z-2.396 I0.423 J2.633
X46.318 Y48.948 Z-2.55 I-2.659 J0.212
G1 X38.415 Y48.949 F1000
X39.888 Y48.118
X39.982 Y48.061
X40.072 Y47.998
X42.547 Y46.157
X42.562 Y46.146
X42.727 Y46.02
X42.803 Y45.959
X42.875 Y45.894
X43.418 Y45.376
X43.429 Y45.367
X45.235 Y43.616
X45.295 Y43.555
X45.352 Y43.491
X45.546 Y43.262
X45.581 Y43.22
X47.493 Y40.815
X47.559 Y40.726
X47.62 Y40.634
X48.986 Y38.382
X48.984 Y48.942
X48.978 Y48.947
X46.318 Y48.948
X46.289 Y48.941
X46.266 Y48.922
X46.254 Y48.895
X46.255 Y48.865
X46.269 Y48.839
X46.294 Y48.822
X46.514 Y48.736
X46.745 Y48.786
X46.771 Y48.799
X46.79 Y48.822
X46.795 Y48.852
X46.788 Y48.88
X46.768 Y48.903
X46.74 Y48.914
G3 X45.895 Y43.647 Z-2.843 I-0.423 J-2.633 F333.3
X48.976 Y46.069 Z-2.996 I0.423 J2.633
X46.318 Y48.948 Z-3.15 I-2.659 J0.212
G1 X38.415 Y48.949 F1000
X39.888 Y48.118
X39.982 Y48.061
X40.072 Y47.998
X42.547 Y46.157
X42.562 Y46.146
X42.727 Y46.02
X42.803 Y45.959
X42.875 Y45.894
X43.418 Y45.376
X43.429 Y45.367
X45.235 Y43.616
X45.295 Y43.555
X45.352 Y43.491
X45.546 Y43.262
X45.581 Y43.22
X47.493 Y40.815
X47.559 Y40.726
X47.62 Y40.634
X48.986 Y38.382
X48.984 Y48.942
X48.978 Y48.947
X46.318 Y48.948
X46.289 Y48.941
X46.266 Y48.922
X46.254 Y48.895
X46.255 Y48.865
X46.269 Y48.839
X46.294 Y48.822
X46.514 Y48.736
X46.745 Y48.786
X46.771 Y48.799
X46.79 Y48.822
X46.795 Y48.852
X46.788 Y48.88
X46.768 Y48.903
X46.74 Y48.914
G3 X45.895 Y43.647 Z-3.443 I-0.423 J-2.633 F333.3
X48.976 Y46.069 Z-3.596 I0.423 J2.633
X46.318 Y48.948 Z-3.75 I-2.659 J0.212
G1 X38.415 Y48.949 F1000
X39.888 Y48.118
X39.982 Y48.061
X40.072 Y47.998
X42.547 Y46.157
X42.562 Y46.146
X42.727 Y46.02
X42.803 Y45.959
X42.875 Y45.894
X43.418 Y45.376
X43.429 Y45.367
X45.235 Y43.616
X45.295 Y43.555
X45.352 Y43.491
X45.546 Y43.262
X45.581 Y43.22
X47.493 Y40.815
X47.559 Y40.726
X47.62 Y40.634
X48.986 Y38.382
X48.984 Y48.942
X48.978 Y48.947
X46.318 Y48.948
X46.289 Y48.941
X46.266 Y48.922
X46.254 Y48.895
X46.255 Y48.865
X46.269 Y48.839
X46.294 Y48.822
X46.514 Y48.736
X46.745 Y48.786
X46.771 Y48.799
X46.79 Y48.822
X46.795 Y48.852
X46.788 Y48.88
X46.768 Y48.903
X46.74 Y48.914
G3 X45.895 Y43.647 Z-4.043 I-0.423 J-2.633 F333.3
X48.976 Y46.069 Z-4.196 I0.423 J2.633
X46.318 Y48.948 Z-4.35 I-2.659 J0.212
G1 X38.415 Y48.949 F1000
X39.888 Y48.118
X39.982 Y48.061
X40.072 Y47.998
X42.547 Y46.157
X42.562 Y46.146
X42.727 Y46.02
X42.803 Y45.959
X42.875 Y45.894
X43.418 Y45.376
X43.429 Y45.367
X45.235 Y43.616
X45.295 Y43.555
X45.352 Y43.491
X45.546 Y43.262
X45.581 Y43.22
X47.493 Y40.815
X47.559 Y40.726
X47.62 Y40.634
X48.986 Y38.382
X48.984 Y48.942
X48.978 Y48.947
X46.318 Y48.948
X46.289 Y48.941
X46.266 Y48.922
X46.254 Y48.895
X46.255 Y48.865
X46.269 Y48.839
X46.294 Y48.822
X46.514 Y48.736
X46.745 Y48.786
X46.771 Y48.799
X46.79 Y48.822
X46.795 Y48.852
X46.788 Y48.88
X46.768 Y48.903
X46.74 Y48.914
G3 X45.895 Y43.647 Z-4.643 I-0.423 J-2.633 F333.3
X48.976 Y46.069 Z-4.796 I0.423 J2.633
X46.318 Y48.948 Z-4.95 I-2.659 J0.212
G1 X38.415 Y48.949 F1000
X39.888 Y48.118
X39.982 Y48.061
X40.072 Y47.998
X42.547 Y46.157
X42.562 Y46.146
X42.727 Y46.02
X42.803 Y45.959
X42.875 Y45.894
X43.418 Y45.376
X43.429 Y45.367
X45.235 Y43.616
X45.295 Y43.555
X45.352 Y43.491
X45.546 Y43.262
X45.581 Y43.22
X47.493 Y40.815
X47.559 Y40.726
X47.62 Y40.634
X48.986 Y38.382
X48.984 Y48.942
X48.978 Y48.947
X46.318 Y48.948
X46.289 Y48.941
X46.266 Y48.922
X46.254 Y48.895
X46.255 Y48.865
X46.269 Y48.839
X46.294 Y48.822
X46.514 Y48.736
X46.745 Y48.786
X46.771 Y48.799
X46.79 Y48.822
X46.795 Y48.852
X46.788 Y48.88
X46.768 Y48.903
X46.74 Y48.914
G3 X45.895 Y43.647 Z-5.243 I-0.423 J-2.633 F333.3
X48.976 Y46.069 Z-5.396 I0.423 J2.633
X46.318 Y48.948 Z-5.55 I-2.659 J0.212
G1 X38.415 Y48.949 F1000
X39.888 Y48.118
X39.982 Y48.061
X40.072 Y47.998
X42.547 Y46.157
X42.562 Y46.146
X42.727 Y46.02
X42.803 Y45.959
X42.875 Y45.894
X43.418 Y45.376
X43.429 Y45.367
X45.235 Y43.616
X45.295 Y43.555
X45.352 Y43.491
X45.546 Y43.262
X45.581 Y43.22
X47.493 Y40.815
X47.559 Y40.726
X47.62 Y40.634
X48.986 Y38.382
X48.984 Y48.942
X48.978 Y48.947
X46.318 Y48.948
X46.289 Y48.941
X46.266 Y48.922
X46.254 Y48.895
X46.255 Y48.865
X46.269 Y48.839
X46.294 Y48.822
X46.514 Y48.736
X46.745 Y48.786
X46.771 Y48.799
X46.79 Y48.822
X46.795 Y48.852
X46.788 Y48.88
X46.768 Y48.903
X46.74 Y48.914
G3 X45.895 Y43.647 Z-5.843 I-0.423 J-2.633 F333.3
X48.976 Y46.069 Z-5.996 I0.423 J2.633
X46.318 Y48.948 Z-6.15 I-2.659 J0.212
G1 X38.415 Y48.949 F1000
X39.888 Y48.118
X39.982 Y48.061
X40.072 Y47.998
X42.547 Y46.157
X42.562 Y46.146
X42.727 Y46.02
X42.803 Y45.959
X42.875 Y45.894
X43.418 Y45.376
X43.429 Y45.367
X45.235 Y43.616
X45.295 Y43.555
X45.352 Y43.491
X45.546 Y43.262
X45.581 Y43.22
X47.493 Y40.815
X47.559 Y40.726
X47.62 Y40.634
X48.986 Y38.382
X48.984 Y48.942
X48.978 Y48.947
X46.318 Y48.948
X46.289 Y48.941
X46.266 Y48.922
X46.254 Y48.895
X46.255 Y48.865
X46.269 Y48.839
X46.294 Y48.822
X46.514 Y48.736
X46.745 Y48.786
X46.771 Y48.799
X46.79 Y48.822
X46.795 Y48.852
X46.788 Y48.88
X46.768 Y48.903
X46.74 Y48.914
G3 X45.895 Y43.647 Z-6.443 I-0.423 J-2.633 F333.3
X48.976 Y46.069 Z-6.596 I0.423 J2.633
X46.318 Y48.948 Z-6.75 I-2.659 J0.212
G1 X38.415 Y48.949 F1000
X39.888 Y48.118
X39.982 Y48.061
X40.072 Y47.998
X42.547 Y46.157
X42.562 Y46.146
X42.727 Y46.02
X42.803 Y45.959
X42.875 Y45.894
X43.418 Y45.376
X43.429 Y45.367
X45.235 Y43.616
X45.295 Y43.555
X45.352 Y43.491
X45.546 Y43.262
X45.581 Y43.22
X47.493 Y40.815
X47.559 Y40.726
X47.62 Y40.634
X48.986 Y38.382
X48.984 Y48.942
X48.978 Y48.947
X46.318 Y48.948
X46.289 Y48.941
X46.266 Y48.922
X46.254 Y48.895
X46.255 Y48.865
X46.269 Y48.839
X46.294 Y48.822
X46.514 Y48.736
X46.745 Y48.786
X46.771 Y48.799
X46.79 Y48.822
X46.795 Y48.852
X46.788 Y48.88
X46.768 Y48.903
X46.74 Y48.914
G3 X45.895 Y43.647 Z-7.043 I-0.423 J-2.633 F333.3
X48.976 Y46.069 Z-7.196 I0.423 J2.633
X46.318 Y48.948 Z-7.35 I-2.659 J0.212
G1 X38.415 Y48.949 F1000
X39.888 Y48.118
X39.982 Y48.061
X40.072 Y47.998
X42.547 Y46.157
X42.562 Y46.146
X42.727 Y46.02
X42.803 Y45.959
X42.875 Y45.894
X43.418 Y45.376
X43.429 Y45.367
X45.235 Y43.616
X45.295 Y43.555
X45.352 Y43.491
X45.546 Y43.262
X45.581 Y43.22
X47.493 Y40.815
X47.559 Y40.726
X47.62 Y40.634
X48.986 Y38.382
X48.984 Y48.942
X48.978 Y48.947
X46.318 Y48.948
X46.289 Y48.941
X46.266 Y48.922
X46.254 Y48.895
X46.255 Y48.865
X46.269 Y48.839
X46.294 Y48.822
X46.514 Y48.736
X46.745 Y48.786
X46.771 Y48.799
X46.79 Y48.822
X46.795 Y48.852
X46.788 Y48.88
X46.768 Y48.903
X46.74 Y48.914
G3 X45.895 Y43.647 Z-7.643 I-0.423 J-2.633 F333.3
X48.976 Y46.069 Z-7.796 I0.423 J2.633
X46.318 Y48.948 Z-7.95 I-2.659 J0.212
G1 X38.415 Y48.949 F1000
X39.888 Y48.118
X39.982 Y48.061
X40.072 Y47.998
X42.547 Y46.157
X42.562 Y46.146
X42.727 Y46.02
X42.803 Y45.959
X42.875 Y45.894
X43.418 Y45.376
X43.429 Y45.367
X45.235 Y43.616
X45.295 Y43.555
X45.352 Y43.491
X45.546 Y43.262
X45.581 Y43.22
X47.493 Y40.815
X47.559 Y40.726
X47.62 Y40.634
X48.986 Y38.382
X48.984 Y48.942
X48.978 Y48.947
X46.318 Y48.948
X46.289 Y48.941
X46.266 Y48.922
X46.254 Y48.895
X46.255 Y48.865
X46.269 Y48.839
X46.294 Y48.822
X46.514 Y48.736
X46.745 Y48.786
X46.771 Y48.799
X46.79 Y48.822
X46.795 Y48.852
X46.788 Y48.88
X46.768 Y48.903
X46.74 Y48.914
G3 X45.895 Y43.647 Z-8.243 I-0.423 J-2.633 F333.3
X48.976 Y46.069 Z-8.396 I0.423 J2.633
X46.318 Y48.948 Z-8.55 I-2.659 J0.212
G1 X38.415 Y48.949 F1000
X39.888 Y48.118
X39.982 Y48.061
X40.072 Y47.998
X42.547 Y46.157
X42.562 Y46.146
X42.727 Y46.02
X42.803 Y45.959
X42.875 Y45.894
X43.418 Y45.376
X43.429 Y45.367
X45.235 Y43.616
X45.295 Y43.555
X45.352 Y43.491
X45.546 Y43.262
X45.581 Y43.22
X47.493 Y40.815
X47.559 Y40.726
X47.62 Y40.634
X48.986 Y38.382
X48.984 Y48.942
X48.978 Y48.947
X46.318 Y48.948
X46.289 Y48.941
X46.266 Y48.922
X46.254 Y48.895
X46.255 Y48.865
X46.269 Y48.839
X46.294 Y48.822
X46.514 Y48.736
X46.745 Y48.786
X46.771 Y48.799
X46.79 Y48.822
X46.795 Y48.852
X46.788 Y48.88
X46.768 Y48.903
X46.74 Y48.914
G3 X45.895 Y43.647 Z-8.843 I-0.423 J-2.633 F333.3
X48.976 Y46.069 Z-8.996 I0.423 J2.633
X46.318 Y48.948 Z-9.15 I-2.659 J0.212
G1 X38.415 Y48.949 F1000
X39.888 Y48.118
X39.982 Y48.061
X40.072 Y47.998
X42.547 Y46.157
X42.562 Y46.146
X42.727 Y46.02
X42.803 Y45.959
X42.875 Y45.894
X43.418 Y45.376
X43.429 Y45.367
X45.235 Y43.616
X45.295 Y43.555
X45.352 Y43.491
X45.546 Y43.262
X45.581 Y43.22
X47.493 Y40.815
X47.559 Y40.726
X47.62 Y40.634
X48.986 Y38.382
X48.984 Y48.942
X48.978 Y48.947
X46.318 Y48.948
G3 X46.018 Y48.659 I0 J-0.3
G1 X45.937 Y46.486
X45.93 Y46.433
X45.914 Y46.381
X45.888 Y46.333
X44.698 Y44.514
G3 X44.776 Y44.105 I0.251 J-0.164
X47.86 Y48.457 Z-9.443 I1.542 J2.176 F333.3
X46.318 Y48.948 Z-9.5 I-1.542 J-2.176
G1 X38.415 Y48.949 F1000
X39.888 Y48.118
X39.982 Y48.061
X40.072 Y47.998
X42.547 Y46.157
X42.562 Y46.146
X42.727 Y46.02
X42.803 Y45.959
X42.875 Y45.894
X43.418 Y45.376
X43.429 Y45.367
X45.235 Y43.616
X45.295 Y43.555
X45.352 Y43.491
X45.546 Y43.262
X45.581 Y43.22
X47.493 Y40.815
X47.559 Y40.726
X47.62 Y40.634
X48.986 Y38.382
X48.984 Y48.942
X48.978 Y48.947
X46.318 Y48.948
X46.252 Y48.942 Z-9.492
X46.186 Y48.929 Z-9.485
X46.126 Y48.91 Z-9.463
X46.068 Y48.884 Z-9.441
X46.018 Y48.856 Z-9.405
X45.972 Y48.823 Z-9.369
X45.902 Y48.759 Z-9.274
X45.857 Y48.704 Z-9.16
X45.833 Y48.667 Z-9.034
X45.825 Y48.654 Z-8.9
G0 Z5
X6.347 Y46.148
G1 Z1.33 F333.3
X6.348 Y46.163 Z1.195
X6.35 Y46.208 Z1.068
X6.351 Y46.28 Z0.954
X6.349 Y46.371 Z0.863
X6.343 Y46.479 Z0.793
X6.332 Y46.599 Z0.748
X6.313 Y46.725 Z0.73
G3 X1.053 Y45.836 Z0.437 I-2.63 J-0.444
X6.313 Y46.725 Z0.145 I2.63 J0.444
X1.053 Y45.836 Z-0.148 I-2.63 J-0.444
X6.351 Y46.28 Z-0.425 I2.63 J0.444
X3.684 Y48.948 I-2.667 J0
X1.016 Y46.281 I0 J-2.667
G1 X1.015 Y38.387 F1000
X2.381 Y40.635
X2.441 Y40.727
X2.507 Y40.816
X4.547 Y43.378
X4.618 Y43.461
X4.694 Y43.54
X5.886 Y44.703
X5.891 Y44.707
X6.95 Y45.733
X6.983 Y45.764
X7.148 Y45.916
X7.215 Y45.974
X7.285 Y46.029
X9.76 Y47.879
X9.798 Y47.906
X9.963 Y48.023
X10.037 Y48.072
X10.113 Y48.118
X11.587 Y48.949
X1.022 Y48.947
X1.016
Y46.281
G3 X6.351 Y46.28 Z-0.588 I2.667 J0 F333.3
X1.016 Y46.281 Z-0.75 I-2.667 J0
G1 X1.015 Y38.387 F1000
X2.381 Y40.635
X2.441 Y40.727
X2.507 Y40.816
X4.547 Y43.378
X4.618 Y43.461
X4.694 Y43.54
X5.886 Y44.703
X5.891 Y44.707
X6.95 Y45.733
X6.983 Y45.764
X7.148 Y45.916
X7.215 Y45.974
X7.285 Y46.029
X9.76 Y47.879
X9.798 Y47.906
X9.963 Y48.023
X10.037 Y48.072
X10.113 Y48.118
X11.587 Y48.949
X1.022 Y48.947
X1.016
Y46.281
G3 X1.341 Y45.982 I0.3 J0
G1 X3.626 Y46.175
X3.675
X3.723 Y46.167
X5.949 Y45.617
G3 X6.317 Y45.861 I0.072 J0.291
X1.049 Y46.7 Z-1.043 I-2.634 J0.42 F333.3
X3.472 Y43.621 Z-1.196 I2.634 J-0.42
X6.351 Y46.28 Z-1.35 I0.211 J2.659
X3.684 Y48.948 I-2.667 J0
X1.016 Y46.281 I0 J-2.667
G1 X1.015 Y38.387 F1000
X2.381 Y40.635
X2.441 Y40.727
X2.507 Y40.816
X4.547 Y43.378
X4.618 Y43.461
X4.694 Y43.54
X5.886 Y44.703
X5.891 Y44.707
X6.95 Y45.733
X6.983 Y45.764
X7.148 Y45.916
X7.215 Y45.974
X7.285 Y46.029
X9.76 Y47.879
X9.798 Y47.906
X9.963 Y48.023
X10.037 Y48.072
X10.113 Y48.118
X11.587 Y48.949
X1.022 Y48.947
X1.016
Y46.281
G3 X1.341 Y45.982 I0.3 J0
G1 X3.626 Y46.175
X3.675
X3.723 Y46.167
X5.949 Y45.617
G3 X6.317 Y45.861 I0.072 J0.291
X1.049 Y46.7 Z-1.643 I-2.634 J0.42 F333.3
X3.472 Y43.621 Z-1.796 I2.634 J-0.42
X6.351 Y46.28 Z-1.95 I0.211 J2.659
X3.684 Y48.948 I-2.667 J0
X1.016 Y46.281 I0 J-2.667
G1 X1.015 Y38.387 F1000
X2.381 Y40.635
X2.441 Y40.727
X2.507 Y40.816
X4.547 Y43.378
X4.618 Y43.461
X4.694 Y43.54
X5.886 Y44.703
X5.891 Y44.707
X6.95 Y45.733
X6.983 Y45.764
X7.148 Y45.916
X7.215 Y45.974
X7.285 Y46.029
X9.76 Y47.879
X9.798 Y47.906
X9.963 Y48.023
X10.037 Y48.072
X10.113 Y48.118
X11.587 Y48.949
X1.022 Y48.947
X1.016
Y46.281
G3 X1.341 Y45.982 I0.3 J0
G1 X3.626 Y46.175
X3.675
X3.723 Y46.167
X5.949 Y45.617
G3 X6.317 Y45.861 I0.072 J0.291
X1.049 Y46.7 Z-2.243 I-2.634 J0.42 F333.3
X3.472 Y43.621 Z-2.396 I2.634 J-0.42
X6.351 Y46.28 Z-2.55 I0.211 J2.659
X3.684 Y48.948 I-2.667 J0
X1.016 Y46.281 I0 J-2.667
G1 X1.015 Y38.387 F1000
X2.381 Y40.635
X2.441 Y40.727
X2.507 Y40.816
X4.547 Y43.378
X4.618 Y43.461
X4.694 Y43.54
X5.886 Y44.703
X5.891 Y44.707
X6.95 Y45.733
X6.983 Y45.764
X7.148 Y45.916
X7.215 Y45.974
X7.285 Y46.029
X9.76 Y47.879
X9.798 Y47.906
X9.963 Y48.023
X10.037 Y48.072
X10.113 Y48.118
X11.587 Y48.949
X1.022 Y48.947
X1.016
Y46.281
G3 X1.341 Y45.982 I0.3 J0
G1 X3.626 Y46.175
X3.675
X3.723 Y46.167
X5.949 Y45.617
G3 X6.317 Y45.861 I0.072 J0.291
X1.049 Y46.7 Z-2.843 I-2.634 J0.42 F333.3
X3.472 Y43.621 Z-2.996 I2.634 J-0.42
X6.351 Y46.28 Z-3.15 I0.211 J2.659
X3.684 Y48.948 I-2.667 J0
X1.016 Y46.281 I0 J-2.667
G1 X1.015 Y38.387 F1000
X2.381 Y40.635
X2.441 Y40.727
X2.507 Y40.816
X4.547 Y43.378
X4.618 Y43.461
X4.694 Y43.54
X5.886 Y44.703
X5.891 Y44.707
X6.95 Y45.733
X6.983 Y45.764
X7.148 Y45.916
X7.215 Y45.974
X7.285 Y46.029
X9.76 Y47.879
X9.798 Y47.906
X9.963 Y48.023
X10.037 Y48.072
X10.113 Y48.118
X11.587 Y48.949
X1.022 Y48.947
X1.016
Y46.281
G3 X1.341 Y45.982 I0.3 J0
G1 X3.626 Y46.175
X3.675
X3.723 Y46.167
X5.949 Y45.617
G3 X6.317 Y45.861 I0.072 J0.291
X1.049 Y46.7 Z-3.443 I-2.634 J0.42 F333.3
X3.472 Y43.621 Z-3.596 I2.634 J-0.42
X6.351 Y46.28 Z-3.75 I0.211 J2.659
X3.684 Y48.948 I-2.667 J0
X1.016 Y46.281 I0 J-2.667
G1 X1.015 Y38.387 F1000
X2.381 Y40.635
X2.441 Y40.727
X2.507 Y40.816
X4.547 Y43.378
X4.618 Y43.461
X4.694 Y43.54
X5.886 Y44.703
X5.891 Y44.707
X6.95 Y45.733
X6.983 Y45.764
X7.148 Y45.916
X7.215 Y45.974
X7.285 Y46.029
X9.76 Y47.879
X9.798 Y47.906
X9.963 Y48.023
X10.037 Y48.072
X10.113 Y48.118
X11.587 Y48.949
X1.022 Y48.947
X1.016
Y46.281
G3 X1.341 Y45.982 I0.3 J0
G1 X3.626 Y46.175
X3.675
X3.723 Y46.167
X5.949 Y45.617
G3 X6.317 Y45.861 I0.072 J0.291
X1.049 Y46.7 Z-4.043 I-2.634 J0.42 F333.3
X3.472 Y43.621 Z-4.196 I2.634 J-0.42
X6.351 Y46.28 Z-4.35 I0.211 J2.659
X3.684 Y48.948 I-2.667 J0
X1.016 Y46.281 I0 J-2.667
G1 X1.015 Y38.387 F1000
X2.381 Y40.635
X2.441 Y40.727
X2.507 Y40.816
X4.547 Y43.378
X4.618 Y43.461
X4.694 Y43.54
X5.886 Y44.703
X5.891 Y44.707
X6.95 Y45.733
X6.983 Y45.764
X7.148 Y45.916
X7.215 Y45.974
X7.285 Y46.029
X9.76 Y47.879
X9.798 Y47.906
X9.963 Y48.023
X10.037 Y48.072
X10.113 Y48.118
X11.587 Y48.949
X1.022 Y48.947
X1.016
Y46.281
G3 X1.341 Y45.982 I0.3 J0
G1 X3.626 Y46.175
X3.675
X3.723 Y46.167
X5.949 Y45.617
G3 X6.317 Y45.861 I0.072 J0.291
X1.049 Y46.7 Z-4.643 I-2.634 J0.42 F333.3
X3.472 Y43.621 Z-4.796 I2.634 J-0.42
X6.351 Y46.28 Z-4.95 I0.211 J2.659
X3.684 Y48.948 I-2.667 J0
X1.016 Y46.281 I0 J-2.667
G1 X1.015 Y38.387 F1000
X2.381 Y40.635
X2.441 Y40.727
X2.507 Y40.816
X4.547 Y43.378
X4.618 Y43.461
X4.694 Y43.54
X5.886 Y44.703
X5.891 Y44.707
X6.95 Y45.733
X6.983 Y45.764
X7.148 Y45.916
X7.215 Y45.974
X7.285 Y46.029
X9.76 Y47.879
X9.798 Y47.906
X9.963 Y48.023
X10.037 Y48.072
X10.113 Y48.118
X11.587 Y48.949
X1.022 Y48.947
X1.016
Y46.281
G3 X1.341 Y45.982 I0.3 J0
G1 X3.626 Y46.175
X3.675
X3.723 Y46.167
X5.949 Y45.617
G3 X6.317 Y45.861 I0.072 J0.291
X1.049 Y46.7 Z-5.243 I-2.634 J0.42 F333.3
X3.472 Y43.621 Z-5.396 I2.634 J-0.42
X6.351 Y46.28 Z-5.55 I0.211 J2.659
X3.684 Y48.948 I-2.667 J0
X1.016 Y46.281 I0 J-2.667
G1 X1.015 Y38.387 F1000
X2.381 Y40.635
X2.441 Y40.727
X2.507 Y40.816
X4.547 Y43.378
X4.618 Y43.461
X4.694 Y43.54
X5.886 Y44.703
X5.891 Y44.707
X6.95 Y45.733
X6.983 Y45.764
X7.148 Y45.916
X7.215 Y45.974
X7.285 Y46.029
X9.76 Y47.879
X9.798 Y47.906
X9.963 Y48.023
X10.037 Y48.072
X10.113 Y48.118
X11.587 Y48.949
X1.022 Y48.947
X1.016
Y46.281
G3 X1.341 Y45.982 I0.3 J0
G1 X3.626 Y46.175
X3.675
X3.723 Y46.167
X5.949 Y45.617
G3 X6.317 Y45.861 I0.072 J0.291
X1.049 Y46.7 Z-5.843 I-2.634 J0.42 F333.3
X3.472 Y43.621 Z-5.996 I2.634 J-0.42
X6.351 Y46.28 Z-6.15 I0.211 J2.659
X3.684 Y48.948 I-2.667 J0
X1.016 Y46.281 I0 J-2.667
G1 X1.015 Y38.387 F1000
X2.381 Y40.635
X2.441 Y40.727
X2.507 Y40.816
X4.547 Y43.378
X4.618 Y43.461
X4.694 Y43.54
X5.886 Y44.703
X5.891 Y44.707
X6.95 Y45.733
X6.983 Y45.764
X7.148 Y45.916
X7.215 Y45.974
X7.285 Y46.029
X9.76 Y47.879
X9.798 Y47.906
X9.963 Y48.023
X10.037 Y48.072
X10.113 Y48.118
X11.587 Y48.949
X1.022 Y48.947
X1.016
Y46.281
G3 X1.341 Y45.982 I0.3 J0
G1 X3.626 Y46.175
X3.675
X3.723 Y46.167
X5.949 Y45.617
G3 X6.317 Y45.861 I0.072 J0.291
X1.049 Y46.7 Z-6.443 I-2.634 J0.42 F333.3
X3.472 Y43.621 Z-6.596 I2.634 J-0.42
X6.351 Y46.28 Z-6.75 I0.211 J2.659
X3.684 Y48.948 I-2.667 J0
X1.016 Y46.281 I0 J-2.667
G1 X1.015 Y38.387 F1000
X2.381 Y40.635
X2.441 Y40.727
X2.507 Y40.816
X4.547 Y43.378
X4.618 Y43.461
X4.694 Y43.54
X5.886 Y44.703
X5.891 Y44.707
X6.95 Y45.733
X6.983 Y45.764
X7.148 Y45.916
X7.215 Y45.974
X7.285 Y46.029
X9.76 Y47.879
X9.798 Y47.906
X9.963 Y48.023
X10.037 Y48.072
X10.113 Y48.118
X11.587 Y48.949
X1.022 Y48.947
X1.016
Y46.281
G3 X1.341 Y45.982 I0.3 J0
G1 X3.626 Y46.175
X3.675
X3.723 Y46.167
X5.949 Y45.617
G3 X6.317 Y45.861 I0.072 J0.291
X1.049 Y46.7 Z-7.043 I-2.634 J0.42 F333.3
X3.472 Y43.621 Z-7.196 I2.634 J-0.42
X6.351 Y46.28 Z-7.35 I0.211 J2.659
X3.684 Y48.948 I-2.667 J0
X1.016 Y46.281 I0 J-2.667
G1 X1.015 Y38.387 F1000
X2.381 Y40.635
X2.441 Y40.727
X2.507 Y40.816
X4.547 Y43.378
X4.618 Y43.461
X4.694 Y43.54
X5.886 Y44.703
X5.891 Y44.707
X6.95 Y45.733
X6.983 Y45.764
X7.148 Y45.916
X7.215 Y45.974
X7.285 Y46.029
X9.76 Y47.879
X9.798 Y47.906
X9.963 Y48.023
X10.037 Y48.072
X10.113 Y48.118
X11.587 Y48.949
X1.022 Y48.947
X1.016
Y46.281
G3 X1.292 Y45.982 I0.3 J0
G1 X5.997 Y45.609
G3 X6.317 Y45.861 I0.024 J0.299
X1.049 Y46.7 Z-7.643 I-2.634 J0.42 F333.3
X3.472 Y43.621 Z-7.796 I2.634 J-0.42
X6.351 Y46.28 Z-7.95 I0.211 J2.659
X3.684 Y48.948 I-2.667 J0
X1.016 Y46.281 I0 J-2.667
G1 X1.015 Y38.387 F1000
X2.381 Y40.635
X2.441 Y40.727
X2.507 Y40.816
X4.547 Y43.378
X4.618 Y43.461
X4.694 Y43.54
X5.886 Y44.703
X5.891 Y44.707
X6.95 Y45.733
X6.983 Y45.764
X7.148 Y45.916
X7.215 Y45.974
X7.285 Y46.029
X9.76 Y47.879
X9.798 Y47.906
X9.963 Y48.023
X10.037 Y48.072
X10.113 Y48.118
X11.587 Y48.949
X1.022 Y48.947
X1.016
Y46.281
G3 X1.341 Y45.982 I0.3 J0
G1 X3.626 Y46.175
X3.675
X3.723 Y46.167
X5.949 Y45.617
G3 X6.317 Y45.861 I0.072 J0.291
X1.049 Y46.7 Z-8.243 I-2.634 J0.42 F333.3
X3.472 Y43.621 Z-8.396 I2.634 J-0.42
X6.351 Y46.28 Z-8.55 I0.211 J2.659
X3.684 Y48.948 I-2.667 J0
X1.016 Y46.281 I0 J-2.667
G1 X1.015 Y38.387 F1000
X2.381 Y40.635
X2.441 Y40.727
X2.507 Y40.816
X4.547 Y43.378
X4.618 Y43.461
X4.694 Y43.54
X5.886 Y44.703
X5.891 Y44.707
X6.95 Y45.733
X6.983 Y45.764
X7.148 Y45.916
X7.215 Y45.974
X7.285 Y46.029
X9.76 Y47.879
X9.798 Y47.906
X9.963 Y48.023
X10.037 Y48.072
X10.113 Y48.118
X11.587 Y48.949
X1.022 Y48.947
X1.016
Y46.281
G3 X1.341 Y45.982 I0.3 J0
G1 X3.626 Y46.175
X3.675
X3.723 Y46.167
X5.949 Y45.617
G3 X6.317 Y45.861 I0.072 J0.291
X1.049 Y46.7 Z-8.843 I-2.634 J0.42 F333.3
X3.472 Y43.621 Z-8.996 I2.634 J-0.42
X6.351 Y46.28 Z-9.15 I0.211 J2.659
X3.684 Y48.948 I-2.667 J0
X1.016 Y46.281 I0 J-2.667
G1 X1.015 Y38.387 F1000
X2.381 Y40.635
X2.441 Y40.727
X2.507 Y40.816
X4.547 Y43.378
X4.618 Y43.461
X4.694 Y43.54
X5.886 Y44.703
X5.891 Y44.707
X6.95 Y45.733
X6.983 Y45.764
X7.148 Y45.916
X7.215 Y45.974
X7.285 Y46.029
X9.76 Y47.879
X9.798 Y47.906
X9.963 Y48.023
X10.037 Y48.072
X10.113 Y48.118
X11.587 Y48.949
X1.022 Y48.947
X1.016
Y46.281
G3 X6.351 Y46.28 Z-9.325 I2.667 J0 F333.3
X1.016 Y46.281 Z-9.5 I-2.667 J0
G1 X1.015 Y38.387 F1000
X2.381 Y40.635
X2.441 Y40.727
X2.507 Y40.816
X4.547 Y43.378
X4.618 Y43.461
X4.694 Y43.54
X5.886 Y44.703
X5.891 Y44.707
X6.95 Y45.733
X6.983 Y45.764
X7.148 Y45.916
X7.215 Y45.974
X7.285 Y46.029
X9.76 Y47.879
X9.798 Y47.906
X9.963 Y48.023
X10.037 Y48.072
X10.113 Y48.118
X11.587 Y48.949
X1.022 Y48.947
X1.016
Y46.281
X1.022 Y46.214 Z-9.492
X1.035 Y46.149 Z-9.485
X1.054 Y46.088 Z-9.463
X1.079 Y46.03 Z-9.441
X1.108 Y45.981 Z-9.405
X1.141 Y45.935 Z-9.369
X1.205 Y45.865 Z-9.274
X1.26 Y45.82 Z-9.16
X1.297 Y45.795 Z-9.034
X1.31 Y45.788 Z-8.9
G0 Z5
X3.788 Y6.341
G1 Z1.33 F333.3
X3.777 Z1.213
X3.743 Y6.342 Z1.1
X3.687 Y6.343 Z0.996
X3.595 Y6.341 Z0.888
X3.48 Y6.335 Z0.805
X3.35 Y6.322 Z0.752
X3.212 Y6.301 Z0.73
G3 X4.159 Y1.045 Z0.437 I0.473 J-2.628
X3.212 Y6.301 Z0.144 I-0.473 J2.628
X4.159 Y1.045 Z-0.149 I0.473 J-2.628
X3.687 Y6.343 Z-0.425 I-0.473 J2.628
X1.017 Y3.677 I-0.002 J-2.668
X3.683 Y1.007 I2.668 J-0.002
G1 X11.573 Y1.002 F1000
X11.478 Y1.057
X11.175 Y1.245
X11.145 Y1.265
X8.657 Y2.887
X8.566 Y2.951
X8.479 Y3.02
X5.954 Y5.168
X5.871 Y5.243
X5.793 Y5.324
X3.586 Y7.752
X3.513 Y7.838
X3.446 Y7.928
X1.539 Y10.66
X1.478 Y10.754
X1.422 Y10.852
X1.014 Y11.636
X1.016 Y1.009
X3.683 Y1.007
G3 X3.687 Y6.343 Z-0.588 I0.002 J2.668 F333.3
X3.683 Y1.007 Z-0.75 I-0.002 J-2.668
G1 X11.573 Y1.002 F1000
X11.478 Y1.057
X11.175 Y1.245
X11.145 Y1.265
X8.657 Y2.887
X8.566 Y2.951
X8.479 Y3.02
X5.954 Y5.168
X5.871 Y5.243
X5.793 Y5.324
X3.586 Y7.752
X3.513 Y7.838
X3.446 Y7.928
X1.539 Y10.66
X1.478 Y10.754
X1.422 Y10.852
X1.014 Y11.636
X1.016 Y1.009
X3.683 Y1.007
G3 X3.983 Y1.333 I0 J0.3
G1 X3.787 Y3.619
X3.786 Y3.667
X3.794 Y3.715
X4.337 Y5.944
G3 X4.091 Y6.312 I-0.291 J0.071
X3.28 Y1.034 Z-1.043 I-0.406 J-2.639 F333.3
X6.347 Y3.469 Z-1.196 I0.406 J2.639
X3.687 Y6.343 Z-1.35 I-2.662 J0.204
X1.017 Y3.677 I-0.002 J-2.668
X3.683 Y1.007 I2.668 J-0.002
G1 X11.573 Y1.002 F1000
X11.478 Y1.057
X11.175 Y1.245
X11.145 Y1.265
X8.657 Y2.887
X8.566 Y2.951
X8.479 Y3.02
X5.954 Y5.168
X5.871 Y5.243
X5.793 Y5.324
X3.586 Y7.752
X3.513 Y7.838
X3.446 Y7.928
X1.539 Y10.66
X1.478 Y10.754
X1.422 Y10.852
X1.014 Y11.636
X1.016 Y1.009
X3.683 Y1.007
G3 X3.983 Y1.333 I0 J0.3
G1 X3.787 Y3.619
X3.786 Y3.667
X3.794 Y3.715
X4.337 Y5.944
G3 X4.091 Y6.312 I-0.291 J0.071
X3.28 Y1.034 Z-1.643 I-0.406 J-2.639 F333.3
X6.347 Y3.469 Z-1.796 I0.406 J2.639
X3.687 Y6.343 Z-1.95 I-2.662 J0.204
X1.017 Y3.677 I-0.002 J-2.668
X3.683 Y1.007 I2.668 J-0.002
G1 X11.573 Y1.002 F1000
X11.478 Y1.057
X11.175 Y1.245
X11.145 Y1.265
X8.657 Y2.887
X8.566 Y2.951
X8.479 Y3.02
X5.954 Y5.168
X5.871 Y5.243
X5.793 Y5.324
X3.586 Y7.752
X3.513 Y7.838
X3.446 Y7.928
X1.539 Y10.66
X1.478 Y10.754
X1.422 Y10.852
X1.014 Y11.636
X1.016 Y1.009
X3.683 Y1.007
G3 X3.983 Y1.333 I0 J0.3
G1 X3.787 Y3.619
X3.786 Y3.667
X3.794 Y3.715
X4.337 Y5.944
G3 X4.091 Y6.312 I-0.291 J0.071
X3.28 Y1.034 Z-2.243 I-0.406 J-2.639 F333.3
X6.347 Y3.469 Z-2.396 I0.406 J2.639
X3.687 Y6.343 Z-2.55 I-2.662 J0.204
X1.017 Y3.677 I-0.002 J-2.668
X3.683 Y1.007 I2.668 J-0.002
G1 X11.573 Y1.002 F1000
X11.478 Y1.057
X11.175 Y1.245
X11.145 Y1.265
X8.657 Y2.887
X8.566 Y2.951
X8.479 Y3.02
X5.954 Y5.168
X5.871 Y5.243
X5.793 Y5.324
X3.586 Y7.752
X3.513 Y7.838
X3.446 Y7.928
X1.539 Y10.66
X1.478 Y10.754
X1.422 Y10.852
X1.014 Y11.636
X1.016 Y1.009
X3.683 Y1.007
G3 X3.983 Y1.333 I0 J0.3
G1 X3.787 Y3.619
X3.786 Y3.667
X3.794 Y3.715
X4.337 Y5.944
G3 X4.091 Y6.312 I-0.291 J0.071
X3.28 Y1.034 Z-2.843 I-0.406 J-2.639 F333.3
X6.347 Y3.469 Z-2.996 I0.406 J2.639
X3.687 Y6.343 Z-3.15 I-2.662 J0.204
X1.017 Y3.677 I-0.002 J-2.668
X3.683 Y1.007 I2.668 J-0.002
G1 X11.573 Y1.002 F1000
X11.478 Y1.057
X11.175 Y1.245
X11.145 Y1.265
X8.657 Y2.887
X8.566 Y2.951
X8.479 Y3.02
X5.954 Y5.168
X5.871 Y5.243
X5.793 Y5.324
X3.586 Y7.752
X3.513 Y7.838
X3.446 Y7.928
X1.539 Y10.66
X1.478 Y10.754
X1.422 Y10.852
X1.014 Y11.636
X1.016 Y1.009
X3.683 Y1.007
G3 X3.983 Y1.333 I0 J0.3
G1 X3.787 Y3.619
X3.786 Y3.667
X3.794 Y3.715
X4.337 Y5.944
G3 X4.091 Y6.312 I-0.291 J0.071
X3.28 Y1.034 Z-3.443 I-0.406 J-2.639 F333.3
X6.347 Y3.469 Z-3.596 I0.406 J2.639
X3.687 Y6.343 Z-3.75 I-2.662 J0.204
X1.017 Y3.677 I-0.002 J-2.668
X3.683 Y1.007 I2.668 J-0.002
G1 X11.573 Y1.002 F1000
X11.478 Y1.057
X11.175 Y1.245
X11.145 Y1.265
X8.657 Y2.887
X8.566 Y2.951
X8.479 Y3.02
X5.954 Y5.168
X5.871 Y5.243
X5.793 Y5.324
X3.586 Y7.752
X3.513 Y7.838
X3.446 Y7.928
X1.539 Y10.66
X1.478 Y10.754
X1.422 Y10.852
X1.014 Y11.636
X1.016 Y1.009
X3.683 Y1.007
G3 X3.983 Y1.333 I0 J0.3
G1 X3.787 Y3.619
X3.786 Y3.667
X3.794 Y3.715
X4.337 Y5.944
G3 X4.091 Y6.312 I-0.291 J0.071
X3.28 Y1.034 Z-4.043 I-0.406 J-2.639 F333.3
X6.347 Y3.469 Z-4.196 I0.406 J2.639
X3.687 Y6.343 Z-4.35 I-2.662 J0.204
X1.017 Y3.677 I-0.002 J-2.668
X3.683 Y1.007 I2.668 J-0.002
G1 X11.573 Y1.002 F1000
X11.478 Y1.057
X11.175 Y1.245
X11.145 Y1.265
X8.657 Y2.887
X8.566 Y2.951
X8.479 Y3.02
X5.954 Y5.168
X5.871 Y5.243
X5.793 Y5.324
X3.586 Y7.752
X3.513 Y7.838
X3.446 Y7.928
X1.539 Y10.66
X1.478 Y10.754
X1.422 Y10.852
X1.014 Y11.636
X1.016 Y1.009
X3.683 Y1.007
G3 X3.983 Y1.333 I0 J0.3
G1 X3.787 Y3.619
X3.786 Y3.667
X3.794 Y3.715
X4.337 Y5.944
G3 X4.091 Y6.312 I-0.291 J0.071
X3.28 Y1.034 Z-4.643 I-0.406 J-2.639 F333.3
X6.347 Y3.469 Z-4.796 I0.406 J2.639
X3.687 Y6.343 Z-4.95 I-2.662 J0.204
X1.017 Y3.677 I-0.002 J-2.668
X3.683 Y1.007 I2.668 J-0.002
G1 X11.573 Y1.002 F1000
X11.478 Y1.057
X11.175 Y1.245
X11.145 Y1.265
X8.657 Y2.887
X8.566 Y2.951
X8.479 Y3.02
X5.954 Y5.168
X5.871 Y5.243
X5.793 Y5.324
X3.586 Y7.752
X3.513 Y7.838
X3.446 Y7.928
X1.539 Y10.66
X1.478 Y10.754
X1.422 Y10.852
X1.014 Y11.636
X1.016 Y1.009
X3.683 Y1.007
G3 X3.983 Y1.333 I0 J0.3
G1 X3.787 Y3.619
X3.786 Y3.667
X3.794 Y3.715
X4.337 Y5.944
G3 X4.091 Y6.312 I-0.291 J0.071
X3.28 Y1.034 Z-5.243 I-0.406 J-2.639 F333.3
X6.347 Y3.469 Z-5.396 I0.406 J2.639
X3.687 Y6.343 Z-5.55 I-2.662 J0.204
X1.017 Y3.677 I-0.002 J-2.668
X3.683 Y1.007 I2.668 J-0.002
G1 X11.573 Y1.002 F1000
X11.478 Y1.057
X11.175 Y1.245
X11.145 Y1.265
X8.657 Y2.887
X8.566 Y2.951
X8.479 Y3.02
X5.954 Y5.168
X5.871 Y5.243
X5.793 Y5.324
X3.586 Y7.752
X3.513 Y7.838
X3.446 Y7.928
X1.539 Y10.66
X1.478 Y10.754
X1.422 Y10.852
X1.014 Y11.636
X1.016 Y1.009
X3.683 Y1.007
G3 X3.983 Y1.333 I0 J0.3
G1 X3.787 Y3.619
X3.786 Y3.667
X3.794 Y3.715
X4.337 Y5.944
G3 X4.091 Y6.312 I-0.291 J0.071
X3.28 Y1.034 Z-5.843 I-0.406 J-2.639 F333.3
X6.347 Y3.469 Z-5.996 I0.406 J2.639
X3.687 Y6.343 Z-6.15 I-2.662 J0.204
X1.017 Y3.677 I-0.002 J-2.668
X3.683 Y1.007 I2.668 J-0.002
G1 X11.573 Y1.002 F1000
X11.478 Y1.057
X11.175 Y1.245
X11.145 Y1.265
X8.657 Y2.887
X8.566 Y2.951
X8.479 Y3.02
X5.954 Y5.168
X5.871 Y5.243
X5.793 Y5.324
X3.586 Y7.752
X3.513 Y7.838
X3.446 Y7.928
X1.539 Y10.66
X1.478 Y10.754
X1.422 Y10.852
X1.014 Y11.636
X1.016 Y1.009
X3.683 Y1.007
G3 X3.983 Y1.333 I0 J0.3
G1 X3.787 Y3.619
X3.786 Y3.667
X3.794 Y3.715
X4.337 Y5.944
G3 X4.091 Y6.312 I-0.291 J0.071
X3.28 Y1.034 Z-6.443 I-0.406 J-2.639 F333.3
X6.347 Y3.469 Z-6.596 I0.406 J2.639
X3.687 Y6.343 Z-6.75 I-2.662 J0.204
X1.017 Y3.677 I-0.002 J-2.668
X3.683 Y1.007 I2.668 J-0.002
G1 X11.573 Y1.002 F1000
X11.478 Y1.057
X11.175 Y1.245
X11.145 Y1.265
X8.657 Y2.887
X8.566 Y2.951
X8.479 Y3.02
X5.954 Y5.168
X5.871 Y5.243
X5.793 Y5.324
X3.586 Y7.752
X3.513 Y7.838
X3.446 Y7.928
X1.539 Y10.66
X1.478 Y10.754
X1.422 Y10.852
X1.014 Y11.636
X1.016 Y1.009
X3.683 Y1.007
G3 X3.983 Y1.333 I0 J0.3
G1 X3.787 Y3.619
X3.786 Y3.667
X3.794 Y3.715
X4.337 Y5.944
G3 X4.091 Y6.312 I-0.291 J0.071
X3.28 Y1.034 Z-7.043 I-0.406 J-2.639 F333.3
X6.347 Y3.469 Z-7.196 I0.406 J2.639
X3.687 Y6.343 Z-7.35 I-2.662 J0.204
X1.017 Y3.677 I-0.002 J-2.668
X3.683 Y1.007 I2.668 J-0.002
G1 X11.573 Y1.002 F1000
X11.478 Y1.057
X11.175 Y1.245
X11.145 Y1.265
X8.657 Y2.887
X8.566 Y2.951
X8.479 Y3.02
X5.954 Y5.168
X5.871 Y5.243
X5.793 Y5.324
X3.586 Y7.752
X3.513 Y7.838
X3.446 Y7.928
X1.539 Y10.66
X1.478 Y10.754
X1.422 Y10.852
X1.014 Y11.636
X1.016 Y1.009
X3.683 Y1.007
G3 X3.983 Y1.333 I0 J0.3
G1 X3.787 Y3.619
X3.786 Y3.667
X3.794 Y3.715
X4.337 Y5.944
G3 X4.091 Y6.312 I-0.291 J0.071
X3.28 Y1.034 Z-7.643 I-0.406 J-2.639 F333.3
X6.347 Y3.469 Z-7.796 I0.406 J2.639
X3.687 Y6.343 Z-7.95 I-2.662 J0.204
X1.017 Y3.677 I-0.002 J-2.668
X3.683 Y1.007 I2.668 J-0.002
G1 X11.573 Y1.002 F1000
X11.478 Y1.057
X11.175 Y1.245
X11.145 Y1.265
X8.657 Y2.887
X8.566 Y2.951
X8.479 Y3.02
X5.954 Y5.168
X5.871 Y5.243
X5.793 Y5.324
X3.586 Y7.752
X3.513 Y7.838
X3.446 Y7.928
X1.539 Y10.66
X1.478 Y10.754
X1.422 Y10.852
X1.014 Y11.636
X1.016 Y1.009
X3.683 Y1.007
G3 X3.983 Y1.333 I0 J0.3
G1 X3.787 Y3.619
X3.786 Y3.667
X3.794 Y3.715
X4.337 Y5.944
G3 X4.091 Y6.312 I-0.291 J0.071
X3.28 Y1.034 Z-8.243 I-0.406 J-2.639 F333.3
X6.347 Y3.469 Z-8.396 I0.406 J2.639
X3.687 Y6.343 Z-8.55 I-2.662 J0.204
X1.017 Y3.677 I-0.002 J-2.668
X3.683 Y1.007 I2.668 J-0.002
G1 X11.573 Y1.002 F1000
X11.478 Y1.057
X11.175 Y1.245
X11.145 Y1.265
X8.657 Y2.887
X8.566 Y2.951
X8.479 Y3.02
X5.954 Y5.168
X5.871 Y5.243
X5.793 Y5.324
X3.586 Y7.752
X3.513 Y7.838
X3.446 Y7.928
X1.539 Y10.66
X1.478 Y10.754
X1.422 Y10.852
X1.014 Y11.636
X1.016 Y1.009
X3.683 Y1.007
G3 X3.983 Y1.333 I0 J0.3
G1 X3.787 Y3.619
X3.786 Y3.667
X3.794 Y3.715
X4.337 Y5.944
G3 X4.091 Y6.312 I-0.291 J0.071
X3.28 Y1.034 Z-8.843 I-0.406 J-2.639 F333.3
X6.347 Y3.469 Z-8.996 I0.406 J2.639
X3.687 Y6.343 Z-9.15 I-2.662 J0.204
X1.017 Y3.677 I-0.002 J-2.668
X3.683 Y1.007 I2.668 J-0.002
G1 X11.573 Y1.002 F1000
X11.478 Y1.057
X11.175 Y1.245
X11.145 Y1.265
X8.657 Y2.887
X8.566 Y2.951
X8.479 Y3.02
X5.954 Y5.168
X5.871 Y5.243
X5.793 Y5.324
X3.586 Y7.752
X3.513 Y7.838
X3.446 Y7.928
X1.539 Y10.66
X1.478 Y10.754
X1.422 Y10.852
X1.014 Y11.636
X1.016 Y1.009
X3.683 Y1.007
G3 X3.687 Y6.343 Z-9.325 I0.002 J2.668 F333.3
X3.683 Y1.007 Z-9.5 I-0.002 J-2.668
G1 X11.573 Y1.002 F1000
X11.478 Y1.057
X11.175 Y1.245
X11.145 Y1.265
X8.657 Y2.887
X8.566 Y2.951
X8.479 Y3.02
X5.954 Y5.168
X5.871 Y5.243
X5.793 Y5.324
X3.586 Y7.752
X3.513 Y7.838
X3.446 Y7.928
X1.539 Y10.66
X1.478 Y10.754
X1.422 Y10.852
X1.014 Y11.636
X1.016 Y1.009
X3.683 Y1.007
X3.75 Y1.013 Z-9.492
X3.815 Y1.026 Z-9.485
X3.876 Y1.045 Z-9.463
X3.934 Y1.071 Z-9.441
X3.983 Y1.099 Z-9.405
X4.03 Y1.132 Z-9.369
X4.099 Y1.196 Z-9.274
X4.144 Y1.251 Z-9.16
X4.169 Y1.288 Z-9.034
X4.176 Y1.301 Z-8.9
G0 Z5
X43.647 Y3.775
G1 Z1.33 F333.3
X43.646 Y3.763 Z1.213
X43.645 Y3.729 Z1.1
Y3.673 Z0.996
X43.646 Y3.581 Z0.888
X43.653 Y3.467 Z0.805
X43.666 Y3.337 Z0.752
X43.687 Y3.198 Z0.73
G3 X48.942 Y4.148 Z0.437 I2.628 J0.475
X43.687 Y3.198 Z0.144 I-2.628 J-0.475
X48.942 Y4.148 Z-0.149 I2.628 J0.475
X43.645 Y3.673 Z-0.425 I-2.628 J-0.475
X48.984 Y3.672 I2.67 J-0.001
G1 X48.986 Y11.636 F1000
X48.578 Y10.852
X48.522 Y10.754
X48.461 Y10.66
X46.554 Y7.928
X46.487 Y7.838
X46.414 Y7.752
X44.333 Y5.463
X44.207 Y5.324
X44.129 Y5.243
X44.046 Y5.168
X41.521 Y3.02
X41.434 Y2.951
X41.343 Y2.887
X38.627 Y1.118
X38.503 Y1.044
X38.424 Y1.002
X48.978 Y1.003
X48.984 Y1.004
Y3.672
G3 X43.645 Y3.673 Z-0.588 I-2.67 J0.001 F333.3
X48.984 Y3.672 Z-0.75 I2.67 J-0.001
G1 X48.986 Y11.636 F1000
X48.578 Y10.852
X48.522 Y10.754
X48.461 Y10.66
X46.554 Y7.928
X46.487 Y7.838
X46.414 Y7.752
X44.207 Y5.324
X44.129 Y5.243
X44.046 Y5.168
X41.521 Y3.02
X41.434 Y2.951
X41.343 Y2.887
X38.627 Y1.118
X38.503 Y1.044
X38.424 Y1.002
X48.978 Y1.003
X48.984 Y1.004
Y3.672
G3 X48.658 Y3.971 I-0.3 J0
G1 X46.371 Y3.774
X46.322
X46.274 Y3.782
X44.043 Y4.323
G3 X43.675 Y4.077 I-0.071 J-0.292
X48.954 Y3.268 Z-1.043 I2.639 J-0.404 F333.3
X46.518 Y6.335 Z-1.196 I-2.639 J0.404
X43.645 Y3.673 Z-1.35 I-0.203 J-2.662
X48.984 Y3.672 I2.67 J-0.001
G1 X48.986 Y11.636 F1000
X48.578 Y10.852
X48.522 Y10.754
X48.461 Y10.66
X46.554 Y7.928
X46.487 Y7.838
X46.414 Y7.752
X44.207 Y5.324
X44.129 Y5.243
X44.046 Y5.168
X41.521 Y3.02
X41.434 Y2.951
X41.343 Y2.887
X38.627 Y1.118
X38.503 Y1.044
X38.424 Y1.002
X48.978 Y1.003
X48.984 Y1.004
Y3.672
G3 X48.658 Y3.971 I-0.3 J0
G1 X46.371 Y3.774
X46.322
X46.274 Y3.782
X44.043 Y4.323
G3 X43.675 Y4.077 I-0.071 J-0.292
X48.954 Y3.268 Z-1.643 I2.639 J-0.404 F333.3
X46.518 Y6.335 Z-1.796 I-2.639 J0.404
X43.645 Y3.673 Z-1.95 I-0.203 J-2.662
X48.984 Y3.672 I2.67 J-0.001
G1 X48.986 Y11.636 F1000
X48.578 Y10.852
X48.522 Y10.754
X48.461 Y10.66
X46.554 Y7.928
X46.487 Y7.838
X46.414 Y7.752
X44.207 Y5.324
X44.129 Y5.243
X44.046 Y5.168
X41.521 Y3.02
X41.434 Y2.951
X41.343 Y2.887
X38.627 Y1.118
X38.503 Y1.044
X38.424 Y1.002
X48.978 Y1.003
X48.984 Y1.004
Y3.672
G3 X48.658 Y3.971 I-0.3 J0
G1 X46.371 Y3.774
X46.322
X46.274 Y3.782
X44.043 Y4.323
G3 X43.675 Y4.077 I-0.071 J-0.292
X48.954 Y3.268 Z-2.243 I2.639 J-0.404 F333.3
X46.518 Y6.335 Z-2.396 I-2.639 J0.404
X43.645 Y3.673 Z-2.55 I-0.203 J-2.662
X48.984 Y3.672 I2.67 J-0.001
G1 X48.986 Y11.636 F1000
X48.578 Y10.852
X48.522 Y10.754
X48.461 Y10.66
X46.554 Y7.928
X46.487 Y7.838
X46.414 Y7.752
X44.207 Y5.324
X44.129 Y5.243
X44.046 Y5.168
X41.521 Y3.02
X41.434 Y2.951
X41.343 Y2.887
X38.627 Y1.118
X38.503 Y1.044
X38.424 Y1.002
X48.978 Y1.003
X48.984 Y1.004
Y3.672
G3 X48.658 Y3.971 I-0.3 J0
G1 X46.371 Y3.774
X46.322
X46.274 Y3.782
X44.043 Y4.323
G3 X43.675 Y4.077 I-0.071 J-0.292
X48.954 Y3.268 Z-2.843 I2.639 J-0.404 F333.3
X46.518 Y6.335 Z-2.996 I-2.639 J0.404
X43.645 Y3.673 Z-3.15 I-0.203 J-2.662
X48.984 Y3.672 I2.67 J-0.001
G1 X48.986 Y11.636 F1000
X48.578 Y10.852
X48.522 Y10.754
X48.461 Y10.66
X46.554 Y7.928
X46.487 Y7.838
X46.414 Y7.752
X44.207 Y5.324
X44.129 Y5.243
X44.046 Y5.168
X41.521 Y3.02
X41.434 Y2.951
X41.343 Y2.887
X38.627 Y1.118
X38.503 Y1.044
X38.424 Y1.002
X48.978 Y1.003
X48.984 Y1.004
Y3.672
G3 X48.658 Y3.971 I-0.3 J0
G1 X46.371 Y3.774
X46.322
X46.274 Y3.782
X44.043 Y4.323
G3 X43.675 Y4.077 I-0.071 J-0.292
X48.954 Y3.268 Z-3.443 I2.639 J-0.404 F333.3
X46.518 Y6.335 Z-3.596 I-2.639 J0.404
X43.645 Y3.673 Z-3.75 I-0.203 J-2.662
X48.984 Y3.672 I2.67 J-0.001
G1 X48.986 Y11.636 F1000
X48.578 Y10.852
X48.522 Y10.754
X48.461 Y10.66
X46.554 Y7.928
X46.487 Y7.838
X46.414 Y7.752
X44.207 Y5.324
X44.129 Y5.243
X44.046 Y5.168
X41.521 Y3.02
X41.434 Y2.951
X41.343 Y2.887
X38.627 Y1.118
X38.503 Y1.044
X38.424 Y1.002
X48.978 Y1.003
X48.984 Y1.004
Y3.672
G3 X48.658 Y3.971 I-0.3 J0
G1 X46.371 Y3.774
X46.322
X46.274 Y3.782
X44.043 Y4.323
G3 X43.675 Y4.077 I-0.071 J-0.292
X48.954 Y3.268 Z-4.043 I2.639 J-0.404 F333.3
X46.518 Y6.335 Z-4.196 I-2.639 J0.404
X43.645 Y3.673 Z-4.35 I-0.203 J-2.662
X48.984 Y3.672 I2.67 J-0.001
G1 X48.986 Y11.636 F1000
X48.578 Y10.852
X48.522 Y10.754
X48.461 Y10.66
X46.554 Y7.928
X46.487 Y7.838
X46.414 Y7.752
X44.207 Y5.324
X44.129 Y5.243
X44.046 Y5.168
X41.521 Y3.02
X41.434 Y2.951
X41.343 Y2.887
X38.627 Y1.118
X38.503 Y1.044
X38.424 Y1.002
X48.978 Y1.003
X48.984 Y1.004
Y3.672
G3 X48.658 Y3.971 I-0.3 J0
G1 X46.371 Y3.774
X46.322
X46.274 Y3.782
X44.043 Y4.323
G3 X43.675 Y4.077 I-0.071 J-0.292
X48.954 Y3.268 Z-4.643 I2.639 J-0.404 F333.3
X46.518 Y6.335 Z-4.796 I-2.639 J0.404
X43.645 Y3.673 Z-4.95 I-0.203 J-2.662
X48.984 Y3.672 I2.67 J-0.001
G1 X48.986 Y11.636 F1000
X48.578 Y10.852
X48.522 Y10.754
X48.461 Y10.66
X46.554 Y7.928
X46.487 Y7.838
X46.414 Y7.752
X44.207 Y5.324
X44.129 Y5.243
X44.046 Y5.168
X41.521 Y3.02
X41.434 Y2.951
X41.343 Y2.887
X38.627 Y1.118
X38.503 Y1.044
X38.424 Y1.002
X48.978 Y1.003
X48.984 Y1.004
Y3.672
G3 X48.658 Y3.971 I-0.3 J0
G1 X46.371 Y3.774
X46.322
X46.274 Y3.782
X44.043 Y4.323
G3 X43.675 Y4.077 I-0.071 J-0.292
X48.954 Y3.268 Z-5.243 I2.639 J-0.404 F333.3
X46.518 Y6.335 Z-5.396 I-2.639 J0.404
X43.645 Y3.673 Z-5.55 I-0.203 J-2.662
X48.984 Y3.672 I2.67 J-0.001
G1 X48.986 Y11.636 F1000
X48.578 Y10.852
X48.522 Y10.754
X48.461 Y10.66
X46.554 Y7.928
X46.487 Y7.838
X46.414 Y7.752
X44.207 Y5.324
X44.129 Y5.243
X44.046 Y5.168
X41.521 Y3.02
X41.434 Y2.951
X41.343 Y2.887
X38.627 Y1.118
X38.503 Y1.044
X38.424 Y1.002
X48.978 Y1.003
X48.984 Y1.004
Y3.672
G3 X48.658 Y3.971 I-0.3 J0
G1 X46.371 Y3.774
X46.322
X46.274 Y3.782
X44.043 Y4.323
G3 X43.675 Y4.077 I-0.071 J-0.292
X48.954 Y3.268 Z-5.843 I2.639 J-0.404 F333.3
X46.518 Y6.335 Z-5.996 I-2.639 J0.404
X43.645 Y3.673 Z-6.15 I-0.203 J-2.662
X48.984 Y3.672 I2.67 J-0.001
G1 X48.986 Y11.636 F1000
X48.578 Y10.852
X48.522 Y10.754
X48.461 Y10.66
X46.554 Y7.928
X46.487 Y7.838
X46.414 Y7.752
X44.207 Y5.324
X44.129 Y5.243
X44.046 Y5.168
X41.521 Y3.02
X41.434 Y2.951
X41.343 Y2.887
X38.627 Y1.118
X38.503 Y1.044
X38.424 Y1.002
X48.978 Y1.003
X48.984 Y1.004
Y3.672
G3 X48.658 Y3.971 I-0.3 J0
G1 X46.371 Y3.774
X46.322
X46.274 Y3.782
X44.043 Y4.323
G3 X43.675 Y4.077 I-0.071 J-0.292
X48.954 Y3.268 Z-6.443 I2.639 J-0.404 F333.3
X46.518 Y6.335 Z-6.596 I-2.639 J0.404
X43.645 Y3.673 Z-6.75 I-0.203 J-2.662
X48.984 Y3.672 I2.67 J-0.001
G1 X48.986 Y11.636 F1000
X48.578 Y10.852
X48.522 Y10.754
X48.461 Y10.66
X46.554 Y7.928
X46.487 Y7.838
X46.414 Y7.752
X44.207 Y5.324
X44.129 Y5.243
X44.046 Y5.168
X41.521 Y3.02
X41.434 Y2.951
X41.343 Y2.887
X38.627 Y1.118
X38.503 Y1.044
X38.424 Y1.002
X48.978 Y1.003
X48.984 Y1.004
Y3.672
G3 X48.658 Y3.971 I-0.3 J0
G1 X46.371 Y3.774
X46.322
X46.274 Y3.782
X44.043 Y4.323
G3 X43.675 Y4.077 I-0.071 J-0.292
X48.954 Y3.268 Z-7.043 I2.639 J-0.404 F333.3
X46.518 Y6.335 Z-7.196 I-2.639 J0.404
X43.645 Y3.673 Z-7.35 I-0.203 J-2.662
X48.984 Y3.672 I2.67 J-0.001
G1 X48.986 Y11.636 F1000
X48.578 Y10.852
X48.522 Y10.754
X48.461 Y10.66
X46.554 Y7.928
X46.487 Y7.838
X46.414 Y7.752
X44.207 Y5.324
X44.129 Y5.243
X44.046 Y5.168
X41.521 Y3.02
X41.434 Y2.951
X41.343 Y2.887
X38.627 Y1.118
X38.503 Y1.044
X38.424 Y1.002
X48.978 Y1.003
X48.984 Y1.004
Y3.672
G3 X48.658 Y3.971 I-0.3 J0
G1 X46.371 Y3.774
X46.322
X46.274 Y3.782
X44.043 Y4.323
G3 X43.675 Y4.077 I-0.071 J-0.292
X48.954 Y3.268 Z-7.643 I2.639 J-0.404 F333.3
X46.518 Y6.335 Z-7.796 I-2.639 J0.404
X43.645 Y3.673 Z-7.95 I-0.203 J-2.662
X48.984 Y3.672 I2.67 J-0.001
G1 X48.986 Y11.636 F1000
X48.578 Y10.852
X48.522 Y10.754
X48.461 Y10.66
X46.554 Y7.928
X46.487 Y7.838
X46.414 Y7.752
X44.207 Y5.324
X44.129 Y5.243
X44.046 Y5.168
X41.521 Y3.02
X41.434 Y2.951
X41.343 Y2.887
X38.627 Y1.118
X38.503 Y1.044
X38.424 Y1.002
X48.978 Y1.003
X48.984 Y1.004
Y3.672
G3 X48.658 Y3.971 I-0.3 J0
G1 X46.371 Y3.774
X46.322
X46.274 Y3.782
X44.043 Y4.323
G3 X43.675 Y4.077 I-0.071 J-0.292
X48.954 Y3.268 Z-8.243 I2.639 J-0.404 F333.3
X46.518 Y6.335 Z-8.396 I-2.639 J0.404
X43.645 Y3.673 Z-8.55 I-0.203 J-2.662
X48.984 Y3.672 I2.67 J-0.001
G1 X48.986 Y11.636 F1000
X48.578 Y10.852
X48.522 Y10.754
X48.461 Y10.66
X46.554 Y7.928
X46.487 Y7.838
X46.414 Y7.752
X44.207 Y5.324
X44.129 Y5.243
X44.046 Y5.168
X41.521 Y3.02
X41.434 Y2.951
X41.343 Y2.887
X38.627 Y1.118
X38.503 Y1.044
X38.424 Y1.002
X48.978 Y1.003
X48.984 Y1.004
Y3.672
G3 X48.658 Y3.971 I-0.3 J0
G1 X46.371 Y3.774
X46.322
X46.274 Y3.782
X44.043 Y4.323
G3 X43.675 Y4.077 I-0.071 J-0.292
X48.954 Y3.268 Z-8.843 I2.639 J-0.404 F333.3
X46.518 Y6.335 Z-8.996 I-2.639 J0.404
X43.645 Y3.673 Z-9.15 I-0.203 J-2.662
X48.984 Y3.672 I2.67 J-0.001
G1 X48.986 Y11.636 F1000
X48.578 Y10.852
X48.522 Y10.754
X48.461 Y10.66
X46.554 Y7.928
X46.487 Y7.838
X46.414 Y7.752
X44.207 Y5.324
X44.129 Y5.243
X44.046 Y5.168
X41.521 Y3.02
X41.434 Y2.951
X41.343 Y2.887
X38.627 Y1.118
X38.503 Y1.044
X38.424 Y1.002
X48.978 Y1.003
X48.984 Y1.004
Y3.672
G3 X43.645 Y3.673 Z-9.325 I-2.67 J0.001 F333.3
X48.984 Y3.672 Z-9.5 I2.67 J-0.001
G1 X48.986 Y11.636 F1000
X48.578 Y10.852
X48.522 Y10.754
X48.461 Y10.66
X46.554 Y7.928
X46.487 Y7.838
X46.414 Y7.752
X44.207 Y5.324
X44.129 Y5.243
X44.046 Y5.168
X41.521 Y3.02
X41.434 Y2.951
X41.343 Y2.887
X38.627 Y1.118
X38.503 Y1.044
X38.424 Y1.002
X48.978 Y1.003
X48.984 Y1.004
Y3.672
X48.979 Y3.739 Z-9.492
X48.966 Y3.804 Z-9.485
X48.946 Y3.865 Z-9.463
X48.921 Y3.923 Z-9.441
X48.893 Y3.972 Z-9.405
X48.86 Y4.018 Z-9.369
X48.795 Y4.088 Z-9.274
X48.74 Y4.133 Z-9.16
X48.703 Y4.158 Z-9.034
X48.69 Y4.165 Z-8.9
G0 Z15
M9
M5
G28 G91 Z0
G90

(Pocket5)
T2
(CHANGE TO T2)
S5000 M3
G17 G90 G94
G54
M8
G0 X20.256 Y8.436
Z15
G0 Z1.4
G1 Z0 F1000
X20.258 Y8.429 Z-0.052
X20.265 Y8.41 Z-0.1
X20.275 Y8.38 Z-0.141
X20.289 Y8.341 Z-0.173
X20.305 Y8.296 Z-0.193
X20.322 Y8.247 Z-0.2
G3 X21.222 Y7.453 I1.159 J0.406
G1 X22.472 Y7.183
X25 Y7.003
X27.571 Y7.188
X30.099 Y7.742
X32.489 Y8.636
X34.735 Y9.863
X36.784 Y11.397
X38.622 Y13.241
X40.145 Y15.278
X41.38 Y17.548
X42.266 Y19.922
X42.815 Y22.449
X42.997 Y25.002
X42.808 Y27.589
X42.268 Y30.073
X41.364 Y32.49
X40.132 Y34.741
X38.59 Y36.797
X36.784 Y38.603
X34.722 Y40.145
X32.452 Y41.38
X30.058 Y42.271
X27.528 Y42.817
X25 Y42.997
X22.429 Y42.812
X19.906 Y42.259
X17.507 Y41.362
X15.278 Y40.145
X13.216 Y38.603
X11.41 Y36.797
X9.85 Y34.713
X8.62 Y32.453
X7.733 Y30.073
X7.185 Y27.546
X7.003 Y24.998
X7.193 Y22.406
X7.734 Y19.922
X8.632 Y17.517
X9.879 Y15.244
X11.415 Y13.198
X13.216 Y11.398
X15.3 Y9.843
X17.541 Y8.623
X19.943 Y7.729
X21.222 Y7.453
X21.258 Y7.452
X21.292 Y7.464
X21.32 Y7.487
X21.338 Y7.519
X21.343 Y7.555
X21.335 Y7.59
X21.033 Y8.293
X21.014 Y8.321
X20.987 Y8.342
X20.391 Y8.658
X20.353 Y8.669
X20.313 Y8.665
X20.279 Y8.645
X20.254 Y8.614
X20.244 Y8.576
X20.249 Y8.537
X20.267 Y8.488 Z-0.207
X20.282 Y8.442 Z-0.227
X20.296 Y8.403 Z-0.259
X20.307 Y8.373 Z-0.3
X20.317 Y8.343 Z-0.341
X20.331 Y8.304 Z-0.373
X20.347 Y8.258 Z-0.393
X20.364 Y8.21 Z-0.4
G3 X21.222 Y7.453 I1.104 J0.387
G1 X22.472 Y7.183
X25 Y7.003
X27.571 Y7.188
X30.099 Y7.742
X32.489 Y8.636
X34.735 Y9.863
X36.784 Y11.398
X38.622 Y13.241
X40.145 Y15.278
X41.38 Y17.548
X42.266 Y19.922
X42.815 Y22.449
X42.997 Y25.002
X42.808 Y27.589
X42.268 Y30.073
X41.364 Y32.49
X40.132 Y34.741
X38.59 Y36.797
X36.784 Y38.602
X34.722 Y40.145
X32.452 Y41.38
X30.058 Y42.271
X27.528 Y42.817
X25 Y42.997
X22.429 Y42.812
X19.906 Y42.259
X17.507 Y41.362
X15.278 Y40.145
X13.216 Y38.602
X11.41 Y36.797
X9.85 Y34.713
X8.62 Y32.453
X7.733 Y30.073
X7.185 Y27.546
X7.003 Y24.998
X7.193 Y22.406
X7.734 Y19.922
X8.632 Y17.517
X9.879 Y15.244
X11.415 Y13.198
X13.216 Y11.398
X15.3 Y9.843
X17.541 Y8.623
X19.943 Y7.729
X21.222 Y7.453
X21.258 Y7.452
X21.292 Y7.464
X21.32 Y7.487
X21.338 Y7.519
X21.343 Y7.555
X21.335 Y7.59
X21.033 Y8.293
X21.014 Y8.321
X20.987 Y8.342
X20.391 Y8.658
X20.353 Y8.669
X20.313 Y8.665
X20.279 Y8.645
X20.254 Y8.614
X20.244 Y8.576
X20.249 Y8.537
X20.267 Y8.488 Z-0.407
X20.282 Y8.442 Z-0.427
X20.296 Y8.403 Z-0.459
X20.307 Y8.373 Z-0.5
X20.317 Y8.343 Z-0.541
X20.331 Y8.304 Z-0.573
X20.347 Y8.258 Z-0.593
X20.364 Y8.21 Z-0.6
G3 X21.222 Y7.453 I1.104 J0.387
G1 X22.472 Y7.183
X25 Y7.003
X27.571 Y7.188
X30.099 Y7.742
X32.489 Y8.636
X34.735 Y9.863
X36.784 Y11.398
X38.622 Y13.241
X40.145 Y15.278
X41.38 Y17.548
X42.266 Y19.922
X42.815 Y22.449
X42.997 Y25.002
X42.808 Y27.589
X42.268 Y30.073
X41.364 Y32.49
X40.132 Y34.741
X38.59 Y36.797
X36.784 Y38.602
X34.722 Y40.145
X32.452 Y41.38
X30.058 Y42.271
X27.528 Y42.817
X25 Y42.997
X22.429 Y42.812
X19.906 Y42.259
X17.507 Y41.362
X15.278 Y40.145
X13.216 Y38.602
X11.41 Y36.797
X9.85 Y34.713
X8.62 Y32.453
X7.733 Y30.073
X7.185 Y27.546
X7.003 Y24.998
X7.193 Y22.406
X7.734 Y19.922
X8.632 Y17.517
X9.879 Y15.244
X11.415 Y13.198
X13.216 Y11.399
X15.3 Y9.843
X17.541 Y8.623
X19.943 Y7.729
X21.222 Y7.453
X21.253 Y7.449
X21.284 Y7.45
X23.672 Y7.693
X23.723 Y7.699 Z-0.593
X23.771 Y7.704 Z-0.573
X23.812 Y7.708 Z-0.541
X23.844 Y7.711 Z-0.5
X23.864 Y7.713 Z-0.452
X23.871 Y7.714 Z-0.4
G0 Z5
X29.217 Y42.325
Z1.41
G1 Z0.01 F333.3
X29.206 Y42.335 Z-0.065
X29.174 Y42.361 Z-0.129
X29.123 Y42.399 Z-0.173
X29.06 Y42.439 Z-0.19
G3 X28.106 Y40.796 Z-0.29 I-0.477 J-0.821
X29.06 Y42.439 Z-0.39 I0.477 J0.821
X28.106 Y40.796 Z-0.49 I-0.477 J-0.821
X29.06 Y42.439 Z-0.59 I0.477 J0.821
X28.106 Y40.796 Z-0.69 I-0.477 J-0.821
X29.06 Y42.439 Z-0.79 I0.477 J0.821
X28.783 Y42.546 Z-0.8 I-0.477 J-0.821
G1 X27.528 Y42.817 F1000
X25 Y42.997
X22.429 Y42.812
X19.906 Y42.259
X17.507 Y41.362
X15.278 Y40.145
X13.216 Y38.601
X11.41 Y36.797
X9.85 Y34.713
X8.62 Y32.453
X7.733 Y30.073
X7.185 Y27.546
X7.003 Y24.998
X7.193 Y22.406
X7.734 Y19.922
X8.632 Y17.517
X9.879 Y15.244
X11.415 Y13.198
X13.216 Y11.399
X15.3 Y9.843
X17.541 Y8.623
X19.943 Y7.729
X22.472 Y7.183
X25 Y7.003
X27.571 Y7.188
X30.099 Y7.742
X32.489 Y8.636
X34.735 Y9.863
X36.784 Y11.398
X38.622 Y13.241
X40.145 Y15.278
X41.38 Y17.548
X42.266 Y19.922
X42.815 Y22.449
X42.997 Y25.002
X42.808 Y27.589
X42.268 Y30.073
X41.364 Y32.49
X40.132 Y34.741
X38.59 Y36.797
X36.784 Y38.601
X34.722 Y40.145
X32.452 Y41.38
X30.058 Y42.271
X28.783 Y42.546
X28.746 Y42.547
X28.712 Y42.535
X28.684 Y42.511
X28.667 Y42.478
X26.855 Y36.701
X26.846 Y36.664
X26.851 Y36.626
X26.87 Y36.593
X28.243 Y35.025
X28.27 Y35.003
X28.304 Y34.992
X28.339 Y34.993
X28.372 Y35.007
X28.398 Y35.031
X28.414 Y35.062
X28.418 Y35.097
X28.41 Y35.131
X28.389 Y35.179 Z-0.807
X28.369 Y35.223 Z-0.827
X28.352 Y35.261 Z-0.859
X28.34 Y35.29 Z-0.9
X28.327 Y35.319 Z-0.941
X28.31 Y35.357 Z-0.973
X28.291 Y35.401 Z-0.993
X28.27 Y35.448 Z-1
G3 X27.405 Y36.153 I-1.124 J-0.496
X22.595 Y13.848 I-2.405 J-11.152
X27.405 Y36.153 I2.405 J11.152
G2 X26.739 Y36.822 I0.183 J0.848
G3 X26.031 Y37.447 I-0.773 J-0.163
X23.969 Y12.555 I-1.031 J-12.446
X26.031 Y37.447 I1.031 J12.446
G2 X25.283 Y38.026 I0.072 J0.865
G3 X24.502 Y38.56 I-0.752 J-0.262
X25.498 Y11.441 I0.498 J-13.56
X24.502 Y38.56 I-0.498 J13.56
G2 X23.688 Y39.048 I-0.032 J0.868
G3 X22.85 Y39.491 I-0.721 J-0.351
X27.15 Y10.511 I2.15 J-14.49
X22.85 Y39.491 I-2.15 J14.49
G2 X21.986 Y39.887 I-0.128 J0.86
G3 X21.104 Y40.239 I-0.683 J-0.43
X28.896 Y9.762 I3.896 J-15.238
X21.104 Y40.239 I-3.896 J15.238
G2 X20.203 Y40.546 I-0.215 J0.843
G3 X19.288 Y40.809 I-0.639 J-0.5
X30.712 Y9.192 I5.712 J-15.809
X19.288 Y40.809 I-5.712 J15.809
G2 X18.307 Y41.069 I-0.303 J0.838
G3 X17.309 Y41.254 I-0.613 J-0.522
G1 X15.278 Y40.145
X13.216 Y38.601
X11.41 Y36.797
X9.85 Y34.713
X8.62 Y32.453
X7.733 Y30.073
X7.185 Y27.546
X7.003 Y24.998
X7.193 Y22.406
X7.734 Y19.922
X8.632 Y17.517
X9.879 Y15.244
X11.415 Y13.198
X13.216 Y11.399
X15.3 Y9.843
X17.541 Y8.623
X19.943 Y7.729
X22.472 Y7.183
X25 Y7.003
X27.571 Y7.188
X30.099 Y7.742
X32.489 Y8.636
X34.735 Y9.863
X36.784 Y11.399
X38.622 Y13.241
X40.145 Y15.278
X41.38 Y17.548
X42.266 Y19.922
X42.815 Y22.449
X42.997 Y25.002
X42.808 Y27.589
X42.268 Y30.073
X41.364 Y32.49
X40.132 Y34.741
X38.59 Y36.797
X36.784 Y38.601
X34.722 Y40.145
X32.452 Y41.38
X30.058 Y42.271
X27.528 Y42.817
X25 Y42.997
X22.429 Y42.812
X19.906 Y42.259
X17.507 Y41.362
X17.309 Y41.254
X17.286 Y41.235
X17.272 Y41.21
X17.267 Y41.182
X17.274 Y41.153
X17.289 Y41.129
X17.558 Y40.846
X21.461 Y35.108
X21.531 Y35.055
X21.552 Y35.049
X21.573 Y35.057
X21.584 Y35.075
X21.582 Y35.097
X21.567 Y35.113
X21.522 Y35.138 Z-1.007
X21.48 Y35.161 Z-1.027
X21.443 Y35.181 Z-1.059
X21.415 Y35.196 Z-1.1
X21.387 Y35.212 Z-1.141
X21.351 Y35.231 Z-1.173
X21.309 Y35.255 Z-1.193
X21.263 Y35.279 Z-1.2
G3 X20.12 Y35.313 I-0.604 J-1.105
X29.88 Y14.688 I4.88 J-10.312
X20.12 Y35.313 I-4.88 J10.312
G2 X19.185 Y35.439 I-0.371 J0.784
G3 X18.243 Y35.503 I-0.514 J-0.6
X31.757 Y14.498 I6.757 J-10.503
X18.243 Y35.503 I-6.757 J10.503
G2 X17.297 Y35.508 I-0.47 J0.73
G3 X16.352 Y35.456 I-0.437 J-0.666
X33.648 Y14.545 I8.648 J-10.455
X16.352 Y35.456 I-8.648 J10.455
G2 X15.409 Y35.348 I-0.554 J0.669
G3 X14.475 Y35.189 I-0.359 J-0.717
X35.525 Y14.813 I10.525 J-10.188
X14.475 Y35.189 I-10.525 J10.188
G2 X13.548 Y34.978 I-0.625 J0.605
G3 X12.634 Y34.72 I-0.28 J-0.757
X37.366 Y15.281 I12.366 J-9.719
X12.634 Y34.72 I-12.366 J9.719
G2 X11.732 Y34.415 I-0.684 J0.538
G3 X10.846 Y34.067 I-0.203 J-0.785
X39.154 Y15.934 I14.154 J-9.067
X10.846 Y34.067 I-14.154 J9.067
G2 X9.913 Y33.622 I-0.825 J0.528
G3 X8.996 Y33.144 I-0.103 J-0.921
G1 X8.62 Y32.453
X7.733 Y30.073
X7.185 Y27.546
X7.003 Y24.998
X7.193 Y22.406
X7.734 Y19.922
X8.632 Y17.517
X9.879 Y15.244
X11.415 Y13.198
X13.216 Y11.4
X15.3 Y9.843
X17.541 Y8.623
X19.943 Y7.729
X22.472 Y7.183
X25 Y7.003
X27.571 Y7.188
X30.099 Y7.742
X32.489 Y8.636
X34.735 Y9.863
X36.784 Y11.399
X38.622 Y13.241
X40.145 Y15.278
X41.38 Y17.548
X42.266 Y19.922
X42.815 Y22.449
X42.997 Y25.002
X42.808 Y27.589
X42.268 Y30.073
X41.364 Y32.49
X40.132 Y34.741
X38.59 Y36.797
X36.784 Y38.6
X34.722 Y40.145
X32.452 Y41.38
X30.058 Y42.271
X27.528 Y42.817
X25 Y42.997
X22.429 Y42.812
X19.906 Y42.259
X17.507 Y41.362
X15.278 Y40.145
X13.216 Y38.6
X11.41 Y36.797
X9.85 Y34.713
X8.996 Y33.144
X8.985 Y33.11
X8.986 Y33.075
X9 Y33.042
X9.024 Y33.016
X9.056 Y33
X9.934 Y32.741
X15.753 Y30.853
X15.849 Y30.852
X15.873 Y30.859
X15.888 Y30.877
X15.891 Y30.901
X15.88 Y30.923
X15.86 Y30.936
X15.836 Y30.935
X15.788 Y30.92 Z-1.206
X15.744 Y30.905 Z-1.225
X15.699 Y30.891 Z-1.244
X15.652 Y30.875 Z-1.25
G3 X14.832 Y30.175 I0.436 J-1.339
X35.168 Y19.827 I10.168 J-5.174
X14.832 Y30.175 I-10.168 J5.174
G2 X14.015 Y29.702 I-0.773 J0.393
G3 X13.23 Y29.177 I-0.04 J-0.789
X36.77 Y20.824 I11.77 J-4.176
X13.23 Y29.177 I-11.77 J4.176
G2 X12.479 Y28.602 I-0.818 J0.29
G3 X11.763 Y27.983 I0.061 J-0.794
X38.237 Y22.019 I13.237 J-2.982
X11.763 Y27.983 I-13.237 J2.982
G2 X11.084 Y27.321 I-0.848 J0.191
G3 X10.442 Y26.623 I0.155 J-0.787
X39.558 Y23.378 I14.558 J-1.623
X10.442 Y26.623 I-14.558 J1.623
G2 X9.837 Y25.89 I-0.864 J0.096
G3 X9.272 Y25.126 I0.241 J-0.77
X40.728 Y24.875 I15.728 J-0.126
X9.272 Y25.126 I-15.728 J0.126
G2 X8.745 Y24.334 I-0.87 J0.007
G3 X8.257 Y23.517 I0.32 J-0.745
X41.743 Y26.484 I16.743 J1.484
X8.257 Y23.517 I-16.743 J-1.484
G2 X7.771 Y22.633 I-0.901 J-0.08
G3 X7.342 Y21.721 I0.38 J-0.736
G1 X7.734 Y19.922
X8.632 Y17.517
X9.879 Y15.244
X11.415 Y13.198
X13.216 Y11.4
X15.3 Y9.843
X17.541 Y8.623
X19.943 Y7.729
X22.472 Y7.183
X25 Y7.003
X27.571 Y7.188
X30.099 Y7.742
X32.489 Y8.636
X34.735 Y9.863
X36.784 Y11.399
X38.622 Y13.241
X40.145 Y15.278
X41.38 Y17.548
X42.266 Y19.922
X42.815 Y22.449
X42.997 Y25.002
X42.808 Y27.589
X42.268 Y30.073
X41.364 Y32.49
X40.132 Y34.741
X38.59 Y36.797
X36.784 Y38.6
X34.722 Y40.145
X32.452 Y41.38
X30.058 Y42.271
X27.528 Y42.817
X25 Y42.997
X22.429 Y42.812
X19.906 Y42.259
X17.507 Y41.362
X15.278 Y40.145
X13.216 Y38.6
X11.41 Y36.797
X9.85 Y34.713
X8.62 Y32.453
X7.733 Y30.073
X7.185 Y27.546
X7.003 Y24.998
X7.193 Y22.406
X7.342 Y21.721
X7.358 Y21.685
X7.387 Y21.658
X7.423 Y21.644
X7.463 Y21.645
X7.498 Y21.661
X8.121 Y22.11
X14.741 Y27.836
X14.829 Y27.957
X14.836 Y27.979
X14.828 Y28.002
X14.808 Y28.015
X14.785 Y28.013
X14.736 Y27.994 Z-1.257
X14.692 Y27.977 Z-1.277
X14.653 Y27.962 Z-1.309
X14.623 Y27.95 Z-1.35
X14.594 Y27.938 Z-1.391
X14.555 Y27.923 Z-1.423
X14.51 Y27.905 Z-1.443
X14.462 Y27.886 Z-1.45
G3 X13.722 Y26.978 I0.44 J-1.115
G1 X13.548 Y25.988
Y24.006
X13.897 Y22.023
X14.634 Y19.995
X14.65 Y19.941
X14.66 Y19.885
X14.676 Y19.753
X14.68 Y19.687
X14.674 Y19.62
X14.655 Y19.488
X14.642 Y19.426
X14.621 Y19.366
X14.574 Y19.255
X14.544 Y19.196
X14.507 Y19.142
X14.42 Y19.029
X14.378 Y18.983
X14.332 Y18.942
X14.248 Y18.878
X14.192 Y18.84
X10.831 Y16.903
X10.779 Y16.877
X10.724 Y16.857
X10.601 Y16.82
X10.54 Y16.806
X10.478 Y16.8
X10.358 Y16.795
X10.298 Y16.797
X10.238 Y16.805
X10.122 Y16.829
X10.062 Y16.845
X10.004 Y16.869
X9.888 Y16.925
X9.837 Y16.954
X9.789 Y16.988
X9.709 Y17.054
X9.663 Y17.096
X9.622 Y17.144
X9.535 Y17.262
X9.502 Y17.313
X9.476 Y17.368
X8.613 Y19.458
X8.592 Y19.521
X8.272 Y20.73
X7.587 Y20.597
X7.734 Y19.922
X8.632 Y17.517
X9.879 Y15.244
X11.415 Y13.198
X12.485 Y12.128
X12.938 Y12.649
X12.016 Y13.571
X11.973 Y13.62
X10.622 Y15.382
X10.586 Y15.437
X10.557 Y15.496
X10.502 Y15.628
X10.48 Y15.693
X10.467 Y15.761
X10.452 Y15.893
X10.449 Y15.956
X10.453 Y16.018
X10.469 Y16.134
X10.48 Y16.191
X10.498 Y16.246
X10.539 Y16.354
X10.565 Y16.41
X10.598 Y16.463
X10.674 Y16.57
X10.717 Y16.623
X10.767 Y16.67
X10.875 Y16.758
X10.941 Y16.803
X14.312 Y18.744
X14.374 Y18.774
X14.439 Y18.795
X14.571 Y18.829
X14.637 Y18.841
X14.705 Y18.844
X14.837 Y18.841
X14.904 Y18.835
X14.97 Y18.82
X15.102 Y18.78
X15.166 Y18.756
X15.226 Y18.724
X15.338 Y18.652
X15.391 Y18.614
X15.438 Y18.568
X15.551 Y18.446
X15.566 Y18.429
X16.872 Y16.871
X18.417 Y15.577
X20.147 Y14.579
X22.046 Y13.891
X24.162 Y13.517
X24.217 Y13.504
X24.271 Y13.485
X24.371 Y13.442
X24.421 Y13.418
X24.467 Y13.388
X24.557 Y13.324
X24.602 Y13.287
X24.643 Y13.246
X24.723 Y13.153
X24.764 Y13.1
X24.797 Y13.041
X24.86 Y12.909
X24.886 Y12.843
X24.902 Y12.775
X24.924 Y12.643
X24.931 Y12.561
X24.929 Y8.687
X24.925 Y8.63
X24.916 Y8.574
X24.886 Y8.445
X24.866 Y8.379
X24.837 Y8.317
X24.77 Y8.195
X24.735 Y8.141
X24.694 Y8.091
X24.615 Y8.008
X24.57 Y7.966
X24.522 Y7.931
X24.415 Y7.863
X24.363 Y7.833
X24.308 Y7.811
X24.201 Y7.774
X24.139 Y7.757
X24.075 Y7.748
X23.932 Y7.738
X23.88 Y7.737
X23.829 Y7.741
X21.586 Y8.042
X21.522 Y8.055
X20.334 Y8.378
X20.099 Y7.695
X22.472 Y7.183
X25 Y7.003
X27.571 Y7.188
X29.9 Y7.699
X29.666 Y8.378
X28.434 Y8.045
X28.369 Y8.032
X26.141 Y7.739
X26.083 Y7.735
X26.025 Y7.738
X25.91 Y7.749
X25.847 Y7.76
X25.785 Y7.779
X25.652 Y7.829
X25.589 Y7.858
X25.531 Y7.895
X25.425 Y7.973
X25.375 Y8.015
X25.331 Y8.063
X25.25 Y8.164
X25.213 Y8.219
X25.183 Y8.277
X25.129 Y8.4
X25.107 Y8.463
X25.093 Y8.528
X25.074 Y8.66
X25.069 Y8.732
X25.073 Y12.606
X25.077 Y12.669
X25.089 Y12.732
X25.123 Y12.864
X25.145 Y12.928
X25.176 Y12.99
X25.245 Y13.108
X25.282 Y13.163
X25.326 Y13.212
X25.418 Y13.302
X25.467 Y13.344
X25.521 Y13.38
X25.634 Y13.444
X25.684 Y13.469
X25.736 Y13.488
X25.824 Y13.514
X25.883 Y13.528
X27.954 Y13.891
X29.853 Y14.579
X31.583 Y15.577
X33.153 Y16.899
X34.516 Y18.523
X34.551 Y18.561
X34.589 Y18.594
X34.675 Y18.663
X34.721 Y18.695
X34.769 Y18.722
X34.87 Y18.77
X34.927 Y18.793
X34.986 Y18.809
X35.118 Y18.836
X35.185 Y18.845
X35.252
X35.384 Y18.836
X35.452 Y18.827
X35.517 Y18.808
X35.649 Y18.762
X35.692 Y18.744
X35.733 Y18.723
X39.095 Y16.78
X39.146 Y16.746
X39.193 Y16.705
X39.297 Y16.604
X39.342 Y16.554
X39.38 Y16.498
X39.443 Y16.391
X39.47 Y16.338
X39.49 Y16.282
X39.522 Y16.174
X39.536 Y16.117
X39.543 Y16.058
X39.549 Y15.934
Y15.869
X39.54 Y15.805
X39.512 Y15.673
X39.497 Y15.617
X39.475 Y15.563
X39.434 Y15.475
X39.408 Y15.427
X39.378 Y15.382
X37.991 Y13.577
X37.947 Y13.527
X37.062 Y12.648
X37.514 Y12.128
X38.622 Y13.241
X40.145 Y15.278
X41.38 Y17.548
X42.266 Y19.922
X42.413 Y20.597
X41.727 Y20.73
X41.392 Y19.476
X41.371 Y19.413
X40.524 Y17.368
X40.497 Y17.313
X40.465 Y17.262
X40.378 Y17.144
X40.337 Y17.096
X40.291 Y17.054
X40.211 Y16.988
X40.163 Y16.954
X40.112 Y16.925
X39.996 Y16.869
X39.938 Y16.845
X39.878 Y16.829
X39.762 Y16.805
X39.702 Y16.797
X39.642 Y16.795
X39.522 Y16.8
X39.46 Y16.806
X39.399 Y16.82
X39.276 Y16.857
X39.221 Y16.877
X39.168 Y16.903
X35.766 Y18.869
X35.714 Y18.903
X35.668 Y18.943
X35.584 Y19.024
X35.545 Y19.067
X35.51 Y19.115
X35.447 Y19.215
X35.417 Y19.27
X35.394 Y19.327
X35.354 Y19.449
X35.338 Y19.512
X35.33 Y19.576
X35.322 Y19.708
X35.323 Y19.775
X35.333 Y19.842
X35.361 Y19.974
X35.38 Y20.04
X36.103 Y22.024
X36.452 Y24.006
X36.448 Y26.031
X36.104 Y27.971
X35.368 Y29.999
X35.352 Y30.051
X35.342 Y30.104
X35.325 Y30.236
X35.32 Y30.303
X35.325 Y30.369
X35.343 Y30.501
X35.356 Y30.566
X35.377 Y30.628
X35.427 Y30.747
X35.458 Y30.809
X35.498 Y30.866
X35.59 Y30.98
X35.638 Y31.033
X35.694 Y31.078
X35.813 Y31.161
X35.849 Y31.184
X39.153 Y33.09
X39.2 Y33.114
X39.249 Y33.133
X39.381 Y33.175
X39.447 Y33.192
X39.515 Y33.199
X39.647 Y33.204
X39.714 Y33.202
X39.78 Y33.191
X39.912 Y33.161
X39.969 Y33.144
X40.023 Y33.121
X40.111 Y33.077
X40.16 Y33.048
X40.206 Y33.015
X40.305 Y32.932
X40.349 Y32.891
X40.388 Y32.845
X40.453 Y32.757
X40.487 Y32.706
X40.514 Y32.65
X41.388 Y30.537
X41.41 Y30.474
X41.728 Y29.27
X42.413 Y29.404
X42.268 Y30.073
X41.364 Y32.49
X40.132 Y34.741
X38.59 Y36.797
X37.515 Y37.872
X37.062 Y37.352
X37.961 Y36.457
X38.005 Y36.407
X39.381 Y34.612
X39.419 Y34.555
X39.449 Y34.494
X39.501 Y34.362
X39.523 Y34.296
X39.535 Y34.228
X39.548 Y34.096
X39.551 Y34.033
X39.546 Y33.97
X39.528 Y33.853
X39.515 Y33.792
X39.495 Y33.733
X39.445 Y33.614
X39.419 Y33.56
X39.386 Y33.51
X39.32 Y33.421
X39.286 Y33.38
X39.248 Y33.343
X39.171 Y33.275
X39.132 Y33.244
X39.091 Y33.218
X35.725 Y31.273
X35.682 Y31.25
X35.637 Y31.233
X35.513 Y31.19
X35.449 Y31.173
X35.384 Y31.164
X35.252 Y31.155
X35.185
X35.118 Y31.164
X34.986 Y31.191
X34.93 Y31.206
X34.875 Y31.228
X34.785 Y31.269
X34.738 Y31.295
X34.693 Y31.325
X34.602 Y31.395
X34.559 Y31.431
X34.521 Y31.471
X33.154 Y33.101
X31.583 Y34.423
X29.853 Y35.421
X27.954 Y36.109
X25.838 Y36.483
X25.785 Y36.495
X25.734 Y36.513
X25.643 Y36.551
X25.595 Y36.574
X25.549 Y36.602
X25.455 Y36.667
X25.408 Y36.704
X25.366 Y36.745
X25.285 Y36.837
X25.243 Y36.89
X25.209 Y36.949
X25.144 Y37.081
X25.118 Y37.146
X25.101 Y37.214
X25.077 Y37.346
X25.069 Y37.434
X25.071 Y41.308
X25.074 Y41.363
X25.083 Y41.417
X25.113 Y41.549
X25.132 Y41.613
X25.159 Y41.674
X25.221 Y41.79
X25.252 Y41.842
X25.29 Y41.89
X25.365 Y41.973
X25.41 Y42.017
X25.461 Y42.055
X25.579 Y42.134
X25.636 Y42.166
X25.697 Y42.191
X25.811 Y42.229
X25.872 Y42.245
X25.935 Y42.254
X26.067 Y42.263
X26.117 Y42.264
X26.168 Y42.259
X28.414 Y41.958
X28.478 Y41.945
X29.666 Y41.622
X29.901 Y42.305
X27.528 Y42.817
X25 Y42.997
X22.429 Y42.812
X20.1 Y42.302
X20.334 Y41.622
X21.566 Y41.955
X21.631 Y41.968
X23.833 Y42.26
X23.883 Y42.264
X23.933 Y42.263
X24.065 Y42.254
X24.128 Y42.245
X24.189 Y42.229
X24.303 Y42.191
X24.364 Y42.166
X24.421 Y42.134
X24.539 Y42.055
X24.59 Y42.017
X24.635 Y41.973
X24.71 Y41.89
X24.748 Y41.842
X24.779 Y41.79
X24.841 Y41.674
X24.868 Y41.613
X24.887 Y41.549
X24.917 Y41.417
X24.926 Y41.363
X24.929 Y41.307
X24.927 Y37.389
X24.922 Y37.323
X24.909 Y37.258
X24.873 Y37.126
X24.854 Y37.069
X24.828 Y37.016
X24.78 Y36.928
X24.75 Y36.88
X24.715 Y36.837
X24.634 Y36.745
X24.592 Y36.704
X24.545 Y36.667
X24.451 Y36.602
X24.395 Y36.568
X24.336 Y36.543
X24.2 Y36.494
X24.117 Y36.472
X22.046 Y36.109
X20.147 Y35.421
X18.391 Y34.405
X16.847 Y33.101
X15.479 Y31.471
X15.441 Y31.431
X15.398 Y31.395
X15.307 Y31.325
X15.252 Y31.289
X15.194 Y31.26
X15.06 Y31.205
X14.994 Y31.183
X14.925 Y31.171
X14.793 Y31.156
X14.726 Y31.153
X14.66 Y31.159
X14.528 Y31.18
X14.474 Y31.192
X14.422 Y31.209
X14.342 Y31.241
X14.275 Y31.273
X10.909 Y33.218
X10.86 Y33.25
X10.815 Y33.288
X10.712 Y33.385
X10.665 Y33.437
X10.625 Y33.495
X10.556 Y33.614
X10.525 Y33.675
X10.503 Y33.741
X10.468 Y33.874
X10.456 Y33.94
X10.452 Y34.008
X10.454 Y34.14
X10.46 Y34.207
X10.474 Y34.273
X10.513 Y34.405
X10.539 Y34.473
X10.573 Y34.536
X10.662 Y34.673
X10.686 Y34.707
X11.995 Y36.408
X12.039 Y36.457
X12.938 Y37.352
X12.485 Y37.872
X11.41 Y36.797
X9.85 Y34.713
X8.62 Y32.453
X7.732 Y30.073
X7.587 Y29.404
X8.273 Y29.27
X8.606 Y30.519
X8.627 Y30.582
X9.486 Y32.651
X9.515 Y32.71
X9.552 Y32.764
X9.629 Y32.864
X9.668 Y32.909
X9.712 Y32.949
X9.8 Y33.02
X9.853 Y33.057
X9.91 Y33.087
X10.043 Y33.145
X10.108 Y33.169
X10.176 Y33.183
X10.308 Y33.202
X10.375 Y33.207
X10.442 Y33.203
X10.574 Y33.185
X10.641 Y33.172
X10.707 Y33.149
X10.839 Y33.092
X10.892 Y33.066
X14.197 Y31.157
X14.267 Y31.108
X14.366 Y31.026
X14.409 Y30.985
X14.448 Y30.939
X14.514 Y30.851
X14.546 Y30.801
X14.573 Y30.747
X14.623 Y30.628
X14.644 Y30.566
X14.657 Y30.501
X14.675 Y30.369
X14.68 Y30.303
X14.675 Y30.236
X14.658 Y30.104
X14.648 Y30.051
X14.632 Y29.999
X13.896 Y27.971
X13.722 Y26.978
Y26.942
X13.735 Y26.908
X13.76 Y26.881
X13.792 Y26.865
X13.828 Y26.861
X13.863 Y26.87
X14.568 Y27.205
X14.596 Y27.225
X14.616 Y27.253
X14.912 Y27.878
X14.921 Y27.916
X14.915 Y27.955
X14.894 Y27.989
X14.862 Y28.012
X14.823 Y28.02
X14.785 Y28.013
X14.736 Y27.994 Z-1.457
X14.692 Y27.977 Z-1.477
X14.653 Y27.962 Z-1.509
X14.623 Y27.95 Z-1.55
X14.594 Y27.938 Z-1.591
X14.555 Y27.923 Z-1.623
X14.51 Y27.905 Z-1.643
X14.462 Y27.886 Z-1.65
G3 X13.722 Y26.978 I0.44 J-1.115
G1 X13.548 Y25.988
Y24.006
X13.897 Y22.023
X14.634 Y19.995
X14.65 Y19.941
X14.66 Y19.885
X14.676 Y19.753
X14.68 Y19.687
X14.674 Y19.62
X14.655 Y19.488
X14.642 Y19.426
X14.621 Y19.366
X14.574 Y19.255
X14.544 Y19.196
X14.507 Y19.142
X14.42 Y19.029
X14.378 Y18.983
X14.332 Y18.942
X14.248 Y18.878
X14.192 Y18.84
X10.831 Y16.903
X10.779 Y16.877
X10.724 Y16.857
X10.601 Y16.82
X10.54 Y16.806
X10.478 Y16.8
X10.358 Y16.795
X10.298 Y16.797
X10.238 Y16.805
X10.122 Y16.829
X10.062 Y16.845
X10.004 Y16.869
X9.888 Y16.925
X9.837 Y16.954
X9.789 Y16.988
X9.709 Y17.054
X9.663 Y17.096
X9.622 Y17.144
X9.535 Y17.262
X9.502 Y17.313
X9.476 Y17.368
X8.613 Y19.458
X8.592 Y19.521
X8.272 Y20.73
X7.587 Y20.597
X7.734 Y19.922
X8.632 Y17.517
X9.879 Y15.244
X11.415 Y13.198
X12.485 Y12.128
X12.938 Y12.649
X12.016 Y13.571
X11.973 Y13.62
X10.622 Y15.382
X10.586 Y15.437
X10.557 Y15.496
X10.502 Y15.628
X10.48 Y15.693
X10.467 Y15.761
X10.452 Y15.893
X10.449 Y15.956
X10.453 Y16.018
X10.469 Y16.134
X10.48 Y16.191
X10.498 Y16.246
X10.539 Y16.354
X10.565 Y16.41
X10.598 Y16.463
X10.674 Y16.57
X10.717 Y16.623
X10.767 Y16.67
X10.875 Y16.758
X10.941 Y16.803
X14.312 Y18.744
X14.374 Y18.774
X14.439 Y18.795
X14.571 Y18.829
X14.637 Y18.841
X14.705 Y18.844
X14.837 Y18.841
X14.904 Y18.835
X14.97 Y18.82
X15.102 Y18.78
X15.166 Y18.756
X15.226 Y18.724
X15.338 Y18.652
X15.391 Y18.614
X15.438 Y18.568
X15.551 Y18.446
X15.566 Y18.429
X16.872 Y16.871
X18.417 Y15.577
X20.147 Y14.579
X22.046 Y13.891
X24.162 Y13.517
X24.217 Y13.504
X24.271 Y13.485
X24.371 Y13.442
X24.421 Y13.418
X24.467 Y13.388
X24.557 Y13.324
X24.602 Y13.287
X24.643 Y13.246
X24.723 Y13.153
X24.764 Y13.1
X24.797 Y13.041
X24.86 Y12.909
X24.886 Y12.843
X24.902 Y12.775
X24.924 Y12.643
X24.931 Y12.561
X24.929 Y8.687
X24.925 Y8.63
X24.916 Y8.574
X24.886 Y8.445
X24.866 Y8.379
X24.837 Y8.317
X24.77 Y8.195
X24.735 Y8.141
X24.694 Y8.091
X24.615 Y8.008
X24.57 Y7.966
X24.522 Y7.931
X24.415 Y7.863
X24.363 Y7.833
X24.308 Y7.811
X24.201 Y7.774
X24.139 Y7.757
X24.075 Y7.748
X23.932 Y7.738
X23.88 Y7.737
X23.829 Y7.741
X21.586 Y8.042
X21.522 Y8.055
X20.334 Y8.378
X20.099 Y7.695
X22.472 Y7.183
X25 Y7.003
X27.571 Y7.188
X29.9 Y7.699
X29.666 Y8.378
X28.434 Y8.045
X28.369 Y8.032
X26.141 Y7.739
X26.083 Y7.735
X26.025 Y7.738
X25.91 Y7.749
X25.847 Y7.76
X25.785 Y7.779
X25.652 Y7.829
X25.589 Y7.858
X25.531 Y7.895
X25.425 Y7.973
X25.375 Y8.015
X25.331 Y8.063
X25.25 Y8.164
X25.213 Y8.219
X25.183 Y8.277
X25.129 Y8.4
X25.107 Y8.463
X25.093 Y8.528
X25.074 Y8.66
X25.069 Y8.732
X25.073 Y12.606
X25.077 Y12.669
X25.089 Y12.732
X25.123 Y12.864
X25.145 Y12.928
X25.176 Y12.99
X25.245 Y13.108
X25.282 Y13.163
X25.326 Y13.212
X25.418 Y13.302
X25.467 Y13.344
X25.521 Y13.38
X25.634 Y13.444
X25.684 Y13.469
X25.736 Y13.488
X25.824 Y13.514
X25.883 Y13.528
X27.954 Y13.891
X29.853 Y14.579
X31.583 Y15.577
X33.153 Y16.899
X34.516 Y18.523
X34.551 Y18.561
X34.589 Y18.594
X34.675 Y18.663
X34.721 Y18.695
X34.769 Y18.722
X34.87 Y18.77
X34.927 Y18.793
X34.986 Y18.809
X35.118 Y18.836
X35.185 Y18.845
X35.252
X35.384 Y18.836
X35.452 Y18.827
X35.517 Y18.808
X35.649 Y18.762
X35.692 Y18.744
X35.733 Y18.723
X39.095 Y16.78
X39.146 Y16.746
X39.193 Y16.705
X39.297 Y16.604
X39.342 Y16.554
X39.38 Y16.498
X39.443 Y16.391
X39.47 Y16.338
X39.49 Y16.282
X39.522 Y16.174
X39.536 Y16.117
X39.543 Y16.058
X39.549 Y15.934
Y15.869
X39.54 Y15.805
X39.512 Y15.673
X39.497 Y15.617
X39.475 Y15.563
X39.434 Y15.475
X39.408 Y15.427
X39.378 Y15.382
X37.991 Y13.577
X37.947 Y13.527
X37.062 Y12.648
X37.514 Y12.128
X38.622 Y13.241
X40.145 Y15.278
X41.38 Y17.548
X42.266 Y19.922
X42.413 Y20.597
X41.727 Y20.73
X41.392 Y19.476
X41.371 Y19.413
X40.524 Y17.368
X40.497 Y17.313
X40.465 Y17.262
X40.378 Y17.144
X40.337 Y17.096
X40.291 Y17.054
X40.211 Y16.988
X40.163 Y16.954
X40.112 Y16.925
X39.996 Y16.869
X39.938 Y16.845
X39.878 Y16.829
X39.762 Y16.805
X39.702 Y16.797
X39.642 Y16.795
X39.522 Y16.8
X39.46 Y16.806
X39.399 Y16.82
X39.276 Y16.857
X39.221 Y16.877
X39.168 Y16.903
X35.766 Y18.869
X35.714 Y18.903
X35.668 Y18.943
X35.584 Y19.024
X35.545 Y19.067
X35.51 Y19.115
X35.447 Y19.215
X35.417 Y19.27
X35.394 Y19.327
X35.354 Y19.449
X35.338 Y19.512
X35.33 Y19.576
X35.322 Y19.708
X35.323 Y19.775
X35.333 Y19.842
X35.361 Y19.974
X35.38 Y20.04
X36.103 Y22.024
X36.452 Y24.006
X36.448 Y26.031
X36.104 Y27.971
X35.368 Y29.999
X35.352 Y30.051
X35.342 Y30.104
X35.325 Y30.236
X35.32 Y30.303
X35.325 Y30.369
X35.343 Y30.501
X35.356 Y30.566
X35.377 Y30.628
X35.427 Y30.747
X35.458 Y30.809
X35.498 Y30.866
X35.59 Y30.98
X35.638 Y31.033
X35.694 Y31.078
X35.813 Y31.161
X35.849 Y31.184
X39.153 Y33.09
X39.2 Y33.114
X39.249 Y33.133
X39.381 Y33.175
X39.447 Y33.192
X39.515 Y33.199
X39.647 Y33.204
X39.714 Y33.202
X39.78 Y33.191
X39.912 Y33.161
X39.969 Y33.144
X40.023 Y33.121
X40.111 Y33.077
X40.16 Y33.048
X40.206 Y33.015
X40.305 Y32.932
X40.349 Y32.891
X40.388 Y32.845
X40.453 Y32.757
X40.487 Y32.706
X40.514 Y32.65
X41.388 Y30.537
X41.41 Y30.474
X41.728 Y29.27
X42.413 Y29.404
X42.268 Y30.073
X41.364 Y32.49
X40.132 Y34.741
X38.59 Y36.797
X37.515 Y37.872
X37.062 Y37.352
X37.961 Y36.457
X38.005 Y36.407
X39.381 Y34.612
X39.419 Y34.555
X39.449 Y34.494
X39.501 Y34.362
X39.523 Y34.296
X39.535 Y34.228
X39.548 Y34.096
X39.551 Y34.033
X39.546 Y33.97
X39.528 Y33.853
X39.515 Y33.792
X39.495 Y33.733
X39.445 Y33.614
X39.419 Y33.56
X39.386 Y33.51
X39.32 Y33.421
X39.286 Y33.38
X39.248 Y33.343
X39.171 Y33.275
X39.132 Y33.244
X39.091 Y33.218
X35.725 Y31.273
X35.682 Y31.25
X35.637 Y31.233
X35.513 Y31.19
X35.449 Y31.173
X35.384 Y31.164
X35.252 Y31.155
X35.185
X35.118 Y31.164
X34.986 Y31.191
X34.93 Y31.206
X34.875 Y31.228
X34.785 Y31.269
X34.738 Y31.295
X34.693 Y31.325
X34.602 Y31.395
X34.559 Y31.431
X34.521 Y31.471
X33.154 Y33.101
X31.583 Y34.423
X29.853 Y35.421
X27.954 Y36.109
X25.838 Y36.483
