(1001)
(T1 D=6 CR=0 - ZMIN=-14.75 - flat end mill)
(T2 D=2 CR=0 - ZMIN=-15 - flat end mill)
G90 G94
G17
G21
G28 G91 Z0
G90

(Pocket2)
T1
S5000 M3
G17 G90 G94
G54
M8
G0 X26.418 Y6.326
Z15
G0 Z1.83
G1 Z1.68 F333.3
X26.435 Y6.316 Z1.528
X26.484 Y6.286 Z1.385
X26.561 Y6.237 Z1.263
X26.659 Y6.168 Z1.167
X26.77 Y6.083 Z1.105
X26.885 Y5.985 Z1.08
G2 X23.072 Y1.748 Z0.78 I-1.907 J-2.118
X26.885 Y5.985 Z0.48 I1.907 J2.118
X23.072 Y1.748 Z0.18 I-1.907 J-2.118
X26.885 Y5.985 Z-0.12 I1.907 J2.118
X24.979 Y1.016 Z-0.35 I-1.907 J-2.118
G1 X1.047 Y1.013 F1000
X1.004 Y1.016
X1.003 Y48.98
X48.943 Y48.984
X48.947 Y1.02
X24.979 Y1.016
G2 X22.537 Y2.644 I0 J2.645
G3 X20.095 Y4.272 I-2.442 J-1.018
G1 X5.411 Y4.271
G2 X4.261 Y5.42 I0 J1.15
G1 Y44.576
G2 X5.411 Y45.726 I1.15 J0
G1 X44.54
G2 X45.689 Y44.576 I0 J-1.15
G1 Y5.423
G2 X44.54 Y4.274 I-1.15 J0
G1 X20.095 Y4.272
G2 X17.665 Y5.892 I0 J2.633
G3 X15.235 Y7.512 I-2.43 J-1.013
G1 X8.651 Y7.511
G2 X7.501 Y8.661 I0 J1.15
G1 Y41.336
G2 X8.651 Y42.486 I1.15 J0
G1 X41.3
G2 X42.449 Y41.336 I0 J-1.15
G1 Y8.663
G2 X41.3 Y7.513 I-1.15 J0
G1 X15.235 Y7.512
G2 X12.304 Y8.8 I0 J3.977
X10.778 Y11.615 I4.856 J4.454
X10.741 Y11.901 I1.113 J0.286
G1 Y38.096
G2 X11.891 Y39.246 I1.15 J0
G1 X38.06
G2 X39.209 Y38.096 I0 J-1.15
G1 Y11.903
G2 X38.06 Y10.753 I-1.15 J0
G1 X11.891 Y10.751
G2 X10.778 Y11.615 I0 J1.15
X12.223 Y14.201 I2.08 J0.534
G3 X13.981 Y16.585 I-0.737 J2.384
G1 Y34.856
G2 X15.131 Y36.006 I1.15 J0
G1 X34.82
G2 X35.969 Y34.856 I0 J-1.15
G1 Y15.143
G2 X34.82 Y13.993 I-1.15 J0
G1 X15.131 Y13.992
G2 X13.981 Y15.141 I0 J1.15
G1 Y16.585
G2 X15.601 Y18.158 I1.574 J0
G3 X17.221 Y19.731 I0.046 J1.573
G1 Y31.616
G2 X18.371 Y32.766 I1.15 J0
G1 X31.58
G2 X32.729 Y31.616 I0 J-1.15
G1 Y18.382
G2 X31.58 Y17.233 I-1.15 J0
G1 X18.371 Y17.232
G2 X17.221 Y18.381 I0 J1.15
G1 Y19.731
G2 X18.841 Y21.35 I1.619 J0
G3 X20.461 Y22.969 I0.001 J1.619
G1 Y28.376
G2 X21.611 Y29.526 I1.15 J0
G1 X28.34
G2 X29.489 Y28.376 I0 J-1.15
G1 Y21.622
G2 X28.34 Y20.472 I-1.15 J0
G1 X21.611
G2 X20.461 Y21.622 I0 J1.15
G1 Y22.969
G2 X21.947 Y24.955 I2.07 J0
G3 X24.167 Y26.06 I-2.003 J6.803
G2 X24.851 Y26.286 I0.685 J-0.924
G1 X25.1
G2 X26.249 Y25.136 I0 J-1.15
G1 Y24.862
G2 X25.1 Y23.712 I-1.15 J0
G1 X24.851
G2 X23.701 Y24.862 I0 J1.15
G1 Y25.136
G2 X24.167 Y26.06 I1.15 J0
X24.861 Y26.438 Z-0.367 I1.697 J-2.29 F333.3
G1 X28.097 Y27.654 Z-0.441
G2 X30.102 Y22.318 Z-0.632 I1.002 J-2.668
X26.249 Y24.986 Z-0.75 I-1.002 J2.668
G1 Y25.136 F1000
G3 X25.1 Y26.286 I-1.15 J0
G1 X24.851
G3 X23.701 Y25.136 I0 J-1.15
G1 Y24.862
G3 X24.851 Y23.712 I1.15 J0
G1 X25.1
G3 X26.249 Y24.862 I0 J1.15
G1 Y24.986
G2 X27.593 Y27.089 I2.318 J0
G3 X27.056 Y29.526 I-0.537 J1.159
G1 X21.611
G3 X20.461 Y28.376 I0 J-1.15
G1 Y21.622
G3 X21.611 Y20.472 I1.15 J0
G1 X28.34
G3 X29.489 Y21.622 I0 J1.15
G1 Y28.376
G3 X28.34 Y29.526 I-1.15 J0
G1 X27.056
G2 X24.626 Y31.146 I0 J2.633
G3 X22.196 Y32.766 I-2.43 J-1.013
G1 X18.371
G3 X17.221 Y31.616 I0 J-1.15
G1 Y18.381
G3 X18.371 Y17.232 I1.15 J0
G1 X31.58 Y17.233
G3 X32.729 Y18.382 I0 J1.15
G1 Y31.616
G3 X31.58 Y32.766 I-1.15 J0
G1 X22.196
G2 X19.766 Y34.386 I0 J2.632
G3 X17.336 Y36.006 I-2.43 J-1.012
G1 X15.131
G3 X13.981 Y34.856 I0 J-1.15
G1 Y15.141
G3 X15.131 Y13.992 I1.15 J0
G1 X34.82 Y13.993
G3 X35.969 Y15.143 I0 J1.15
G1 Y34.856
G3 X34.82 Y36.006 I-1.15 J0
G1 X17.336
G2 X14.906 Y37.626 I0 J2.632
G3 X12.476 Y39.246 I-2.43 J-1.013
G1 X11.891
G3 X10.741 Y38.096 I0 J-1.15
G1 Y11.901
G3 X11.891 Y10.751 I1.15 J0
G1 X38.06 Y10.753
G3 X39.209 Y11.903 I0 J1.15
G1 Y38.096
G3 X38.06 Y39.246 I-1.15 J0
G1 X12.476
G2 X10.078 Y40.492 I0 J2.931
G3 X7.501 Y39.677 I-1.159 J-0.815
G1 Y8.661
G3 X8.651 Y7.511 I1.15 J0
G1 X41.3 Y7.513
G3 X42.449 Y8.663 I0 J1.15
G1 Y41.336
G3 X41.3 Y42.486 I-1.15 J0
G1 X8.651
G3 X7.501 Y41.336 I0 J-1.15
G1 Y39.677
G2 X5.881 Y37.247 I-2.633 J0
G3 X4.261 Y34.817 I1.013 J-2.43
G1 Y5.42
G3 X5.411 Y4.271 I1.15 J0
G1 X44.54 Y4.274
G3 X45.689 Y5.423 I0 J1.15
G1 Y44.576
G3 X44.54 Y45.726 I-1.15 J0
G1 X5.411
G3 X4.261 Y44.576 I0 J-1.15
G1 Y34.817
G2 X2.634 Y32.376 I-2.645 J0
G3 X1.006 Y29.934 I1.017 J-2.442
G1 X1.003 Y1.02
X1.047 Y1.013
X48.943 Y1.016
X48.947 Y48.98
X1.007 Y48.984
X1.006 Y29.934
G3 X1.557 Y29.769 I0.3 J0
G1 X2.538 Y31.265
X2.562 Y31.31
X2.579 Y31.359
X2.586 Y31.409
X3.747 Y48.246
X3.794 Y48.961
X3.789 Y48.978
X3.773 Y48.985
G3 X3.773 Y43.439 Z-1.05 I0 J-2.773 F333.3
X3.773 Y48.985 Z-1.35 I0 J2.773
G1 X1.007 Y48.984 F1000
X1 Y48.94
Y37.844
X1.218 Y38.297
X1.266 Y38.389
X1.32 Y38.477
X3.072 Y41.171
X3.132 Y41.258
X3.195 Y41.342
X3.259 Y41.422
X5.308 Y43.829
X5.403 Y43.932
X5.559 Y44.086
X5.609 Y44.133
X7.881 Y46.196
X7.987 Y46.285
X8.147 Y46.407
X8.205 Y46.449
X10.765 Y48.233
X10.851 Y48.289
X10.94 Y48.339
X12.176 Y48.986
X3.773 Y48.985
G3 X3.773 Y43.439 Z-1.512 I0 J-2.773 F333.3
X3.773 Y48.985 Z-1.675 I0 J2.773
G1 X1.007 Y48.984 F1000
X1 Y48.94
Y37.844
X1.218 Y38.297
X1.266 Y38.389
X1.32 Y38.477
X3.072 Y41.171
X3.132 Y41.258
X3.195 Y41.342
X3.259 Y41.422
X5.308 Y43.829
X5.403 Y43.932
X5.559 Y44.086
X5.609 Y44.133
X7.881 Y46.196
X7.987 Y46.285
X8.147 Y46.407
X8.205 Y46.449
X10.765 Y48.233
X10.851 Y48.289
X10.94 Y48.339
X12.176 Y48.986
X3.773 Y48.985
G3 X3.773 Y43.439 Z-1.837 I0 J-2.773 F333.3
X3.773 Y48.985 Z-2 I0 J2.773
G1 X1.007 Y48.984 F1000
X1 Y48.94
Y37.844
X1.218 Y38.297
X1.266 Y38.389
X1.32 Y38.477
X3.072 Y41.171
X3.132 Y41.258
X3.195 Y41.342
X3.259 Y41.422
X5.308 Y43.829
X5.403 Y43.932
X5.559 Y44.086
X5.609 Y44.133
X7.881 Y46.196
X7.987 Y46.285
X8.147 Y46.407
X8.205 Y46.449
X10.765 Y48.233
X10.851 Y48.289
X10.94 Y48.339
X12.176 Y48.986
X3.773 Y48.985
G3 X3.773 Y43.439 Z-2.3 I0 J-2.773 F333.3
X3.773 Y48.985 Z-2.6 I0 J2.773
G1 X1.007 Y48.984 F1000
X1 Y48.94
Y37.844
X1.218 Y38.297
X1.266 Y38.389
X1.32 Y38.477
X3.072 Y41.171
X3.132 Y41.258
X3.195 Y41.342
X3.259 Y41.422
X5.308 Y43.829
X5.403 Y43.932
X5.559 Y44.086
X5.609 Y44.133
X7.881 Y46.196
X7.987 Y46.285
X8.147 Y46.407
X8.205 Y46.449
X10.765 Y48.233
X10.851 Y48.289
X10.94 Y48.339
X12.176 Y48.986
X3.773 Y48.985
G3 X3.773 Y43.439 Z-2.9 I0 J-2.773 F333.3
X3.773 Y48.985 Z-3.2 I0 J2.773
G1 X1.007 Y48.984 F1000
X1 Y48.94
Y37.844
X1.218 Y38.297
X1.266 Y38.389
X1.32 Y38.477
X3.072 Y41.171
X3.132 Y41.258
X3.195 Y41.342
X3.259 Y41.422
X5.308 Y43.829
X5.403 Y43.932
X5.559 Y44.086
X5.609 Y44.133
X7.881 Y46.196
X7.987 Y46.285
X8.147 Y46.407
X8.205 Y46.449
X10.765 Y48.233
X10.851 Y48.289
X10.94 Y48.339
X12.176 Y48.986
X3.773 Y48.985
G3 X3.773 Y43.439 Z-3.5 I0 J-2.773 F333.3
X3.773 Y48.985 Z-3.8 I0 J2.773
G1 X1.007 Y48.984 F1000
X1 Y48.94
Y37.844
X1.218 Y38.297
X1.266 Y38.389
X1.32 Y38.477
X3.072 Y41.171
X3.132 Y41.258
X3.195 Y41.342
X3.259 Y41.422
X5.308 Y43.829
X5.403 Y43.932
X5.559 Y44.086
X5.609 Y44.133
X7.881 Y46.196
X7.987 Y46.285
X8.147 Y46.407
X8.205 Y46.449
X10.765 Y48.233
X10.851 Y48.289
X10.94 Y48.339
X12.176 Y48.986
X3.773 Y48.985
G3 X3.773 Y43.439 Z-4.1 I0 J-2.773 F333.3
X3.773 Y48.985 Z-4.4 I0 J2.773
G1 X1.007 Y48.984 F1000
X1 Y48.94
Y37.844
X1.218 Y38.297
X1.266 Y38.389
X1.32 Y38.477
X3.072 Y41.171
X3.132 Y41.258
X3.195 Y41.342
X3.259 Y41.422
X5.308 Y43.829
X5.403 Y43.932
X5.559 Y44.086
X5.609 Y44.133
X7.881 Y46.196
X7.987 Y46.285
X8.147 Y46.407
X8.205 Y46.449
X10.765 Y48.233
X10.851 Y48.289
X10.94 Y48.339
X12.176 Y48.986
X3.773 Y48.985
G3 X3.773 Y43.439 Z-4.7 I0 J-2.773 F333.3
X3.773 Y48.985 Z-5 I0 J2.773
G1 X1.007 Y48.984 F1000
X1 Y48.94
Y37.844
X1.218 Y38.297
X1.266 Y38.389
X1.32 Y38.477
X3.072 Y41.171
X3.132 Y41.258
X3.195 Y41.342
X3.259 Y41.422
X5.308 Y43.829
X5.403 Y43.932
X5.559 Y44.086
X5.609 Y44.133
X7.881 Y46.196
X7.987 Y46.285
X8.147 Y46.407
X8.205 Y46.449
X10.765 Y48.233
X10.851 Y48.289
X10.94 Y48.339
X12.176 Y48.986
X3.773 Y48.985
G3 X3.773 Y43.439 Z-5.3 I0 J-2.773 F333.3
X3.773 Y48.985 Z-5.6 I0 J2.773
G1 X1.007 Y48.984 F1000
X1 Y48.94
Y37.844
X1.218 Y38.297
X1.266 Y38.389
X1.32 Y38.477
X3.072 Y41.171
X3.132 Y41.258
X3.195 Y41.342
X3.259 Y41.422
X5.308 Y43.829
X5.403 Y43.932
X5.559 Y44.086
X5.609 Y44.133
X7.881 Y46.196
X7.987 Y46.285
X8.147 Y46.407
X8.205 Y46.449
X10.765 Y48.233
X10.851 Y48.289
X10.94 Y48.339
X12.176 Y48.986
X3.773 Y48.985
G3 X3.773 Y43.439 Z-5.9 I0 J-2.773 F333.3
X3.773 Y48.985 Z-6.2 I0 J2.773
G1 X1.007 Y48.984 F1000
X1 Y48.94
Y37.844
X1.218 Y38.297
X1.266 Y38.389
X1.32 Y38.477
X3.072 Y41.171
X3.132 Y41.258
X3.195 Y41.342
X3.259 Y41.422
X5.308 Y43.829
X5.403 Y43.932
X5.559 Y44.086
X5.609 Y44.133
X7.881 Y46.196
X7.987 Y46.285
X8.147 Y46.407
X8.205 Y46.449
X10.765 Y48.233
X10.851 Y48.289
X10.94 Y48.339
X12.176 Y48.986
X3.773 Y48.985
G3 X3.773 Y43.439 Z-6.5 I0 J-2.773 F333.3
X3.773 Y48.985 Z-6.8 I0 J2.773
G1 X1.007 Y48.984 F1000
X1 Y48.94
Y37.844
X1.218 Y38.297
X1.266 Y38.389
X1.32 Y38.477
X3.072 Y41.171
X3.132 Y41.258
X3.195 Y41.342
X3.259 Y41.422
X5.308 Y43.829
X5.403 Y43.932
X5.559 Y44.086
X5.609 Y44.133
X7.881 Y46.196
X7.987 Y46.285
X8.147 Y46.407
X8.205 Y46.449
X10.765 Y48.233
X10.851 Y48.289
X10.94 Y48.339
X12.176 Y48.986
X3.773 Y48.985
G3 X3.773 Y43.439 Z-7.1 I0 J-2.773 F333.3
X3.773 Y48.985 Z-7.4 I0 J2.773
G1 X1.007 Y48.984 F1000
X1 Y48.94
Y37.844
X1.218 Y38.297
X1.266 Y38.389
X1.32 Y38.477
X3.072 Y41.171
X3.132 Y41.258
X3.195 Y41.342
X3.259 Y41.422
X5.308 Y43.829
X5.403 Y43.932
X5.559 Y44.086
X5.609 Y44.133
X7.881 Y46.196
X7.987 Y46.285
X8.147 Y46.407
X8.205 Y46.449
X10.765 Y48.233
X10.851 Y48.289
X10.94 Y48.339
X12.176 Y48.986
X3.773 Y48.985
G3 X3.773 Y43.439 Z-7.7 I0 J-2.773 F333.3
X3.773 Y48.985 Z-8 I0 J2.773
G1 X1.007 Y48.984 F1000
X1 Y48.94
Y37.844
X1.218 Y38.297
X1.266 Y38.389
X1.32 Y38.477
X3.072 Y41.171
X3.132 Y41.258
X3.195 Y41.342
X3.259 Y41.422
X5.308 Y43.829
X5.403 Y43.932
X5.559 Y44.086
X5.609 Y44.133
X7.881 Y46.196
X7.987 Y46.285
X8.147 Y46.407
X8.205 Y46.449
X10.765 Y48.233
X10.851 Y48.289
X10.94 Y48.339
X12.176 Y48.986
X3.773 Y48.985
G3 X3.773 Y43.439 Z-8.3 I0 J-2.773 F333.3
X3.773 Y48.985 Z-8.6 I0 J2.773
G1 X1.007 Y48.984 F1000
X1 Y48.94
Y37.844
X1.218 Y38.297
X1.266 Y38.389
X1.32 Y38.477
X3.072 Y41.171
X3.132 Y41.258
X3.195 Y41.342
X3.259 Y41.422
X5.308 Y43.829
X5.403 Y43.932
X5.559 Y44.086
X5.609 Y44.133
X7.881 Y46.196
X7.987 Y46.285
X8.147 Y46.407
X8.205 Y46.449
X10.765 Y48.233
X10.851 Y48.289
X10.94 Y48.339
X12.176 Y48.986
X3.773 Y48.985
G3 X3.773 Y43.439 Z-8.9 I0 J-2.773 F333.3
X3.773 Y48.985 Z-9.2 I0 J2.773
G1 X1.007 Y48.984 F1000
X1 Y48.94
Y37.844
X1.218 Y38.297
X1.266 Y38.389
X1.32 Y38.477
X3.072 Y41.171
X3.132 Y41.258
X3.195 Y41.342
X3.259 Y41.422
X5.308 Y43.829
X5.403 Y43.932
X5.559 Y44.086
X5.609 Y44.133
X7.881 Y46.196
X7.987 Y46.285
X8.147 Y46.407
X8.205 Y46.449
X10.765 Y48.233
X10.851 Y48.289
X10.94 Y48.339
X12.176 Y48.986
X3.773 Y48.985
G3 X3.773 Y43.439 Z-9.5 I0 J-2.773 F333.3
X3.773 Y48.985 Z-9.8 I0 J2.773
G1 X1.007 Y48.984 F1000
X1 Y48.94
Y37.844
X1.218 Y38.297
X1.266 Y38.389
X1.32 Y38.477
X3.072 Y41.171
X3.132 Y41.258
X3.195 Y41.342
X3.259 Y41.422
X5.308 Y43.829
X5.403 Y43.932
X5.559 Y44.086
X5.609 Y44.133
X7.881 Y46.196
X7.987 Y46.285
X8.147 Y46.407
X8.205 Y46.449
X10.765 Y48.233
X10.851 Y48.289
X10.94 Y48.339
X12.176 Y48.986
X3.773 Y48.985
G3 X3.773 Y43.439 Z-10.1 I0 J-2.773 F333.3
X3.773 Y48.985 Z-10.4 I0 J2.773
G1 X1.007 Y48.984 F1000
X1 Y48.94
Y37.844
X1.218 Y38.297
X1.266 Y38.389
X1.32 Y38.477
X3.072 Y41.171
X3.132 Y41.258
X3.195 Y41.342
X3.259 Y41.422
X5.308 Y43.829
X5.403 Y43.932
X5.559 Y44.086
X5.609 Y44.133
X7.881 Y46.196
X7.987 Y46.285
X8.147 Y46.407
X8.205 Y46.449
X10.765 Y48.233
X10.851 Y48.289
X10.94 Y48.339
X12.176 Y48.986
X3.773 Y48.985
G3 X3.773 Y43.439 Z-10.7 I0 J-2.773 F333.3
X3.773 Y48.985 Z-11 I0 J2.773
G1 X1.007 Y48.984 F1000
X1 Y48.94
Y37.844
X1.218 Y38.297
X1.266 Y38.389
X1.32 Y38.477
X3.072 Y41.171
X3.132 Y41.258
X3.195 Y41.342
X3.259 Y41.422
X5.308 Y43.829
X5.403 Y43.932
X5.559 Y44.086
X5.609 Y44.133
X7.881 Y46.196
X7.987 Y46.285
X8.147 Y46.407
X8.205 Y46.449
X10.765 Y48.233
X10.851 Y48.289
X10.94 Y48.339
X12.176 Y48.986
X3.773 Y48.985
G3 X3.773 Y43.439 Z-11.3 I0 J-2.773 F333.3
X3.773 Y48.985 Z-11.6 I0 J2.773
G1 X1.007 Y48.984 F1000
X1 Y48.94
Y37.844
X1.218 Y38.297
X1.266 Y38.389
X1.32 Y38.477
X3.072 Y41.171
X3.132 Y41.258
X3.195 Y41.342
X3.259 Y41.422
X5.308 Y43.829
X5.403 Y43.932
X5.559 Y44.086
X5.609 Y44.133
X7.881 Y46.196
X7.987 Y46.285
X8.147 Y46.407
X8.205 Y46.449
X10.765 Y48.233
X10.851 Y48.289
X10.94 Y48.339
X12.176 Y48.986
X3.773 Y48.985
G3 X3.773 Y43.439 Z-11.9 I0 J-2.773 F333.3
X3.773 Y48.985 Z-12.2 I0 J2.773
G1 X1.007 Y48.984 F1000
X1 Y48.94
Y37.844
X1.218 Y38.297
X1.266 Y38.389
X1.32 Y38.477
X3.072 Y41.171
X3.132 Y41.258
X3.195 Y41.342
X3.259 Y41.422
X5.308 Y43.829
X5.403 Y43.932
X5.559 Y44.086
X5.609 Y44.133
X7.881 Y46.196
X7.987 Y46.285
X8.147 Y46.407
X8.205 Y46.449
X10.765 Y48.233
X10.851 Y48.289
X10.94 Y48.339
X12.176 Y48.986
X3.773 Y48.985
G3 X3.773 Y43.439 Z-12.5 I0 J-2.773 F333.3
X3.773 Y48.985 Z-12.8 I0 J2.773
G1 X1.007 Y48.984 F1000
X1 Y48.94
Y37.844
X1.218 Y38.297
X1.266 Y38.389
X1.32 Y38.477
X3.072 Y41.171
X3.132 Y41.258
X3.195 Y41.342
X3.259 Y41.422
X5.308 Y43.829
X5.403 Y43.932
X5.559 Y44.086
X5.609 Y44.133
X7.881 Y46.196
X7.987 Y46.285
X8.147 Y46.407
X8.205 Y46.449
X10.765 Y48.233
X10.851 Y48.289
X10.94 Y48.339
X12.176 Y48.986
X3.773 Y48.985
G3 X3.773 Y43.439 Z-13.1 I0 J-2.773 F333.3
X3.773 Y48.985 Z-13.4 I0 J2.773
G1 X1.007 Y48.984 F1000
X1 Y48.94
Y37.844
X1.218 Y38.297
X1.266 Y38.389
X1.32 Y38.477
X3.072 Y41.171
X3.132 Y41.258
X3.195 Y41.342
X3.259 Y41.422
X5.308 Y43.829
X5.403 Y43.932
X5.559 Y44.086
X5.609 Y44.133
X7.881 Y46.196
X7.987 Y46.285
X8.147 Y46.407
X8.205 Y46.449
X10.765 Y48.233
X10.851 Y48.289
X10.94 Y48.339
X12.176 Y48.986
X3.773 Y48.985
G3 X3.773 Y43.439 Z-13.7 I0 J-2.773 F333.3
X3.773 Y48.985 Z-14 I0 J2.773
G1 X1.007 Y48.984 F1000
X1 Y48.94
Y37.844
X1.218 Y38.297
X1.266 Y38.389
X1.32 Y38.477
X3.072 Y41.171
X3.132 Y41.258
X3.195 Y41.342
X3.259 Y41.422
X5.308 Y43.829
X5.403 Y43.932
X5.559 Y44.086
X5.609 Y44.133
X7.881 Y46.196
X7.987 Y46.285
X8.147 Y46.407
X8.205 Y46.449
X10.765 Y48.233
X10.851 Y48.289
X10.94 Y48.339
X12.176 Y48.986
X3.773 Y48.985
G3 X3.773 Y43.439 Z-14.3 I0 J-2.773 F333.3
X3.773 Y48.985 Z-14.6 I0 J2.773
G1 X1.007 Y48.984 F1000
X1 Y48.94
Y37.844
X1.218 Y38.297
X1.266 Y38.389
X1.32 Y38.477
X3.072 Y41.171
X3.132 Y41.258
X3.195 Y41.342
X3.259 Y41.422
X5.308 Y43.829
X5.403 Y43.932
X5.559 Y44.086
X5.609 Y44.133
X7.881 Y46.196
X7.987 Y46.285
X8.147 Y46.407
X8.205 Y46.449
X10.765 Y48.233
X10.851 Y48.289
X10.94 Y48.339
X12.176 Y48.986
X3.773 Y48.985
G3 X3.773 Y43.439 Z-14.675 I0 J-2.773 F333.3
X3.773 Y48.985 Z-14.75 I0 J2.773
G1 X1.007 Y48.984 F1000
X1 Y48.94
Y37.844
X1.218 Y38.297
X1.266 Y38.389
X1.32 Y38.477
X3.072 Y41.171
X3.132 Y41.258
X3.195 Y41.342
X3.259 Y41.422
X5.308 Y43.829
X5.403 Y43.932
X5.559 Y44.086
X5.609 Y44.133
X7.881 Y46.196
X7.987 Y46.285
X8.147 Y46.407
X8.205 Y46.449
X10.765 Y48.233
X10.851 Y48.289
X10.94 Y48.339
X12.176 Y48.986
X3.773 Y48.985
X3.706 Y48.979 Z-14.742
X3.641 Y48.966 Z-14.735
X3.58 Y48.947 Z-14.713
X3.522 Y48.921 Z-14.691
X3.473 Y48.893 Z-14.655
X3.427 Y48.86 Z-14.619
X3.357 Y48.796 Z-14.524
X3.312 Y48.74 Z-14.41
X3.287 Y48.703 Z-14.284
X3.28 Y48.69 Z-14.15
G0 Z5
X21.169 Y23.56
Z1.83
G1 Z0.68 F333.3
X21.179 Y23.543 Z0.528
X21.209 Y23.494 Z0.385
X21.258 Y23.417 Z0.263
X21.327 Y23.319 Z0.167
X21.412 Y23.208 Z0.105
X21.511 Y23.093 Z0.08
G3 X25.746 Y26.907 Z-0.22 I2.118 J1.907
X21.511 Y23.093 Z-0.52 I-2.118 J-1.907
X25.746 Y26.907 Z-0.82 I2.118 J1.907
X21.511 Y23.093 Z-1.12 I-2.118 J-1.907
X26.479 Y25 Z-1.35 I2.118 J1.907
X23.52 Y25 I-1.479 J0 F1000
X30.079 Y25 I3.279 J0
X19.92 Y25 I-5.079 J0
X33.679 Y25 I6.879 J0
X16.32 Y25 I-8.679 J0
X37.279 Y25 I10.479 J0
X12.72 Y25 I-12.279 J0
X37.279 Y25 I12.279 J0
G2 X38.796 Y27.431 I2.706 J0
G3 X39.858 Y30.093 I-0.937 J1.917
G1 X39.323 Y31.528
X38.251 Y33.495
X36.881 Y35.325
X35.294 Y36.908
X33.498 Y38.25
X31.561 Y39.307
X31.43 Y39.36
X29.423 Y40.107
X27.226 Y40.582
X24.978 Y40.74
X22.728 Y40.575
X20.573 Y40.106
X18.452 Y39.314
X16.48 Y38.235
X14.671 Y36.877
X13.105 Y35.31
X11.75 Y33.497
X10.677 Y31.528
X9.897 Y29.437
X9.42 Y27.249
X9.258 Y25
X9.314 Y24.217
X9.42 Y22.751
X9.897 Y20.563
X10.677 Y18.472
X11.75 Y16.503
X13.105 Y14.69
X14.671 Y13.123
X16.48 Y11.765
X18.452 Y10.686
X20.573 Y9.894
X22.728 Y9.425
X24.978 Y9.26
X27.226 Y9.418
X29.423 Y9.893
X31.526 Y10.676
X31.582 Y10.704
X33.498 Y11.75
X35.294 Y13.092
X36.881 Y14.675
X38.251 Y16.505
X39.323 Y18.472
X40.104 Y20.567
X40.58 Y22.751
X40.742 Y25
X40.58 Y27.249
X40.104 Y29.433
X39.858 Y30.093
G3 X34.554 Y30.186 Z-1.453 I-2.67 J-0.996 F333.3
G1 X31.963 Y23.912 Z-1.556
G2 X26.479 Y25 Z-1.675 I-2.634 J1.088
G3 X23.52 Y25 I-1.479 J0 F1000
X30.079 Y25 I3.279 J0
X19.92 Y25 I-5.079 J0
X33.679 Y25 I6.879 J0
X16.32 Y25 I-8.679 J0
X37.279 Y25 I10.479 J0
X12.72 Y25 I-12.279 J0
X37.279 Y25 I12.279 J0
G2 X38.796 Y27.431 I2.706 J0
G3 X39.858 Y30.093 I-0.937 J1.917
G1 X39.323 Y31.528
X38.251 Y33.495
X36.881 Y35.324
X35.294 Y36.908
X33.498 Y38.25
X31.561 Y39.307
X31.43 Y39.36
X29.423 Y40.107
X27.226 Y40.582
X24.978 Y40.74
X22.728 Y40.575
X20.573 Y40.106
X18.452 Y39.314
X16.48 Y38.235
X14.672 Y36.877
X13.105 Y35.309
X11.75 Y33.497
X10.677 Y31.528
X9.897 Y29.437
X9.42 Y27.249
X9.258 Y25
X9.314 Y24.217
X9.42 Y22.751
X9.897 Y20.563
X10.677 Y18.472
X11.75 Y16.503
X13.105 Y14.691
X14.672 Y13.123
X16.48 Y11.765
X18.452 Y10.686
X20.573 Y9.894
X22.728 Y9.425
X24.978 Y9.26
X27.226 Y9.418
X29.423 Y9.893
X31.526 Y10.676
X31.582 Y10.704
X33.498 Y11.75
X35.294 Y13.092
X36.881 Y14.676
X38.251 Y16.505
X39.323 Y18.472
X40.104 Y20.567
X40.58 Y22.751
X40.742 Y25
X40.58 Y27.249
X40.104 Y29.433
X39.858 Y30.093
G3 X34.554 Y30.186 Z-1.778 I-2.67 J-0.996 F333.3
G1 X31.963 Y23.912 Z-1.881
G2 X26.479 Y25 Z-2 I-2.634 J1.088
G3 X23.52 Y25 I-1.479 J0 F1000
X30.079 Y25 I3.279 J0
X19.92 Y25 I-5.079 J0
X33.679 Y25 I6.879 J0
X16.32 Y25 I-8.679 J0
X37.279 Y25 I10.479 J0
X12.72 Y25 I-12.279 J0
X37.279 Y25 I12.279 J0
G2 X38.796 Y27.431 I2.706 J0
G3 X39.858 Y30.093 I-0.937 J1.917
G1 X39.323 Y31.528
X38.251 Y33.495
X36.881 Y35.324
X35.294 Y36.908
X33.498 Y38.25
X31.561 Y39.307
X31.43 Y39.36
X29.423 Y40.107
X27.226 Y40.582
X24.978 Y40.74
X22.728 Y40.575
X20.573 Y40.106
X18.452 Y39.314
X16.48 Y38.235
X14.672 Y36.877
X13.106 Y35.309
X11.75 Y33.497
X10.677 Y31.528
X9.897 Y29.437
X9.42 Y27.249
X9.258 Y25
X9.314 Y24.217
X9.42 Y22.751
X9.897 Y20.563
X10.677 Y18.472
X11.75 Y16.503
X13.106 Y14.691
X14.672 Y13.123
X16.48 Y11.765
X18.452 Y10.686
X20.573 Y9.894
X22.728 Y9.425
X24.978 Y9.26
X27.226 Y9.418
X29.423 Y9.893
X31.526 Y10.676
X31.582 Y10.704
X33.498 Y11.75
X35.294 Y13.092
X36.881 Y14.676
X38.251 Y16.505
X39.323 Y18.472
X40.104 Y20.567
X40.58 Y22.751
X40.742 Y25
X40.58 Y27.249
X40.104 Y29.433
X39.858 Y30.093
X39.848 Y30.104
X39.833 Y30.102
X39.761 Y30.057
X26.445 Y25.004
X26.42 Y24.999
G3 X32.12 Y24.999 Z-2.3 I2.85 J0 F333.3
X26.42 Y24.999 Z-2.6 I-2.85 J0
X27.18 Y24.999 I0.38 J0 F1000
X22.82 Y24.999 I-2.18 J0
X30.78 Y24.999 I3.98 J0
X19.22 Y24.999 I-5.78 J0
X30.78 Y24.999 I5.78 J0
G2 X32.07 Y27.415 I2.906 J0
G3 X32.692 Y30.082 I-1.114 J1.665
G1 X32.568 Y30.295
X31.504 Y31.556
X29.986 Y32.831
X29.899 Y32.909
X29.818 Y32.994
X29.698 Y33.129
X29.685 Y33.131
X29.587 Y33.15
X29.49 Y33.174
X29.33 Y33.22
X29.218 Y33.256
X27.418 Y33.914
X27.239 Y33.949
X25.794 Y34.202
X24.192
X22.598 Y33.92
X20.731 Y33.24
X20.632 Y33.207
X20.532 Y33.181
X20.305 Y33.13
X20.239 Y33.053
X20.157 Y32.965
X20.068 Y32.882
X19.635 Y32.509
X19.619 Y32.496
X18.468 Y31.531
X17.443 Y30.31
X16.636 Y28.916
X16.074 Y27.379
X15.733 Y25.439
X15.715 Y25.35
X15.692 Y25.262
X15.629 Y25.046
X15.614 Y24.999
X15.647 Y24.904
X15.674 Y24.806
X15.728 Y24.582
X15.749 Y24.48
X16.074 Y22.62
X16.636 Y21.084
X17.443 Y19.69
X18.468 Y18.469
X19.996 Y17.186
X20.111 Y17.08
X20.219 Y16.969
X20.31 Y16.869
X20.532 Y16.819
X20.632 Y16.793
X20.731 Y16.76
X22.598 Y16.08
X24.173 Y15.801
X24.351 Y15.798
X25.794
X27.402 Y16.08
X29.301 Y16.77
X29.414 Y16.806
X29.53 Y16.834
X29.696 Y16.869
X29.818 Y17.006
X29.899 Y17.09
X29.985 Y17.168
X31.531 Y18.468
X32.567 Y19.703
X33.371 Y21.095
X33.377 Y21.11
X33.925 Y22.619
X34.256 Y24.508
X34.282 Y24.631
X34.337 Y24.843
X34.359 Y24.922
X34.386 Y25
X34.359 Y25.078
X34.337 Y25.157
X34.282 Y25.369
X34.256 Y25.492
X33.925 Y27.381
X33.379 Y28.887
X33.328 Y28.98
X32.692 Y30.082
X32.667 Y30.112
X32.634 Y30.133
X32.596 Y30.143
X32.557 Y30.14
X32.521 Y30.126
X32.491 Y30.1
X32.099 Y29.644
X27.584 Y25.456
X27.552 Y25.431
X27.516 Y25.412
X27.477 Y25.401
X26.598 Y25.218
G3 X26.42 Y24.999 I0.045 J-0.219
X32.12 Y24.999 Z-2.9 I2.85 J0 F333.3
X26.42 Y24.999 Z-3.2 I-2.85 J0
X27.18 Y24.999 I0.38 J0 F1000
X22.82 Y24.999 I-2.18 J0
X30.78 Y24.999 I3.98 J0
X19.22 Y24.999 I-5.78 J0
X30.78 Y24.999 I5.78 J0
G2 X32.07 Y27.415 I2.906 J0
G3 X32.692 Y30.082 I-1.114 J1.665
G1 X32.568 Y30.295
X31.504 Y31.556
X29.986 Y32.831
X29.899 Y32.909
X29.818 Y32.994
X29.698 Y33.129
X29.685 Y33.131
X29.587 Y33.15
X29.49 Y33.174
X29.33 Y33.22
X29.218 Y33.256
X27.418 Y33.914
X27.239 Y33.949
X25.794 Y34.202
X24.192
X22.598 Y33.92
X20.731 Y33.24
X20.632 Y33.207
X20.532 Y33.181
X20.305 Y33.13
X20.239 Y33.053
X20.157 Y32.965
X20.068 Y32.882
X19.635 Y32.509
X19.619 Y32.496
X18.468 Y31.531
X17.443 Y30.31
X16.636 Y28.916
X16.074 Y27.379
X15.733 Y25.439
X15.715 Y25.35
X15.692 Y25.262
X15.629 Y25.046
X15.614 Y24.999
X15.647 Y24.904
X15.674 Y24.806
X15.728 Y24.582
X15.749 Y24.48
X16.074 Y22.62
X16.636 Y21.084
X17.443 Y19.69
X18.468 Y18.469
X19.996 Y17.186
X20.111 Y17.08
X20.219 Y16.969
X20.31 Y16.869
X20.532 Y16.819
X20.632 Y16.793
X20.731 Y16.76
X22.598 Y16.08
X24.173 Y15.801
X24.351 Y15.798
X25.794
X27.402 Y16.08
X29.301 Y16.77
X29.414 Y16.806
X29.53 Y16.834
X29.696 Y16.869
X29.818 Y17.006
X29.899 Y17.09
X29.985 Y17.168
X31.531 Y18.468
X32.567 Y19.703
X33.371 Y21.095
X33.377 Y21.11
X33.925 Y22.619
X34.256 Y24.508
X34.282 Y24.631
X34.337 Y24.843
X34.359 Y24.922
X34.386 Y25
X34.359 Y25.078
X34.337 Y25.157
X34.282 Y25.369
X34.256 Y25.492
X33.925 Y27.381
X33.379 Y28.887
X33.328 Y28.98
X32.692 Y30.082
X32.667 Y30.112
X32.634 Y30.133
X32.596 Y30.143
X32.557 Y30.14
X32.521 Y30.126
X32.491 Y30.1
X32.099 Y29.644
X27.584 Y25.456
X27.552 Y25.431
X27.516 Y25.412
X27.477 Y25.401
X26.598 Y25.218
G3 X26.42 Y24.999 I0.045 J-0.219
X32.12 Y24.999 Z-3.5 I2.85 J0 F333.3
X26.42 Y24.999 Z-3.8 I-2.85 J0
X27.18 Y24.999 I0.38 J0 F1000
X22.82 Y24.999 I-2.18 J0
X30.78 Y24.999 I3.98 J0
X19.22 Y24.999 I-5.78 J0
X30.78 Y24.999 I5.78 J0
G2 X32.07 Y27.415 I2.906 J0
G3 X32.692 Y30.082 I-1.114 J1.665
G1 X32.568 Y30.295
X31.504 Y31.556
X29.986 Y32.831
X29.899 Y32.909
X29.818 Y32.994
X29.698 Y33.129
X29.685 Y33.131
X29.587 Y33.15
X29.49 Y33.174
X29.33 Y33.22
X29.218 Y33.256
X27.418 Y33.914
X27.239 Y33.949
X25.794 Y34.202
X24.192
X22.598 Y33.92
X20.731 Y33.24
X20.632 Y33.207
X20.532 Y33.181
X20.305 Y33.13
X20.239 Y33.053
X20.157 Y32.965
X20.068 Y32.882
X19.635 Y32.509
X19.619 Y32.496
X18.468 Y31.531
X17.443 Y30.31
X16.636 Y28.916
X16.074 Y27.379
X15.733 Y25.439
X15.715 Y25.35
X15.692 Y25.262
X15.629 Y25.046
X15.614 Y24.999
X15.647 Y24.904
X15.674 Y24.806
X15.728 Y24.582
X15.749 Y24.48
X16.074 Y22.62
X16.636 Y21.084
X17.443 Y19.69
X18.468 Y18.469
X19.996 Y17.186
X20.111 Y17.08
X20.219 Y16.969
X20.31 Y16.869
X20.532 Y16.819
X20.632 Y16.793
X20.731 Y16.76
X22.598 Y16.08
X24.173 Y15.801
X24.351 Y15.798
X25.794
X27.402 Y16.08
X29.301 Y16.77
X29.414 Y16.806
X29.53 Y16.834
X29.696 Y16.869
X29.818 Y17.006
X29.899 Y17.09
X29.985 Y17.168
X31.531 Y18.468
X32.567 Y19.703
X33.371 Y21.095
X33.377 Y21.11
X33.925 Y22.619
X34.256 Y24.508
X34.282 Y24.631
X34.337 Y24.843
X34.359 Y24.922
X34.386 Y25
X34.359 Y25.078
X34.337 Y25.157
X34.282 Y25.369
X34.256 Y25.492
X33.925 Y27.381
X33.379 Y28.887
X33.328 Y28.98
X32.692 Y30.082
X32.667 Y30.112
X32.634 Y30.133
X32.596 Y30.143
X32.557 Y30.14
X32.521 Y30.126
X32.491 Y30.1
X32.099 Y29.644
X27.584 Y25.456
X27.552 Y25.431
X27.516 Y25.412
X27.477 Y25.401
X26.598 Y25.218
G3 X26.42 Y24.999 I0.045 J-0.219
X32.12 Y24.999 Z-4.1 I2.85 J0 F333.3
X26.42 Y24.999 Z-4.4 I-2.85 J0
X27.18 Y24.999 I0.38 J0 F1000
X22.82 Y24.999 I-2.18 J0
X30.78 Y24.999 I3.98 J0
X19.22 Y24.999 I-5.78 J0
X30.78 Y24.999 I5.78 J0
G2 X32.07 Y27.415 I2.906 J0
G3 X32.692 Y30.082 I-1.114 J1.665
G1 X32.568 Y30.295
X31.504 Y31.556
X29.986 Y32.831
X29.899 Y32.909
X29.818 Y32.994
X29.698 Y33.129
X29.685 Y33.131
X29.587 Y33.15
X29.49 Y33.174
X29.33 Y33.22
X29.218 Y33.256
X27.418 Y33.914
X27.239 Y33.949
X25.794 Y34.202
X24.192
X22.598 Y33.92
X20.731 Y33.24
X20.632 Y33.207
X20.532 Y33.181
X20.305 Y33.13
X20.239 Y33.053
X20.157 Y32.965
X20.068 Y32.882
X19.635 Y32.509
X19.619 Y32.496
X18.468 Y31.531
X17.443 Y30.31
X16.636 Y28.916
X16.074 Y27.379
X15.733 Y25.439
X15.715 Y25.35
X15.692 Y25.262
X15.629 Y25.046
X15.614 Y24.999
X15.647 Y24.904
X15.674 Y24.806
X15.728 Y24.582
X15.749 Y24.48
X16.074 Y22.62
X16.636 Y21.084
X17.443 Y19.69
X18.468 Y18.469
X19.996 Y17.186
X20.111 Y17.08
X20.219 Y16.969
X20.31 Y16.869
X20.532 Y16.819
X20.632 Y16.793
X20.731 Y16.76
X22.598 Y16.08
X24.173 Y15.801
X24.351 Y15.798
X25.794
X27.402 Y16.08
X29.301 Y16.77
X29.414 Y16.806
X29.53 Y16.834
X29.696 Y16.869
X29.818 Y17.006
X29.899 Y17.09
X29.985 Y17.168
X31.531 Y18.468
X32.567 Y19.703
X33.371 Y21.095
X33.377 Y21.11
X33.925 Y22.619
X34.256 Y24.508
X34.282 Y24.631
X34.337 Y24.843
X34.359 Y24.922
X34.386 Y25
X34.359 Y25.078
X34.337 Y25.157
X34.282 Y25.369
X34.256 Y25.492
X33.925 Y27.381
X33.379 Y28.887
X33.328 Y28.98
X32.692 Y30.082
X32.68 Y30.092
X32.664 Y30.094
X32.65 Y30.085
X32.568 Y29.99
X26.545 Y24.3
X26.512 Y24.282
G3 X32.028 Y25.717 Z-4.713 I2.758 J0.718 F333.3
X26.42 Y24.999 Z-5 I-2.758 J-0.718
X27.18 Y24.999 I0.38 J0 F1000
X22.82 Y24.999 I-2.18 J0
X30.78 Y24.999 I3.98 J0
X19.22 Y24.999 I-5.78 J0
X30.78 Y24.999 I5.78 J0
G2 X32.07 Y27.415 I2.906 J0
G3 X32.692 Y30.082 I-1.114 J1.665
G1 X32.568 Y30.295
X31.504 Y31.556
X29.986 Y32.831
X29.899 Y32.909
X29.818 Y32.994
X29.698 Y33.129
X29.685 Y33.131
X29.587 Y33.15
X29.49 Y33.174
X29.33 Y33.22
X29.218 Y33.256
X27.418 Y33.914
X27.239 Y33.949
X25.794 Y34.202
X24.192
X22.598 Y33.92
X20.731 Y33.24
X20.632 Y33.207
X20.532 Y33.181
X20.305 Y33.13
X20.239 Y33.053
X20.157 Y32.965
X20.068 Y32.882
X19.635 Y32.509
X19.619 Y32.496
X18.468 Y31.531
X17.443 Y30.31
X16.636 Y28.916
X16.074 Y27.379
X15.733 Y25.439
X15.715 Y25.35
X15.692 Y25.262
X15.629 Y25.046
X15.614 Y24.999
X15.647 Y24.904
X15.674 Y24.806
X15.728 Y24.582
X15.749 Y24.48
X16.074 Y22.62
X16.636 Y21.084
X17.443 Y19.69
X18.468 Y18.469
X19.996 Y17.186
X20.111 Y17.08
X20.219 Y16.969
X20.31 Y16.869
X20.532 Y16.819
X20.632 Y16.793
X20.731 Y16.76
X22.598 Y16.08
X24.173 Y15.801
X24.351 Y15.798
X25.794
X27.402 Y16.08
X29.301 Y16.77
X29.414 Y16.806
X29.53 Y16.834
X29.696 Y16.869
X29.818 Y17.006
X29.899 Y17.09
X29.985 Y17.168
X31.531 Y18.468
X32.567 Y19.703
X33.371 Y21.095
X33.377 Y21.11
X33.925 Y22.619
X34.256 Y24.508
X34.282 Y24.631
X34.337 Y24.843
X34.359 Y24.922
X34.386 Y25
X34.359 Y25.078
X34.337 Y25.157
X34.282 Y25.369
X34.256 Y25.492
X33.925 Y27.381
X33.379 Y28.887
X33.328 Y28.98
X32.692 Y30.082
X32.68 Y30.092
X32.664 Y30.094
X32.65 Y30.085
X32.568 Y29.99
X26.545 Y24.3
X26.512 Y24.282
G3 X32.028 Y25.717 Z-5.313 I2.758 J0.718 F333.3
X26.42 Y24.999 Z-5.6 I-2.758 J-0.718
X27.18 Y24.999 I0.38 J0 F1000
X22.82 Y24.999 I-2.18 J0
X30.78 Y24.999 I3.98 J0
X19.22 Y24.999 I-5.78 J0
X30.78 Y24.999 I5.78 J0
G2 X32.07 Y27.415 I2.906 J0
G3 X32.692 Y30.082 I-1.114 J1.665
G1 X32.568 Y30.295
X31.504 Y31.556
X29.986 Y32.831
X29.899 Y32.909
X29.818 Y32.994
X29.698 Y33.129
X29.685 Y33.131
X29.587 Y33.15
X29.49 Y33.174
X29.33 Y33.22
X29.218 Y33.256
X27.418 Y33.914
X27.239 Y33.949
X25.794 Y34.202
X24.192
X22.598 Y33.92
X20.731 Y33.24
X20.632 Y33.207
X20.532 Y33.181
X20.305 Y33.13
X20.239 Y33.053
X20.157 Y32.965
X20.068 Y32.882
X19.635 Y32.509
X19.619 Y32.496
X18.468 Y31.531
X17.443 Y30.31
X16.636 Y28.916
X16.074 Y27.379
X15.733 Y25.439
X15.715 Y25.35
X15.692 Y25.262
X15.629 Y25.046
X15.614 Y24.999
X15.647 Y24.904
X15.674 Y24.806
X15.728 Y24.582
X15.749 Y24.48
X16.074 Y22.62
X16.636 Y21.084
X17.443 Y19.69
X18.468 Y18.469
X19.996 Y17.186
X20.111 Y17.08
X20.219 Y16.969
X20.31 Y16.869
X20.532 Y16.819
X20.632 Y16.793
X20.731 Y16.76
X22.598 Y16.08
X24.173 Y15.801
X24.351 Y15.798
X25.794
X27.402 Y16.08
X29.301 Y16.77
X29.414 Y16.806
X29.53 Y16.834
X29.696 Y16.869
X29.818 Y17.006
X29.899 Y17.09
X29.985 Y17.168
X31.531 Y18.468
X32.567 Y19.703
X33.371 Y21.095
X33.377 Y21.11
X33.925 Y22.619
X34.256 Y24.508
X34.282 Y24.631
X34.337 Y24.843
X34.359 Y24.922
X34.386 Y25
X34.359 Y25.078
X34.337 Y25.157
X34.282 Y25.369
X34.256 Y25.492
X33.925 Y27.381
X33.379 Y28.887
X33.328 Y28.98
X32.692 Y30.082
X32.68 Y30.092
X32.664 Y30.094
X32.65 Y30.085
X32.568 Y29.99
X26.545 Y24.3
X26.512 Y24.282
G3 X32.028 Y25.717 Z-5.913 I2.758 J0.718 F333.3
X26.42 Y24.999 Z-6.2 I-2.758 J-0.718
X27.18 Y24.999 I0.38 J0 F1000
X22.82 Y24.999 I-2.18 J0
X30.78 Y24.999 I3.98 J0
X19.22 Y24.999 I-5.78 J0
X30.78 Y24.999 I5.78 J0
G2 X32.07 Y27.415 I2.906 J0
G3 X32.692 Y30.082 I-1.114 J1.665
G1 X32.568 Y30.295
X31.504 Y31.556
X29.986 Y32.831
X29.899 Y32.909
X29.818 Y32.994
X29.698 Y33.129
X29.685 Y33.131
X29.587 Y33.15
X29.49 Y33.174
X29.33 Y33.22
X29.218 Y33.256
X27.418 Y33.914
X27.239 Y33.949
X25.794 Y34.202
X24.192
X22.598 Y33.92
X20.731 Y33.24
X20.632 Y33.207
X20.532 Y33.181
X20.305 Y33.13
X20.239 Y33.053
X20.157 Y32.965
X20.068 Y32.882
X19.635 Y32.509
X19.619 Y32.496
X18.468 Y31.531
X17.443 Y30.31
X16.636 Y28.916
X16.074 Y27.379
X15.733 Y25.439
X15.715 Y25.35
X15.692 Y25.262
X15.629 Y25.046
X15.614 Y24.999
X15.647 Y24.904
X15.674 Y24.806
X15.728 Y24.582
X15.749 Y24.48
X16.074 Y22.62
X16.636 Y21.084
X17.443 Y19.69
X18.468 Y18.469
X19.996 Y17.186
X20.111 Y17.08
X20.219 Y16.969
X20.31 Y16.869
X20.532 Y16.819
X20.632 Y16.793
X20.731 Y16.76
X22.598 Y16.08
X24.173 Y15.801
X24.351 Y15.798
X25.794
X27.402 Y16.08
X29.301 Y16.77
X29.414 Y16.806
X29.53 Y16.834
X29.696 Y16.869
X29.818 Y17.006
X29.899 Y17.09
X29.985 Y17.168
X31.531 Y18.468
X32.567 Y19.703
X33.371 Y21.095
X33.377 Y21.11
X33.925 Y22.619
X34.256 Y24.508
X34.282 Y24.631
X34.337 Y24.843
X34.359 Y24.922
X34.386 Y25
X34.359 Y25.078
X34.337 Y25.157
X34.282 Y25.369
X34.256 Y25.492
X33.925 Y27.381
X33.379 Y28.887
X33.328 Y28.98
X32.692 Y30.082
X32.68 Y30.092
X32.664 Y30.094
X32.65 Y30.085
X32.568 Y29.99
X26.545 Y24.3
X26.512 Y24.282
G3 X32.028 Y25.717 Z-6.513 I2.758 J0.718 F333.3
X26.42 Y24.999 Z-6.8 I-2.758 J-0.718
X27.18 Y24.999 I0.38 J0 F1000
X22.82 Y24.999 I-2.18 J0
X30.78 Y24.999 I3.98 J0
X19.22 Y24.999 I-5.78 J0
X30.78 Y24.999 I5.78 J0
G2 X32.07 Y27.415 I2.906 J0
G3 X32.692 Y30.082 I-1.114 J1.665
G1 X32.568 Y30.295
X31.504 Y31.556
X29.986 Y32.831
X29.899 Y32.909
X29.818 Y32.994
X29.698 Y33.129
X29.685 Y33.131
X29.587 Y33.15
X29.49 Y33.174
X29.33 Y33.22
X29.218 Y33.256
X27.418 Y33.914
X27.239 Y33.949
X25.794 Y34.202
X24.192
X22.598 Y33.92
X20.731 Y33.24
X20.632 Y33.207
X20.532 Y33.181
X20.305 Y33.13
X20.239 Y33.053
X20.157 Y32.965
X20.068 Y32.882
X19.635 Y32.509
X19.619 Y32.496
X18.468 Y31.531
X17.443 Y30.31
X16.636 Y28.916
X16.074 Y27.379
X15.733 Y25.439
X15.715 Y25.35
X15.692 Y25.262
X15.629 Y25.046
X15.614 Y24.999
X15.647 Y24.904
X15.674 Y24.806
X15.728 Y24.582
X15.749 Y24.48
X16.074 Y22.62
X16.636 Y21.084
X17.443 Y19.69
X18.468 Y18.469
X19.996 Y17.186
X20.111 Y17.08
X20.219 Y16.969
X20.31 Y16.869
X20.532 Y16.819
X20.632 Y16.793
X20.731 Y16.76
X22.598 Y16.08
X24.173 Y15.801
X24.351 Y15.798
X25.794
X27.402 Y16.08
X29.301 Y16.77
X29.414 Y16.806
X29.53 Y16.834
X29.696 Y16.869
X29.818 Y17.006
X29.899 Y17.09
X29.985 Y17.168
X31.531 Y18.468
X32.567 Y19.703
X33.371 Y21.095
X33.377 Y21.11
X33.925 Y22.619
X34.256 Y24.508
X34.282 Y24.631
X34.337 Y24.843
X34.359 Y24.922
X34.386 Y25
X34.359 Y25.078
X34.337 Y25.157
X34.282 Y25.369
X34.256 Y25.492
X33.925 Y27.381
X33.379 Y28.887
X33.328 Y28.98
X32.692 Y30.082
X32.68 Y30.092
X32.664 Y30.094
X32.65 Y30.085
X32.568 Y29.99
X26.545 Y24.3
X26.512 Y24.282
G3 X32.028 Y25.717 Z-7.113 I2.758 J0.718 F333.3
X26.42 Y24.999 Z-7.4 I-2.758 J-0.718
X27.18 Y24.999 I0.38 J0 F1000
X22.82 Y24.999 I-2.18 J0
X30.78 Y24.999 I3.98 J0
X19.22 Y24.999 I-5.78 J0
X30.78 Y24.999 I5.78 J0
G2 X32.07 Y27.415 I2.906 J0
G3 X32.692 Y30.082 I-1.114 J1.665
G1 X32.568 Y30.295
X31.504 Y31.556
X29.986 Y32.831
X29.899 Y32.909
X29.818 Y32.994
X29.698 Y33.129
X29.685 Y33.131
X29.587 Y33.15
X29.49 Y33.174
X29.33 Y33.22
X29.218 Y33.256
X27.418 Y33.914
X27.239 Y33.949
X25.794 Y34.202
X24.192
X22.598 Y33.92
X20.731 Y33.24
X20.632 Y33.207
X20.532 Y33.181
X20.305 Y33.13
X20.239 Y33.053
X20.157 Y32.965
X20.068 Y32.882
X19.635 Y32.509
X19.619 Y32.496
X18.468 Y31.531
X17.443 Y30.31
X16.636 Y28.916
X16.074 Y27.379
X15.733 Y25.439
X15.715 Y25.35
X15.692 Y25.262
X15.629 Y25.046
X15.614 Y24.999
X15.647 Y24.904
X15.674 Y24.806
X15.728 Y24.582
X15.749 Y24.48
X16.074 Y22.62
X16.636 Y21.084
X17.443 Y19.69
X18.468 Y18.469
X19.996 Y17.186
X20.111 Y17.08
X20.219 Y16.969
X20.31 Y16.869
X20.532 Y16.819
X20.632 Y16.793
X20.731 Y16.76
X22.598 Y16.08
X24.173 Y15.801
X24.351 Y15.798
X25.794
X27.402 Y16.08
X29.301 Y16.77
X29.414 Y16.806
X29.53 Y16.834
X29.696 Y16.869
X29.818 Y17.006
X29.899 Y17.09
X29.985 Y17.168
X31.531 Y18.468
X32.567 Y19.703
X33.371 Y21.095
X33.377 Y21.11
X33.925 Y22.619
X34.256 Y24.508
X34.282 Y24.631
X34.337 Y24.843
X34.359 Y24.922
X34.386 Y25
X34.359 Y25.078
X34.337 Y25.157
X34.282 Y25.369
X34.256 Y25.492
X33.925 Y27.381
X33.379 Y28.887
X33.328 Y28.98
X32.692 Y30.082
X32.68 Y30.092
X32.664 Y30.094
X32.65 Y30.085
X32.568 Y29.99
X26.545 Y24.3
X26.512 Y24.282
G3 X32.028 Y25.717 Z-7.713 I2.758 J0.718 F333.3
X26.42 Y24.999 Z-8 I-2.758 J-0.718
X27.18 Y24.999 I0.38 J0 F1000
X22.82 Y24.999 I-2.18 J0
X30.78 Y24.999 I3.98 J0
X19.22 Y24.999 I-5.78 J0
X30.78 Y24.999 I5.78 J0
G2 X32.07 Y27.415 I2.906 J0
G3 X32.692 Y30.082 I-1.114 J1.665
G1 X32.568 Y30.295
X31.504 Y31.556
X29.986 Y32.831
X29.899 Y32.909
X29.818 Y32.994
X29.698 Y33.129
X29.685 Y33.131
X29.587 Y33.15
X29.49 Y33.174
X29.33 Y33.22
X29.218 Y33.256
X27.418 Y33.914
X27.239 Y33.949
X25.794 Y34.202
X24.192
X22.598 Y33.92
X20.731 Y33.24
X20.632 Y33.207
X20.532 Y33.181
X20.305 Y33.13
X20.239 Y33.053
X20.157 Y32.965
X20.068 Y32.882
X19.635 Y32.509
X19.619 Y32.496
X18.468 Y31.531
X17.443 Y30.31
X16.636 Y28.916
X16.074 Y27.379
X15.733 Y25.439
X15.715 Y25.35
X15.692 Y25.262
X15.629 Y25.046
X15.614 Y24.999
X15.647 Y24.904
X15.674 Y24.806
X15.728 Y24.582
X15.749 Y24.48
X16.074 Y22.62
X16.636 Y21.084
X17.443 Y19.69
X18.468 Y18.469
X19.996 Y17.186
X20.111 Y17.08
X20.219 Y16.969
X20.31 Y16.869
X20.532 Y16.819
X20.632 Y16.793
X20.731 Y16.76
X22.598 Y16.08
X24.173 Y15.801
X24.351 Y15.798
X25.794
X27.402 Y16.08
X29.301 Y16.77
X29.414 Y16.806
X29.53 Y16.834
X29.696 Y16.869
X29.818 Y17.006
X29.899 Y17.09
X29.985 Y17.168
X31.531 Y18.468
X32.567 Y19.703
X33.371 Y21.095
X33.377 Y21.11
X33.925 Y22.619
X34.256 Y24.508
X34.282 Y24.631
X34.337 Y24.843
X34.359 Y24.922
X34.386 Y25
X34.359 Y25.078
X34.337 Y25.157
X34.282 Y25.369
X34.256 Y25.492
X33.925 Y27.381
X33.379 Y28.887
X33.328 Y28.98
X32.692 Y30.082
X32.68 Y30.092
X32.664 Y30.094
X32.65 Y30.085
X32.568 Y29.99
X26.545 Y24.3
X26.512 Y24.282
G3 X32.028 Y25.717 Z-8.313 I2.758 J0.718 F333.3
X26.42 Y24.999 Z-8.6 I-2.758 J-0.718
X27.18 Y24.999 I0.38 J0 F1000
X22.82 Y24.999 I-2.18 J0
X30.78 Y24.999 I3.98 J0
X19.22 Y24.999 I-5.78 J0
X30.78 Y24.999 I5.78 J0
G2 X32.07 Y27.415 I2.906 J0
G3 X32.692 Y30.082 I-1.114 J1.665
G1 X32.568 Y30.295
X31.504 Y31.556
X29.986 Y32.831
X29.899 Y32.909
X29.818 Y32.994
X29.698 Y33.129
X29.685 Y33.131
X29.587 Y33.15
X29.49 Y33.174
X29.33 Y33.22
X29.218 Y33.256
X27.418 Y33.914
X27.239 Y33.949
X25.794 Y34.202
X24.192
X22.598 Y33.92
X20.731 Y33.24
X20.632 Y33.207
X20.532 Y33.181
X20.305 Y33.13
X20.239 Y33.053
X20.157 Y32.965
X20.068 Y32.882
X19.635 Y32.509
X19.619 Y32.496
X18.468 Y31.531
X17.443 Y30.31
X16.636 Y28.916
X16.074 Y27.379
X15.733 Y25.439
X15.715 Y25.35
X15.692 Y25.262
X15.629 Y25.046
X15.614 Y24.999
X15.647 Y24.904
X15.674 Y24.806
X15.728 Y24.582
X15.749 Y24.48
X16.074 Y22.62
X16.636 Y21.084
X17.443 Y19.69
X18.468 Y18.469
X19.996 Y17.186
X20.111 Y17.08
X20.219 Y16.969
X20.31 Y16.869
X20.532 Y16.819
X20.632 Y16.793
X20.731 Y16.76
X22.598 Y16.08
X24.173 Y15.801
X24.351 Y15.798
X25.794
X27.402 Y16.08
X29.301 Y16.77
X29.414 Y16.806
X29.53 Y16.834
X29.696 Y16.869
X29.818 Y17.006
X29.899 Y17.09
X29.985 Y17.168
X31.531 Y18.468
X32.567 Y19.703
X33.371 Y21.095
X33.377 Y21.11
X33.925 Y22.619
X34.256 Y24.508
X34.282 Y24.631
X34.337 Y24.843
X34.359 Y24.922
X34.386 Y25
X34.359 Y25.078
X34.337 Y25.157
X34.282 Y25.369
X34.256 Y25.492
X33.925 Y27.381
X33.379 Y28.887
X33.328 Y28.98
X32.692 Y30.082
X32.68 Y30.092
X32.664 Y30.094
X32.65 Y30.085
X32.568 Y29.99
X26.545 Y24.3
X26.512 Y24.282
G3 X32.028 Y25.717 Z-8.913 I2.758 J0.718 F333.3
X26.42 Y24.999 Z-9.2 I-2.758 J-0.718
X27.18 Y24.999 I0.38 J0 F1000
X22.82 Y24.999 I-2.18 J0
X30.78 Y24.999 I3.98 J0
X19.22 Y24.999 I-5.78 J0
X30.78 Y24.999 I5.78 J0
G2 X32.07 Y27.415 I2.906 J0
G3 X32.692 Y30.082 I-1.114 J1.665
G1 X32.568 Y30.295
X31.504 Y31.556
X29.986 Y32.831
X29.899 Y32.909
X29.818 Y32.994
X29.698 Y33.129
X29.685 Y33.131
X29.587 Y33.15
X29.49 Y33.174
X29.33 Y33.22
X29.218 Y33.256
X27.418 Y33.914
X27.239 Y33.949
X25.794 Y34.202
X24.192
X22.598 Y33.92
X20.731 Y33.24
X20.632 Y33.207
X20.532 Y33.181
X20.305 Y33.13
X20.239 Y33.053
X20.157 Y32.965
X20.068 Y32.882
X19.635 Y32.509
X19.619 Y32.496
X18.468 Y31.531
X17.443 Y30.31
X16.636 Y28.916
X16.074 Y27.379
X15.733 Y25.439
X15.715 Y25.35
X15.692 Y25.262
X15.629 Y25.046
X15.614 Y24.999
X15.647 Y24.904
X15.674 Y24.806
X15.728 Y24.582
X15.749 Y24.48
X16.074 Y22.62
X16.636 Y21.084
X17.443 Y19.69
X18.468 Y18.469
X19.996 Y17.186
X20.111 Y17.08
X20.219 Y16.969
X20.31 Y16.869
X20.532 Y16.819
X20.632 Y16.793
X20.731 Y16.76
X22.598 Y16.08
X24.173 Y15.801
X24.351 Y15.798
X25.794
X27.402 Y16.08
X29.301 Y16.77
X29.414 Y16.806
X29.53 Y16.834
X29.696 Y16.869
X29.818 Y17.006
X29.899 Y17.09
X29.985 Y17.168
X31.531 Y18.468
X32.567 Y19.703
X33.371 Y21.095
X33.377 Y21.11
X33.925 Y22.619
X34.256 Y24.508
X34.282 Y24.631
X34.337 Y24.843
X34.359 Y24.922
X34.386 Y25
X34.359 Y25.078
X34.337 Y25.157
X34.282 Y25.369
X34.256 Y25.492
X33.925 Y27.381
X33.379 Y28.887
X33.328 Y28.98
X32.692 Y30.082
X32.68 Y30.092
X32.664 Y30.094
X32.65 Y30.085
X32.568 Y29.99
X26.545 Y24.3
X26.512 Y24.282
G3 X32.028 Y25.717 Z-9.513 I2.758 J0.718 F333.3
X26.42 Y24.999 Z-9.8 I-2.758 J-0.718
X27.18 Y24.999 I0.38 J0 F1000
X22.82 Y24.999 I-2.18 J0
X30.78 Y24.999 I3.98 J0
X19.22 Y24.999 I-5.78 J0
X30.78 Y24.999 I5.78 J0
G2 X32.07 Y27.415 I2.906 J0
G3 X32.692 Y30.082 I-1.114 J1.665
G1 X32.568 Y30.295
X31.504 Y31.556
X29.986 Y32.831
X29.899 Y32.909
X29.818 Y32.994
X29.698 Y33.129
X29.685 Y33.131
X29.587 Y33.15
X29.49 Y33.174
X29.33 Y33.22
X29.218 Y33.256
X27.418 Y33.914
X27.239 Y33.949
X25.794 Y34.202
X24.192
X22.598 Y33.92
X20.731 Y33.24
X20.632 Y33.207
X20.532 Y33.181
X20.305 Y33.13
X20.239 Y33.053
X20.157 Y32.965
X20.068 Y32.882
X19.635 Y32.509
X19.619 Y32.496
X18.468 Y31.531
X17.443 Y30.31
X16.636 Y28.916
X16.074 Y27.379
X15.733 Y25.439
X15.715 Y25.35
X15.692 Y25.262
X15.629 Y25.046
X15.614 Y24.999
X15.647 Y24.904
X15.674 Y24.806
X15.728 Y24.582
X15.749 Y24.48
X16.074 Y22.62
X16.636 Y21.084
X17.443 Y19.69
X18.468 Y18.469
X19.996 Y17.186
X20.111 Y17.08
X20.219 Y16.969
X20.31 Y16.869
X20.532 Y16.819
X20.632 Y16.793
X20.731 Y16.76
X22.598 Y16.08
X24.173 Y15.801
X24.351 Y15.798
X25.794
X27.402 Y16.08
X29.301 Y16.77
X29.414 Y16.806
X29.53 Y16.834
X29.696 Y16.869
X29.818 Y17.006
X29.899 Y17.09
X29.985 Y17.168
X31.531 Y18.468
X32.567 Y19.703
X33.371 Y21.095
X33.377 Y21.11
X33.925 Y22.619
X34.256 Y24.508
X34.282 Y24.631
X34.337 Y24.843
X34.359 Y24.922
X34.386 Y25
X34.359 Y25.078
X34.337 Y25.157
X34.282 Y25.369
X34.256 Y25.492
X33.925 Y27.381
X33.379 Y28.887
X33.328 Y28.98
X32.692 Y30.082
X32.68 Y30.092
X32.664 Y30.094
X32.65 Y30.085
X32.568 Y29.99
X26.545 Y24.3
X26.512 Y24.282
G3 X32.028 Y25.717 Z-10.113 I2.758 J0.718 F333.3
X26.42 Y24.999 Z-10.4 I-2.758 J-0.718
X27.18 Y24.999 I0.38 J0 F1000
X22.82 Y24.999 I-2.18 J0
X30.78 Y24.999 I3.98 J0
X19.22 Y24.999 I-5.78 J0
X30.78 Y24.999 I5.78 J0
G2 X32.07 Y27.415 I2.906 J0
G3 X32.692 Y30.082 I-1.114 J1.665
G1 X32.568 Y30.295
X31.504 Y31.556
X29.986 Y32.831
X29.899 Y32.909
X29.818 Y32.994
X29.698 Y33.129
X29.685 Y33.131
X29.587 Y33.15
X29.49 Y33.174
X29.33 Y33.22
X29.218 Y33.256
X27.418 Y33.914
X27.239 Y33.949
X25.794 Y34.202
X24.192
X22.598 Y33.92
X20.731 Y33.24
X20.632 Y33.207
X20.532 Y33.181
X20.305 Y33.13
X20.239 Y33.053
X20.157 Y32.965
X20.068 Y32.882
X19.635 Y32.509
X19.619 Y32.496
X18.468 Y31.531
X17.443 Y30.31
X16.636 Y28.916
X16.074 Y27.379
X15.733 Y25.439
X15.715 Y25.35
X15.692 Y25.262
X15.629 Y25.046
X15.614 Y24.999
X15.647 Y24.904
X15.674 Y24.806
X15.728 Y24.582
X15.749 Y24.48
X16.074 Y22.62
X16.636 Y21.084
X17.443 Y19.69
X18.468 Y18.469
X19.996 Y17.186
X20.111 Y17.08
X20.219 Y16.969
X20.31 Y16.869
X20.532 Y16.819
X20.632 Y16.793
X20.731 Y16.76
X22.598 Y16.08
X24.173 Y15.801
X24.351 Y15.798
X25.794
X27.402 Y16.08
X29.301 Y16.77
X29.414 Y16.806
X29.53 Y16.834
X29.696 Y16.869
X29.818 Y17.006
X29.899 Y17.09
X29.985 Y17.168
X31.531 Y18.468
X32.567 Y19.703
X33.371 Y21.095
X33.377 Y21.11
X33.925 Y22.619
X34.256 Y24.508
X34.282 Y24.631
X34.337 Y24.843
X34.359 Y24.922
X34.386 Y25
X34.359 Y25.078
X34.337 Y25.157
X34.282 Y25.369
X34.256 Y25.492
X33.925 Y27.381
X33.379 Y28.887
X33.328 Y28.98
X32.692 Y30.082
X32.68 Y30.092
X32.664 Y30.094
X32.65 Y30.085
X32.568 Y29.99
X26.545 Y24.3
X26.512 Y24.282
G3 X32.028 Y25.717 Z-10.713 I2.758 J0.718 F333.3
X26.42 Y24.999 Z-11 I-2.758 J-0.718
X27.18 Y24.999 I0.38 J0 F1000
X22.82 Y24.999 I-2.18 J0
X30.78 Y24.999 I3.98 J0
X19.22 Y24.999 I-5.78 J0
X30.78 Y24.999 I5.78 J0
G2 X32.07 Y27.415 I2.906 J0
G3 X32.692 Y30.082 I-1.114 J1.665
G1 X32.568 Y30.295
X31.504 Y31.556
X29.986 Y32.831
X29.899 Y32.909
X29.818 Y32.994
X29.698 Y33.129
X29.685 Y33.131
X29.587 Y33.15
X29.49 Y33.174
X29.33 Y33.22
X29.218 Y33.256
X27.418 Y33.914
X27.239 Y33.949
X25.794 Y34.202
X24.192
X22.598 Y33.92
X20.731 Y33.24
X20.632 Y33.207
X20.532 Y33.181
X20.305 Y33.13
X20.239 Y33.053
X20.157 Y32.965
X20.068 Y32.882
X19.635 Y32.509
X19.619 Y32.496
X18.468 Y31.531
X17.443 Y30.31
X16.636 Y28.916
X16.074 Y27.379
X15.733 Y25.439
X15.715 Y25.35
X15.692 Y25.262
X15.629 Y25.046
X15.614 Y24.999
X15.647 Y24.904
X15.674 Y24.806
X15.728 Y24.582
X15.749 Y24.48
X16.074 Y22.62
X16.636 Y21.084
X17.443 Y19.69
X18.468 Y18.469
X19.996 Y17.186
X20.111 Y17.08
X20.219 Y16.969
X20.31 Y16.869
X20.532 Y16.819
X20.632 Y16.793
X20.731 Y16.76
X22.598 Y16.08
X24.173 Y15.801
X24.351 Y15.798
X25.794
X27.402 Y16.08
X29.301 Y16.77
X29.414 Y16.806
X29.53 Y16.834
X29.696 Y16.869
X29.818 Y17.006
X29.899 Y17.09
X29.985 Y17.168
X31.531 Y18.468
X32.567 Y19.703
X33.371 Y21.095
X33.377 Y21.11
X33.925 Y22.619
X34.256 Y24.508
X34.282 Y24.631
X34.337 Y24.843
X34.359 Y24.922
X34.386 Y25
X34.359 Y25.078
X34.337 Y25.157
X34.282 Y25.369
X34.256 Y25.492
X33.925 Y27.381
X33.379 Y28.887
X33.328 Y28.98
X32.692 Y30.082
X32.68 Y30.092
X32.664 Y30.094
X32.65 Y30.085
X32.568 Y29.99
X26.545 Y24.3
X26.512 Y24.282
G3 X32.028 Y25.717 Z-11.313 I2.758 J0.718 F333.3
X26.42 Y24.999 Z-11.6 I-2.758 J-0.718
X27.18 Y24.999 I0.38 J0 F1000
X22.82 Y24.999 I-2.18 J0
X30.78 Y24.999 I3.98 J0
X19.22 Y24.999 I-5.78 J0
X30.78 Y24.999 I5.78 J0
G2 X32.07 Y27.415 I2.906 J0
G3 X32.692 Y30.082 I-1.114 J1.665
G1 X32.568 Y30.295
X31.504 Y31.556
X29.986 Y32.831
X29.899 Y32.909
X29.818 Y32.994
X29.698 Y33.129
X29.685 Y33.131
X29.587 Y33.15
X29.49 Y33.174
X29.33 Y33.22
X29.218 Y33.256
X27.418 Y33.914
X27.239 Y33.949
X25.794 Y34.202
X24.192
X22.598 Y33.92
X20.731 Y33.24
X20.632 Y33.207
X20.532 Y33.181
X20.305 Y33.13
X20.239 Y33.053
X20.157 Y32.965
X20.068 Y32.882
X19.635 Y32.509
X19.619 Y32.496
X18.468 Y31.531
X17.443 Y30.31
X16.636 Y28.916
X16.074 Y27.379
X15.733 Y25.439
X15.715 Y25.35
X15.692 Y25.262
X15.629 Y25.046
X15.614 Y24.999
X15.647 Y24.904
X15.674 Y24.806
X15.728 Y24.582
X15.749 Y24.48
X16.074 Y22.62
X16.636 Y21.084
X17.443 Y19.69
X18.468 Y18.469
X19.996 Y17.186
X20.111 Y17.08
X20.219 Y16.969
X20.31 Y16.869
X20.532 Y16.819
X20.632 Y16.793
X20.731 Y16.76
X22.598 Y16.08
X24.173 Y15.801
X24.351 Y15.798
X25.794
X27.402 Y16.08
X29.301 Y16.77
X29.414 Y16.806
X29.53 Y16.834
X29.696 Y16.869
X29.818 Y17.006
X29.899 Y17.09
X29.985 Y17.168
X31.531 Y18.468
X32.567 Y19.703
X33.371 Y21.095
X33.377 Y21.11
X33.925 Y22.619
X34.256 Y24.508
X34.282 Y24.631
X34.337 Y24.843
X34.359 Y24.922
X34.386 Y25
X34.359 Y25.078
X34.337 Y25.157
X34.282 Y25.369
X34.256 Y25.492
X33.925 Y27.381
X33.379 Y28.887
X33.328 Y28.98
X32.692 Y30.082
X32.68 Y30.092
X32.664 Y30.094
X32.65 Y30.085
X32.568 Y29.99
X26.545 Y24.3
X26.512 Y24.282
G3 X32.028 Y25.717 Z-11.913 I2.758 J0.718 F333.3
X26.42 Y24.999 Z-12.2 I-2.758 J-0.718
X27.18 Y24.999 I0.38 J0 F1000
X22.82 Y24.999 I-2.18 J0
X30.78 Y24.999 I3.98 J0
X19.22 Y24.999 I-5.78 J0
X30.78 Y24.999 I5.78 J0
G2 X32.07 Y27.415 I2.906 J0
G3 X32.692 Y30.082 I-1.114 J1.665
G1 X32.568 Y30.295
X31.504 Y31.556
X29.986 Y32.831
X29.899 Y32.909
X29.818 Y32.994
X29.698 Y33.129
X29.685 Y33.131
X29.587 Y33.15
X29.49 Y33.174
X29.33 Y33.22
X29.218 Y33.256
X27.418 Y33.914
X27.239 Y33.949
X25.794 Y34.202
X24.192
X22.598 Y33.92
X20.731 Y33.24
X20.632 Y33.207
X20.532 Y33.181
X20.305 Y33.13
X20.239 Y33.053
X20.157 Y32.965
X20.068 Y32.882
X19.635 Y32.509
X19.619 Y32.496
X18.468 Y31.531
X17.443 Y30.31
X16.636 Y28.916
X16.074 Y27.379
X15.733 Y25.439
X15.715 Y25.35
X15.692 Y25.262
X15.629 Y25.046
X15.614 Y24.999
X15.647 Y24.904
X15.674 Y24.806
X15.728 Y24.582
X15.749 Y24.48
X16.074 Y22.62
X16.636 Y21.084
X17.443 Y19.69
X18.468 Y18.469
X19.996 Y17.186
X20.111 Y17.08
X20.219 Y16.969
X20.31 Y16.869
X20.532 Y16.819
X20.632 Y16.793
X20.731 Y16.76
X22.598 Y16.08
X24.173 Y15.801
X24.351 Y15.798
X25.794
X27.402 Y16.08
X29.301 Y16.77
X29.414 Y16.806
X29.53 Y16.834
X29.696 Y16.869
X29.818 Y17.006
X29.899 Y17.09
X29.985 Y17.168
X31.531 Y18.468
X32.567 Y19.703
X33.371 Y21.095
X33.377 Y21.11
X33.925 Y22.619
X34.256 Y24.508
X34.282 Y24.631
X34.337 Y24.843
X34.359 Y24.922
X34.386 Y25
X34.359 Y25.078
X34.337 Y25.157
X34.282 Y25.369
X34.256 Y25.492
X33.925 Y27.381
X33.379 Y28.887
X33.328 Y28.98
X32.692 Y30.082
X32.68 Y30.092
X32.664 Y30.094
X32.65 Y30.085
X32.568 Y29.99
X26.545 Y24.3
X26.512 Y24.282
G3 X32.028 Y25.717 Z-12.513 I2.758 J0.718 F333.3
X26.42 Y24.999 Z-12.8 I-2.758 J-0.718
X27.18 Y24.999 I0.38 J0 F1000
X22.82 Y24.999 I-2.18 J0
X30.78 Y24.999 I3.98 J0
X19.22 Y24.999 I-5.78 J0
X30.78 Y24.999 I5.78 J0
G2 X32.07 Y27.415 I2.906 J0
G3 X32.692 Y30.082 I-1.114 J1.665
G1 X32.568 Y30.295
X31.504 Y31.556
X29.986 Y32.831
X29.899 Y32.909
X29.818 Y32.994
X29.698 Y33.129
X29.685 Y33.131
X29.587 Y33.15
X29.49 Y33.174
X29.33 Y33.22
X29.218 Y33.256
X27.418 Y33.914
X27.239 Y33.949
X25.794 Y34.202
X24.192
X22.598 Y33.92
X20.731 Y33.24
X20.632 Y33.207
X20.532 Y33.181
X20.305 Y33.13
X20.239 Y33.053
X20.157 Y32.965
X20.068 Y32.882
X19.635 Y32.509
X19.619 Y32.496
X18.468 Y31.531
X17.443 Y30.31
X16.636 Y28.916
X16.074 Y27.379
X15.733 Y25.439
X15.715 Y25.35
X15.692 Y25.262
X15.629 Y25.046
X15.614 Y24.999
X15.647 Y24.904
X15.674 Y24.806
X15.728 Y24.582
X15.749 Y24.48
X16.074 Y22.62
X16.636 Y21.084
X17.443 Y19.69
X18.468 Y18.469
X19.996 Y17.186
X20.111 Y17.08
X20.219 Y16.969
X20.31 Y16.869
X20.532 Y16.819
X20.632 Y16.793
X20.731 Y16.76
X22.598 Y16.08
X24.173 Y15.801
X24.351 Y15.798
X25.794
X27.402 Y16.08
X29.301 Y16.77
X29.414 Y16.806
X29.53 Y16.834
X29.696 Y16.869
X29.818 Y17.006
X29.899 Y17.09
X29.985 Y17.168
X31.531 Y18.468
X32.567 Y19.703
X33.371 Y21.095
X33.377 Y21.11
X33.925 Y22.619
X34.256 Y24.508
X34.282 Y24.631
X34.337 Y24.843
X34.359 Y24.922
X34.386 Y25
X34.359 Y25.078
X34.337 Y25.157
X34.282 Y25.369
X34.256 Y25.492
X33.925 Y27.381
X33.379 Y28.887
X33.328 Y28.98
X32.692 Y30.082
X32.68 Y30.092
X32.664 Y30.094
X32.65 Y30.085
X32.568 Y29.99
X26.545 Y24.3
X26.512 Y24.282
G3 X32.028 Y25.717 Z-13.113 I2.758 J0.718 F333.3
X26.42 Y24.999 Z-13.4 I-2.758 J-0.718
X27.18 Y24.999 I0.38 J0 F1000
X22.82 Y24.999 I-2.18 J0
X30.78 Y24.999 I3.98 J0
X19.22 Y24.999 I-5.78 J0
X30.78 Y24.999 I5.78 J0
G2 X32.07 Y27.415 I2.906 J0
G3 X32.692 Y30.082 I-1.114 J1.665
G1 X32.568 Y30.295
X31.504 Y31.556
X29.986 Y32.831
X29.899 Y32.909
X29.818 Y32.994
X29.698 Y33.129
X29.685 Y33.131
X29.587 Y33.15
X29.49 Y33.174
X29.33 Y33.22
X29.218 Y33.256
X27.418 Y33.914
X27.239 Y33.949
X25.794 Y34.202
X24.192
X22.598 Y33.92
X20.731 Y33.24
X20.632 Y33.207
X20.532 Y33.181
X20.305 Y33.13
X20.239 Y33.053
X20.157 Y32.965
X20.068 Y32.882
X19.635 Y32.509
X19.619 Y32.496
X18.468 Y31.531
X17.443 Y30.31
X16.636 Y28.916
X16.074 Y27.379
X15.733 Y25.439
X15.715 Y25.35
X15.692 Y25.262
X15.629 Y25.046
X15.614 Y24.999
X15.647 Y24.904
X15.674 Y24.806
X15.728 Y24.582
X15.749 Y24.48
X16.074 Y22.62
X16.636 Y21.084
X17.443 Y19.69
X18.468 Y18.469
X19.996 Y17.186
X20.111 Y17.08
X20.219 Y16.969
X20.31 Y16.869
X20.532 Y16.819
X20.632 Y16.793
X20.731 Y16.76
X22.598 Y16.08
X24.173 Y15.801
X24.351 Y15.798
X25.794
X27.402 Y16.08
X29.301 Y16.77
X29.414 Y16.806
X29.53 Y16.834
X29.696 Y16.869
X29.818 Y17.006
X29.899 Y17.09
X29.985 Y17.168
X31.531 Y18.468
X32.567 Y19.703
X33.371 Y21.095
X33.377 Y21.11
X33.925 Y22.619
X34.256 Y24.508
X34.282 Y24.631
X34.337 Y24.843
X34.359 Y24.922
X34.386 Y25
X34.359 Y25.078
X34.337 Y25.157
X34.282 Y25.369
X34.256 Y25.492
X33.925 Y27.381
X33.379 Y28.887
X33.328 Y28.98
X32.692 Y30.082
X32.68 Y30.092
X32.664 Y30.094
X32.65 Y30.085
X32.568 Y29.99
X26.545 Y24.3
X26.512 Y24.282
G3 X32.028 Y25.717 Z-13.713 I2.758 J0.718 F333.3
X26.42 Y24.999 Z-14 I-2.758 J-0.718
X27.18 Y24.999 I0.38 J0 F1000
X22.82 Y24.999 I-2.18 J0
X30.78 Y24.999 I3.98 J0
X19.22 Y24.999 I-5.78 J0
X30.78 Y24.999 I5.78 J0
G2 X32.07 Y27.415 I2.906 J0
G3 X32.692 Y30.082 I-1.114 J1.665
G1 X32.568 Y30.295
X31.504 Y31.556
X29.986 Y32.831
X29.899 Y32.909
X29.818 Y32.994
X29.698 Y33.129
X29.685 Y33.131
X29.587 Y33.15
X29.49 Y33.174
X29.33 Y33.22
X29.218 Y33.256
X27.418 Y33.914
X27.239 Y33.949
X25.794 Y34.202
X24.192
X22.598 Y33.92
X20.731 Y33.24
X20.632 Y33.207
X20.532 Y33.181
X20.305 Y33.13
X20.239 Y33.053
X20.157 Y32.965
X20.068 Y32.882
X19.635 Y32.509
X19.619 Y32.496
X18.468 Y31.531
X17.443 Y30.31
X16.636 Y28.916
X16.074 Y27.379
X15.733 Y25.439
X15.715 Y25.35
X15.692 Y25.262
X15.629 Y25.046
X15.614 Y24.999
X15.647 Y24.904
X15.674 Y24.806
X15.728 Y24.582
X15.749 Y24.48
X16.074 Y22.62
X16.636 Y21.084
X17.443 Y19.69
X18.468 Y18.469
X19.996 Y17.186
X20.111 Y17.08
X20.219 Y16.969
X20.31 Y16.869
X20.532 Y16.819
X20.632 Y16.793
X20.731 Y16.76
X22.598 Y16.08
X24.173 Y15.801
X24.351 Y15.798
X25.794
X27.402 Y16.08
X29.301 Y16.77
X29.414 Y16.806
X29.53 Y16.834
X29.696 Y16.869
X29.818 Y17.006
X29.899 Y17.09
X29.985 Y17.168
X31.531 Y18.468
X32.567 Y19.703
X33.371 Y21.095
X33.377 Y21.11
X33.925 Y22.619
X34.256 Y24.508
X34.282 Y24.631
X34.337 Y24.843
X34.359 Y24.922
X34.386 Y25
X34.359 Y25.078
X34.337 Y25.157
X34.282 Y25.369
X34.256 Y25.492
X33.925 Y27.381
X33.379 Y28.887
X33.328 Y28.98
X32.692 Y30.082
X32.68 Y30.092
X32.664 Y30.094
X32.65 Y30.085
X32.568 Y29.99
X26.545 Y24.3
X26.512 Y24.282
G3 X32.028 Y25.717 Z-14.313 I2.758 J0.718 F333.3
X26.42 Y24.999 Z-14.6 I-2.758 J-0.718
X27.18 Y24.999 I0.38 J0 F1000
X22.82 Y24.999 I-2.18 J0
X30.78 Y24.999 I3.98 J0
X19.22 Y24.999 I-5.78 J0
X30.78 Y24.999 I5.78 J0
G2 X32.07 Y27.415 I2.906 J0
G3 X32.692 Y30.082 I-1.114 J1.665
G1 X32.568 Y30.295
X31.504 Y31.556
X29.986 Y32.831
X29.899 Y32.909
X29.818 Y32.994
X29.698 Y33.129
X29.685 Y33.131
X29.587 Y33.15
X29.49 Y33.174
X29.33 Y33.22
X29.218 Y33.256
X27.418 Y33.914
X27.239 Y33.949
X25.794 Y34.202
X24.192
X22.598 Y33.92
X20.731 Y33.24
X20.632 Y33.207
X20.532 Y33.181
X20.305 Y33.13
X20.239 Y33.053
X20.157 Y32.965
X20.068 Y32.882
X19.635 Y32.509
X19.619 Y32.496
X18.468 Y31.531
X17.443 Y30.31
X16.636 Y28.916
X16.074 Y27.379
X15.733 Y25.439
X15.715 Y25.35
X15.692 Y25.262
X15.629 Y25.046
X15.614 Y24.999
X15.647 Y24.904
X15.674 Y24.806
X15.728 Y24.582
X15.749 Y24.48
X16.074 Y22.62
X16.636 Y21.084
X17.443 Y19.69
X18.468 Y18.469
X19.996 Y17.186
X20.111 Y17.08
X20.219 Y16.969
X20.31 Y16.869
X20.532 Y16.819
X20.632 Y16.793
X20.731 Y16.76
X22.598 Y16.08
X24.173 Y15.801
X24.351 Y15.798
X25.794
X27.402 Y16.08
X29.301 Y16.77
X29.414 Y16.806
X29.53 Y16.834
X29.696 Y16.869
X29.818 Y17.006
X29.899 Y17.09
X29.985 Y17.168
X31.531 Y18.468
X32.567 Y19.703
X33.371 Y21.095
X33.377 Y21.11
X33.925 Y22.619
X34.256 Y24.508
X34.282 Y24.631
X34.337 Y24.843
X34.359 Y24.922
X34.386 Y25
X34.359 Y25.078
X34.337 Y25.157
X34.282 Y25.369
X34.256 Y25.492
X33.925 Y27.381
X33.379 Y28.887
X33.328 Y28.98
X32.692 Y30.082
G3 X31.764 Y30.221 I-0.52 J-0.3 F333.3
G1 X26.612 Y25.439 Z-14.75
G3 X26.42 Y24.999 I0.408 J-0.44
X27.18 Y24.999 I0.38 J0 F1000
X22.82 Y24.999 I-2.18 J0
X30.78 Y24.999 I3.98 J0
X19.22 Y24.999 I-5.78 J0
X30.78 Y24.999 I5.78 J0
G2 X32.07 Y27.415 I2.906 J0
G3 X32.692 Y30.082 I-1.114 J1.665
G1 X32.568 Y30.295
X31.504 Y31.556
X29.986 Y32.831
X29.899 Y32.909
X29.818 Y32.994
X29.698 Y33.129
X29.685 Y33.131
X29.587 Y33.15
X29.49 Y33.174
X29.33 Y33.22
X29.218 Y33.256
X27.418 Y33.914
X27.239 Y33.949
X25.794 Y34.202
X24.192
X22.598 Y33.92
X20.731 Y33.24
X20.632 Y33.207
X20.532 Y33.181
X20.305 Y33.13
X20.239 Y33.053
X20.157 Y32.965
X20.068 Y32.882
X19.635 Y32.509
X19.619 Y32.496
X18.468 Y31.531
X17.443 Y30.31
X16.636 Y28.916
X16.074 Y27.379
X15.733 Y25.439
X15.715 Y25.35
X15.692 Y25.262
X15.629 Y25.046
X15.614 Y24.999
X15.647 Y24.904
X15.674 Y24.806
X15.728 Y24.582
X15.749 Y24.48
X16.074 Y22.62
X16.636 Y21.084
X17.443 Y19.69
X18.468 Y18.469
X19.996 Y17.186
X20.111 Y17.08
X20.219 Y16.969
X20.31 Y16.869
X20.532 Y16.819
X20.632 Y16.793
X20.731 Y16.76
X22.598 Y16.08
X24.173 Y15.801
X24.351 Y15.798
X25.794
X27.402 Y16.08
X29.301 Y16.77
X29.414 Y16.806
X29.53 Y16.834
X29.696 Y16.869
X29.818 Y17.006
X29.899 Y17.09
X29.985 Y17.168
X31.531 Y18.468
X32.567 Y19.703
X33.371 Y21.095
X33.377 Y21.11
X33.925 Y22.619
X34.256 Y24.508
X34.282 Y24.631
X34.337 Y24.843
X34.359 Y24.922
X34.386 Y25
X34.359 Y25.078
X34.337 Y25.157
X34.282 Y25.369
X34.256 Y25.492
X33.925 Y27.381
X33.379 Y28.887
X33.328 Y28.98
X32.692 Y30.082
X32.654 Y30.136 Z-14.742
X32.61 Y30.187 Z-14.735
X32.563 Y30.229 Z-14.713
X32.512 Y30.267 Z-14.691
X32.463 Y30.295 Z-14.655
X32.411 Y30.319 Z-14.619
X32.32 Y30.347 Z-14.524
X32.25 Y30.359 Z-14.41
X32.205 Y30.361 Z-14.284
X32.19 Z-14.15
G0 Z5
X44.791 Y48.613
Z1.83
G1 Z0.68 F333.3
X44.774 Y48.603 Z0.528
X44.725 Y48.574 Z0.386
X44.648 Y48.524 Z0.263
X44.549 Y48.456 Z0.167
X44.438 Y48.371 Z0.105
X44.323 Y48.273 Z0.08
G3 X48.03 Y44.153 Z-0.22 I1.853 J-2.06
X44.323 Y48.273 Z-0.52 I-1.853 J2.06
X48.03 Y44.153 Z-0.82 I1.853 J-2.06
X44.323 Y48.273 Z-1.12 I-1.853 J2.06
X46.175 Y43.442 Z-1.35 I1.853 J-2.06
X46.178 Y48.981 I0.001 J2.77
G1 X37.899 Y48.985 F1000
X38.192 Y48.811
X38.206 Y48.803
X40.429 Y47.455
X40.499 Y47.41
X40.609 Y47.336
X40.71 Y47.261
X43.188 Y45.286
X43.257 Y45.228
X43.339 Y45.155
X43.426 Y45.071
X45.695 Y42.724
X45.764 Y42.647
X45.828 Y42.567
X47.753 Y39.99
X47.808 Y39.911
X47.858 Y39.83
X48.187 Y39.26
X48.195 Y39.245
X48.949 Y37.905
X48.948 Y46.21
X48.947 Y48.98
X46.178 Y48.981
G3 X46.175 Y43.442 Z-1.512 I-0.001 J-2.77 F333.3
X46.178 Y48.981 Z-1.675 I0.001 J2.77
G1 X37.899 Y48.985 F1000
X38.192 Y48.811
X38.206 Y48.803
X40.429 Y47.455
X40.499 Y47.41
X40.609 Y47.336
X40.71 Y47.261
X43.188 Y45.286
X43.257 Y45.228
X43.339 Y45.155
X43.426 Y45.071
X45.695 Y42.724
X45.764 Y42.647
X45.828 Y42.567
X47.753 Y39.99
X47.808 Y39.911
X47.858 Y39.83
X48.187 Y39.26
X48.195 Y39.245
X48.949 Y37.905
X48.947 Y48.98
X46.178 Y48.981
G3 X46.175 Y43.442 Z-1.837 I-0.001 J-2.77 F333.3
X46.178 Y48.981 Z-2 I0.001 J2.77
G1 X37.899 Y48.985 F1000
X38.192 Y48.811
X38.206 Y48.803
X40.429 Y47.455
X40.499 Y47.41
X40.609 Y47.336
X40.71 Y47.261
X43.188 Y45.286
X43.257 Y45.228
X43.339 Y45.155
X43.426 Y45.071
X45.695 Y42.724
X45.764 Y42.647
X45.828 Y42.567
X47.753 Y39.99
X47.808 Y39.911
X47.858 Y39.83
X48.187 Y39.26
X48.195 Y39.245
X48.949 Y37.905
X48.947 Y48.98
X46.178 Y48.981
G3 X46.175 Y43.442 Z-2.3 I-0.001 J-2.77 F333.3
X46.178 Y48.981 Z-2.6 I0.001 J2.77
G1 X37.899 Y48.985 F1000
X38.192 Y48.811
X38.206 Y48.803
X40.429 Y47.455
X40.499 Y47.41
X40.609 Y47.336
X40.71 Y47.261
X43.188 Y45.286
X43.257 Y45.228
X43.339 Y45.155
X43.426 Y45.071
X45.695 Y42.724
X45.764 Y42.647
X45.828 Y42.567
X47.753 Y39.99
X47.808 Y39.911
X47.858 Y39.83
X48.187 Y39.26
X48.195 Y39.245
X48.949 Y37.905
X48.947 Y48.98
X46.178 Y48.981
G3 X46.175 Y43.442 Z-2.9 I-0.001 J-2.77 F333.3
X46.178 Y48.981 Z-3.2 I0.001 J2.77
G1 X37.899 Y48.985 F1000
X38.192 Y48.811
X38.206 Y48.803
X40.429 Y47.455
X40.499 Y47.41
X40.609 Y47.336
X40.71 Y47.261
X43.188 Y45.286
X43.257 Y45.228
X43.339 Y45.155
X43.426 Y45.071
X45.695 Y42.724
X45.764 Y42.647
X45.828 Y42.567
X47.753 Y39.99
X47.808 Y39.911
X47.858 Y39.83
X48.187 Y39.26
X48.195 Y39.245
X48.949 Y37.905
X48.947 Y48.98
X46.178 Y48.981
G3 X46.175 Y43.442 Z-3.5 I-0.001 J-2.77 F333.3
X46.178 Y48.981 Z-3.8 I0.001 J2.77
G1 X37.899 Y48.985 F1000
X38.192 Y48.811
X38.206 Y48.803
X40.429 Y47.455
X40.499 Y47.41
X40.609 Y47.336
X40.71 Y47.261
X43.188 Y45.286
X43.257 Y45.228
X43.339 Y45.155
X43.426 Y45.071
X45.695 Y42.724
X45.764 Y42.647
X45.828 Y42.567
X47.753 Y39.99
X47.808 Y39.911
X47.858 Y39.83
X48.187 Y39.26
X48.195 Y39.245
X48.949 Y37.905
X48.947 Y48.98
X46.178 Y48.981
G3 X46.175 Y43.442 Z-4.1 I-0.001 J-2.77 F333.3
X46.178 Y48.981 Z-4.4 I0.001 J2.77
G1 X37.899 Y48.985 F1000
X38.192 Y48.811
X38.206 Y48.803
X40.429 Y47.455
X40.499 Y47.41
X40.609 Y47.336
X40.71 Y47.261
X43.188 Y45.286
X43.257 Y45.228
X43.339 Y45.155
X43.426 Y45.071
X45.695 Y42.724
X45.764 Y42.647
X45.828 Y42.567
X47.753 Y39.99
X47.808 Y39.911
X47.858 Y39.83
X48.187 Y39.26
X48.195 Y39.245
X48.949 Y37.905
X48.947 Y48.98
X46.178 Y48.981
G3 X46.175 Y43.442 Z-4.7 I-0.001 J-2.77 F333.3
X46.178 Y48.981 Z-5 I0.001 J2.77
G1 X37.899 Y48.985 F1000
X38.192 Y48.811
X38.206 Y48.803
X40.429 Y47.455
X40.499 Y47.41
X40.609 Y47.336
X40.71 Y47.261
X43.188 Y45.286
X43.257 Y45.228
X43.339 Y45.155
X43.426 Y45.071
X45.695 Y42.724
X45.764 Y42.647
X45.828 Y42.567
X47.753 Y39.99
X47.808 Y39.911
X47.858 Y39.83
X48.187 Y39.26
X48.195 Y39.245
X48.949 Y37.905
X48.947 Y48.98
X46.178 Y48.981
G3 X46.175 Y43.442 Z-5.3 I-0.001 J-2.77 F333.3
X46.178 Y48.981 Z-5.6 I0.001 J2.77
G1 X37.899 Y48.985 F1000
X38.192 Y48.811
X38.206 Y48.803
X40.429 Y47.455
X40.499 Y47.41
X40.609 Y47.336
X40.71 Y47.261
X43.188 Y45.286
X43.257 Y45.228
X43.339 Y45.155
X43.426 Y45.071
X45.695 Y42.724
X45.764 Y42.647
X45.828 Y42.567
X47.753 Y39.99
X47.808 Y39.911
X47.858 Y39.83
X48.187 Y39.26
X48.195 Y39.245
X48.949 Y37.905
X48.947 Y48.98
X46.178 Y48.981
G3 X46.175 Y43.442 Z-5.9 I-0.001 J-2.77 F333.3
X46.178 Y48.981 Z-6.2 I0.001 J2.77
G1 X37.899 Y48.985 F1000
X38.192 Y48.811
X38.206 Y48.803
X40.429 Y47.455
X40.499 Y47.41
X40.609 Y47.336
X40.71 Y47.261
X43.188 Y45.286
X43.257 Y45.228
X43.339 Y45.155
X43.426 Y45.071
X45.695 Y42.724
X45.764 Y42.647
X45.828 Y42.567
X47.753 Y39.99
X47.808 Y39.911
X47.858 Y39.83
X48.187 Y39.26
X48.195 Y39.245
X48.949 Y37.905
X48.947 Y48.98
X46.178 Y48.981
G3 X46.175 Y43.442 Z-6.5 I-0.001 J-2.77 F333.3
X46.178 Y48.981 Z-6.8 I0.001 J2.77
G1 X37.899 Y48.985 F1000
X38.192 Y48.811
X38.206 Y48.803
X40.429 Y47.455
X40.499 Y47.41
X40.609 Y47.336
X40.71 Y47.261
X43.188 Y45.286
X43.257 Y45.228
X43.339 Y45.155
X43.426 Y45.071
X45.695 Y42.724
X45.764 Y42.647
X45.828 Y42.567
X47.753 Y39.99
X47.808 Y39.911
X47.858 Y39.83
X48.187 Y39.26
X48.195 Y39.245
X48.949 Y37.905
X48.947 Y48.98
X46.178 Y48.981
G3 X46.175 Y43.442 Z-7.1 I-0.001 J-2.77 F333.3
X46.178 Y48.981 Z-7.4 I0.001 J2.77
G1 X37.899 Y48.985 F1000
X38.192 Y48.811
X38.206 Y48.803
X40.429 Y47.455
X40.499 Y47.41
X40.609 Y47.336
X40.71 Y47.261
X43.188 Y45.286
X43.257 Y45.228
X43.339 Y45.155
X43.426 Y45.071
X45.695 Y42.724
X45.764 Y42.647
X45.828 Y42.567
X47.753 Y39.99
X47.808 Y39.911
X47.858 Y39.83
X48.187 Y39.26
X48.195 Y39.245
X48.949 Y37.905
X48.947 Y48.98
X46.178 Y48.981
G3 X46.175 Y43.442 Z-7.7 I-0.001 J-2.77 F333.3
X46.178 Y48.981 Z-8 I0.001 J2.77
G1 X37.899 Y48.985 F1000
X38.192 Y48.811
X38.206 Y48.803
X40.429 Y47.455
X40.499 Y47.41
X40.609 Y47.336
X40.71 Y47.261
X43.188 Y45.286
X43.257 Y45.228
X43.339 Y45.155
X43.426 Y45.071
X45.695 Y42.724
X45.764 Y42.647
X45.828 Y42.567
X47.753 Y39.99
X47.808 Y39.911
X47.858 Y39.83
X48.187 Y39.26
X48.195 Y39.245
X48.949 Y37.905
X48.947 Y48.98
X46.178 Y48.981
G3 X46.175 Y43.442 Z-8.3 I-0.001 J-2.77 F333.3
X46.178 Y48.981 Z-8.6 I0.001 J2.77
G1 X37.899 Y48.985 F1000
X38.192 Y48.811
X38.206 Y48.803
X40.429 Y47.455
X40.499 Y47.41
X40.609 Y47.336
X40.71 Y47.261
X43.188 Y45.286
X43.257 Y45.228
X43.339 Y45.155
X43.426 Y45.071
X45.695 Y42.724
X45.764 Y42.647
X45.828 Y42.567
X47.753 Y39.99
X47.808 Y39.911
X47.858 Y39.83
X48.187 Y39.26
X48.195 Y39.245
X48.949 Y37.905
X48.947 Y48.98
X46.178 Y48.981
G3 X46.175 Y43.442 Z-8.9 I-0.001 J-2.77 F333.3
X46.178 Y48.981 Z-9.2 I0.001 J2.77
G1 X37.899 Y48.985 F1000
X38.192 Y48.811
X38.206 Y48.803
X40.429 Y47.455
X40.499 Y47.41
X40.609 Y47.336
X40.71 Y47.261
X43.188 Y45.286
X43.257 Y45.228
X43.339 Y45.155
X43.426 Y45.071
X45.695 Y42.724
X45.764 Y42.647
X45.828 Y42.567
X47.753 Y39.99
X47.808 Y39.911
X47.858 Y39.83
X48.187 Y39.26
X48.195 Y39.245
X48.949 Y37.905
X48.947 Y48.98
X46.178 Y48.981
G3 X46.175 Y43.442 Z-9.5 I-0.001 J-2.77 F333.3
X46.178 Y48.981 Z-9.8 I0.001 J2.77
G1 X37.899 Y48.985 F1000
X38.192 Y48.811
X38.206 Y48.803
X40.429 Y47.455
X40.499 Y47.41
X40.609 Y47.336
X40.71 Y47.261
X43.188 Y45.286
X43.257 Y45.228
X43.339 Y45.155
X43.426 Y45.071
X45.695 Y42.724
X45.764 Y42.647
X45.828 Y42.567
X47.753 Y39.99
X47.808 Y39.911
X47.858 Y39.83
X48.187 Y39.26
X48.195 Y39.245
X48.949 Y37.905
X48.947 Y48.98
X46.178 Y48.981
G3 X46.175 Y43.442 Z-10.1 I-0.001 J-2.77 F333.3
X46.178 Y48.981 Z-10.4 I0.001 J2.77
G1 X37.899 Y48.985 F1000
X38.192 Y48.811
X38.206 Y48.803
X40.429 Y47.455
X40.499 Y47.41
X40.609 Y47.336
X40.71 Y47.261
X43.188 Y45.286
X43.257 Y45.228
X43.339 Y45.155
X43.426 Y45.071
X45.695 Y42.724
X45.764 Y42.647
X45.828 Y42.567
X47.753 Y39.99
X47.808 Y39.911
X47.858 Y39.83
X48.187 Y39.26
X48.195 Y39.245
X48.949 Y37.905
X48.947 Y48.98
X46.178 Y48.981
G3 X46.175 Y43.442 Z-10.7 I-0.001 J-2.77 F333.3
X46.178 Y48.981 Z-11 I0.001 J2.77
G1 X37.899 Y48.985 F1000
X38.192 Y48.811
X38.206 Y48.803
X40.429 Y47.455
X40.499 Y47.41
X40.609 Y47.336
X40.71 Y47.261
X43.188 Y45.286
X43.257 Y45.228
X43.339 Y45.155
X43.426 Y45.071
X45.695 Y42.724
X45.764 Y42.647
X45.828 Y42.567
X47.753 Y39.99
X47.808 Y39.911
X47.858 Y39.83
X48.187 Y39.26
X48.195 Y39.245
X48.949 Y37.905
X48.947 Y48.98
X46.178 Y48.981
G3 X46.175 Y43.442 Z-11.3 I-0.001 J-2.77 F333.3
X46.178 Y48.981 Z-11.6 I0.001 J2.77
G1 X37.899 Y48.985 F1000
X38.192 Y48.811
X38.206 Y48.803
X40.429 Y47.455
X40.499 Y47.41
X40.609 Y47.336
X40.71 Y47.261
X43.188 Y45.286
X43.257 Y45.228
X43.339 Y45.155
X43.426 Y45.071
X45.695 Y42.724
X45.764 Y42.647
X45.828 Y42.567
X47.753 Y39.99
X47.808 Y39.911
X47.858 Y39.83
X48.187 Y39.26
X48.195 Y39.245
X48.949 Y37.905
X48.947 Y48.98
X46.178 Y48.981
G3 X46.175 Y43.442 Z-11.9 I-0.001 J-2.77 F333.3
X46.178 Y48.981 Z-12.2 I0.001 J2.77
G1 X37.899 Y48.985 F1000
X38.192 Y48.811
X38.206 Y48.803
X40.429 Y47.455
X40.499 Y47.41
X40.609 Y47.336
X40.71 Y47.261
X43.188 Y45.286
X43.257 Y45.228
X43.339 Y45.155
X43.426 Y45.071
X45.695 Y42.724
X45.764 Y42.647
X45.828 Y42.567
X47.753 Y39.99
X47.808 Y39.911
X47.858 Y39.83
X48.187 Y39.26
X48.195 Y39.245
X48.949 Y37.905
X48.947 Y48.98
X46.178 Y48.981
G3 X46.175 Y43.442 Z-12.5 I-0.001 J-2.77 F333.3
X46.178 Y48.981 Z-12.8 I0.001 J2.77
G1 X37.899 Y48.985 F1000
X38.192 Y48.811
X38.206 Y48.803
X40.429 Y47.455
X40.499 Y47.41
X40.609 Y47.336
X40.71 Y47.261
X43.188 Y45.286
X43.257 Y45.228
X43.339 Y45.155
X43.426 Y45.071
X45.695 Y42.724
X45.764 Y42.647
X45.828 Y42.567
X47.753 Y39.99
X47.808 Y39.911
X47.858 Y39.83
X48.187 Y39.26
X48.195 Y39.245
X48.949 Y37.905
X48.947 Y48.98
X46.178 Y48.981
G3 X46.175 Y43.442 Z-13.1 I-0.001 J-2.77 F333.3
X46.178 Y48.981 Z-13.4 I0.001 J2.77
G1 X37.899 Y48.985 F1000
X38.192 Y48.811
X38.206 Y48.803
X40.429 Y47.455
X40.499 Y47.41
X40.609 Y47.336
X40.71 Y47.261
X43.188 Y45.286
X43.257 Y45.228
X43.339 Y45.155
X43.426 Y45.071
X45.695 Y42.724
X45.764 Y42.647
X45.828 Y42.567
X47.753 Y39.99
X47.808 Y39.911
X47.858 Y39.83
X48.187 Y39.26
X48.195 Y39.245
X48.949 Y37.905
X48.947 Y48.98
X46.178 Y48.981
G3 X46.175 Y43.442 Z-13.7 I-0.001 J-2.77 F333.3
X46.178 Y48.981 Z-14 I0.001 J2.77
G1 X37.899 Y48.985 F1000
X38.192 Y48.811
X38.206 Y48.803
X40.429 Y47.455
X40.499 Y47.41
X40.609 Y47.336
X40.71 Y47.261
X43.188 Y45.286
X43.257 Y45.228
X43.339 Y45.155
X43.426 Y45.071
X45.695 Y42.724
X45.764 Y42.647
X45.828 Y42.567
X47.753 Y39.99
X47.808 Y39.911
X47.858 Y39.83
X48.187 Y39.26
X48.195 Y39.245
X48.949 Y37.905
X48.947 Y48.98
X46.178 Y48.981
G3 X46.175 Y43.442 Z-14.3 I-0.001 J-2.77 F333.3
X46.178 Y48.981 Z-14.6 I0.001 J2.77
G1 X37.899 Y48.985 F1000
X38.192 Y48.811
X38.206 Y48.803
X40.429 Y47.455
X40.499 Y47.41
X40.609 Y47.336
X40.71 Y47.261
X43.188 Y45.286
X43.257 Y45.228
X43.339 Y45.155
X43.426 Y45.071
X45.695 Y42.724
X45.764 Y42.647
X45.828 Y42.567
X47.753 Y39.99
X47.808 Y39.911
X47.858 Y39.83
X48.187 Y39.26
X48.195 Y39.245
X48.949 Y37.905
X48.947 Y48.98
X46.178 Y48.981
G3 X46.175 Y43.442 Z-14.675 I-0.001 J-2.77 F333.3
X46.178 Y48.981 Z-14.75 I0.001 J2.77
G1 X37.899 Y48.985 F1000
X38.192 Y48.811
X38.206 Y48.803
X40.429 Y47.455
X40.499 Y47.41
X40.609 Y47.336
X40.71 Y47.261
X43.188 Y45.286
X43.257 Y45.228
X43.339 Y45.155
X43.426 Y45.071
X45.695 Y42.724
X45.764 Y42.647
X45.828 Y42.567
X47.753 Y39.99
X47.808 Y39.911
X47.858 Y39.83
X48.187 Y39.26
X48.195 Y39.245
X48.949 Y37.905
X48.947 Y48.98
X46.178 Y48.981
X46.111 Y48.975 Z-14.742
X46.046 Y48.962 Z-14.735
X45.985 Y48.943 Z-14.713
X45.927 Y48.918 Z-14.691
X45.878 Y48.889 Z-14.655
X45.832 Y48.857 Z-14.619
X45.762 Y48.792 Z-14.524
X45.717 Y48.737 Z-14.41
X45.692 Y48.7 Z-14.284
X45.685 Y48.687 Z-14.15
G0 Z5
X48.577 Y5.172
Z1.83
G1 Z0.68 F333.3
X48.567 Y5.189 Z0.528
X48.537 Y5.238 Z0.386
X48.488 Y5.316 Z0.263
X48.42 Y5.414 Z0.167
X48.335 Y5.525 Z0.105
X48.237 Y5.64 Z0.08
G3 X44.116 Y1.933 Z-0.22 I-2.06 J-1.853
X48.237 Y5.64 Z-0.52 I2.06 J1.853
X44.116 Y1.933 Z-0.82 I-2.06 J-1.853
X48.237 Y5.64 Z-1.12 I2.06 J1.853
X43.405 Y3.788 Z-1.35 I-2.06 J-1.853
X46.173 Y1.017 I2.77 J-0.001
X48.945 Y3.785 I0.001 J2.77
G1 X48.949 Y12.094 F1000
X47.912 Y10.256
X47.863 Y10.173
X47.808 Y10.094
X47.409 Y9.548
X47.399 Y9.535
X45.827 Y7.433
X45.763 Y7.353
X45.695 Y7.276
X44.177 Y5.707
X43.426 Y4.929
X43.359 Y4.864
X43.29 Y4.803
X42.963 Y4.534
X42.943 Y4.518
X40.71 Y2.738
X40.644 Y2.689
X40.575 Y2.642
X40.355 Y2.501
X40.319 Y2.478
X37.903 Y1.014
X48.943 Y1.016
X48.945 Y3.785
G3 X43.405 Y3.788 Z-1.512 I-2.77 J0.001 F333.3
X48.945 Y3.785 Z-1.675 I2.77 J-0.001
G1 X48.949 Y12.094 F1000
X47.912 Y10.256
X47.863 Y10.173
X47.808 Y10.094
X47.409 Y9.548
X47.399 Y9.535
X45.827 Y7.433
X45.763 Y7.353
X45.695 Y7.276
X43.426 Y4.929
X43.359 Y4.864
X43.29 Y4.803
X42.963 Y4.534
X42.943 Y4.518
X40.71 Y2.738
X40.644 Y2.689
X40.575 Y2.642
X40.355 Y2.501
X40.319 Y2.478
X37.903 Y1.014
X48.943 Y1.016
X48.945 Y3.785
G3 X43.405 Y3.788 Z-1.837 I-2.77 J0.001 F333.3
X48.945 Y3.785 Z-2 I2.77 J-0.001
G1 X48.949 Y12.094 F1000
X47.912 Y10.256
X47.863 Y10.173
X47.808 Y10.094
X47.409 Y9.548
X47.399 Y9.535
X45.827 Y7.433
X45.763 Y7.353
X45.695 Y7.276
X43.426 Y4.929
X43.359 Y4.864
X43.29 Y4.803
X42.963 Y4.534
X42.943 Y4.518
X40.71 Y2.738
X40.644 Y2.689
X40.575 Y2.642
X40.355 Y2.501
X40.319 Y2.478
X37.903 Y1.014
X48.943 Y1.016
X48.945 Y3.785
G3 X43.405 Y3.788 Z-2.3 I-2.77 J0.001 F333.3
X48.945 Y3.785 Z-2.6 I2.77 J-0.001
G1 X48.949 Y12.094 F1000
X47.912 Y10.256
X47.863 Y10.173
X47.808 Y10.094
X47.409 Y9.548
X47.399 Y9.535
X45.827 Y7.433
X45.763 Y7.353
X45.695 Y7.276
X43.426 Y4.929
X43.359 Y4.864
X43.29 Y4.803
X42.963 Y4.534
X42.943 Y4.518
X40.71 Y2.738
X40.644 Y2.689
X40.575 Y2.642
X40.355 Y2.501
X40.319 Y2.478
X37.903 Y1.014
X48.943 Y1.016
X48.945 Y3.785
G3 X43.405 Y3.788 Z-2.9 I-2.77 J0.001 F333.3
X48.945 Y3.785 Z-3.2 I2.77 J-0.001
G1 X48.949 Y12.094 F1000
X47.912 Y10.256
X47.863 Y10.173
X47.808 Y10.094
X47.409 Y9.548
X47.399 Y9.535
X45.827 Y7.433
X45.763 Y7.353
X45.695 Y7.276
X43.426 Y4.929
X43.359 Y4.864
X43.29 Y4.803
X42.963 Y4.534
X42.943 Y4.518
X40.71 Y2.738
X40.644 Y2.689
X40.575 Y2.642
X40.355 Y2.501
X40.319 Y2.478
X37.903 Y1.014
X48.943 Y1.016
X48.945 Y3.785
G3 X43.405 Y3.788 Z-3.5 I-2.77 J0.001 F333.3
X48.945 Y3.785 Z-3.8 I2.77 J-0.001
G1 X48.949 Y12.094 F1000
X47.912 Y10.256
X47.863 Y10.173
X47.808 Y10.094
X47.409 Y9.548
X47.399 Y9.535
X45.827 Y7.433
X45.763 Y7.353
X45.695 Y7.276
X43.426 Y4.929
X43.359 Y4.864
X43.29 Y4.803
X42.963 Y4.534
X42.943 Y4.518
X40.71 Y2.738
X40.644 Y2.689
X40.575 Y2.642
X40.355 Y2.501
X40.319 Y2.478
X37.903 Y1.014
X48.943 Y1.016
X48.945 Y3.785
G3 X43.405 Y3.788 Z-4.1 I-2.77 J0.001 F333.3
X48.945 Y3.785 Z-4.4 I2.77 J-0.001
G1 X48.949 Y12.094 F1000
X47.912 Y10.256
X47.863 Y10.173
X47.808 Y10.094
X47.409 Y9.548
X47.399 Y9.535
X45.827 Y7.433
X45.763 Y7.353
X45.695 Y7.276
X43.426 Y4.929
X43.359 Y4.864
X43.29 Y4.803
X42.963 Y4.534
X42.943 Y4.518
X40.71 Y2.738
X40.644 Y2.689
X40.575 Y2.642
X40.355 Y2.501
X40.319 Y2.478
X37.903 Y1.014
X48.943 Y1.016
X48.945 Y3.785
G3 X43.405 Y3.788 Z-4.7 I-2.77 J0.001 F333.3
X48.945 Y3.785 Z-5 I2.77 J-0.001
G1 X48.949 Y12.094 F1000
X47.912 Y10.256
X47.863 Y10.173
X47.808 Y10.094
X47.409 Y9.548
X47.399 Y9.535
X45.827 Y7.433
X45.763 Y7.353
X45.695 Y7.276
X43.426 Y4.929
X43.359 Y4.864
X43.29 Y4.803
X42.963 Y4.534
X42.943 Y4.518
X40.71 Y2.738
X40.644 Y2.689
X40.575 Y2.642
X40.355 Y2.501
X40.319 Y2.478
X37.903 Y1.014
X48.943 Y1.016
X48.945 Y3.785
G3 X43.405 Y3.788 Z-5.3 I-2.77 J0.001 F333.3
X48.945 Y3.785 Z-5.6 I2.77 J-0.001
G1 X48.949 Y12.094 F1000
X47.912 Y10.256
X47.863 Y10.173
X47.808 Y10.094
X47.409 Y9.548
X47.399 Y9.535
X45.827 Y7.433
X45.763 Y7.353
X45.695 Y7.276
X43.426 Y4.929
X43.359 Y4.864
X43.29 Y4.803
X42.963 Y4.534
X42.943 Y4.518
X40.71 Y2.738
X40.644 Y2.689
X40.575 Y2.642
X40.355 Y2.501
X40.319 Y2.478
X37.903 Y1.014
X48.943 Y1.016
X48.945 Y3.785
G3 X43.405 Y3.788 Z-5.9 I-2.77 J0.001 F333.3
X48.945 Y3.785 Z-6.2 I2.77 J-0.001
G1 X48.949 Y12.094 F1000
X47.912 Y10.256
X47.863 Y10.173
X47.808 Y10.094
X47.409 Y9.548
X47.399 Y9.535
X45.827 Y7.433
X45.763 Y7.353
X45.695 Y7.276
X43.426 Y4.929
X43.359 Y4.864
X43.29 Y4.803
X42.963 Y4.534
X42.943 Y4.518
X40.71 Y2.738
X40.644 Y2.689
X40.575 Y2.642
X40.355 Y2.501
X40.319 Y2.478
X37.903 Y1.014
X48.943 Y1.016
X48.945 Y3.785
G3 X43.405 Y3.788 Z-6.5 I-2.77 J0.001 F333.3
X48.945 Y3.785 Z-6.8 I2.77 J-0.001
G1 X48.949 Y12.094 F1000
X47.912 Y10.256
X47.863 Y10.173
X47.808 Y10.094
X47.409 Y9.548
X47.399 Y9.535
X45.827 Y7.433
X45.763 Y7.353
X45.695 Y7.276
X43.426 Y4.929
X43.359 Y4.864
X43.29 Y4.803
X42.963 Y4.534
X42.943 Y4.518
X40.71 Y2.738
X40.644 Y2.689
X40.575 Y2.642
X40.355 Y2.501
X40.319 Y2.478
X37.903 Y1.014
X48.943 Y1.016
X48.945 Y3.785
G3 X43.405 Y3.788 Z-7.1 I-2.77 J0.001 F333.3
X48.945 Y3.785 Z-7.4 I2.77 J-0.001
G1 X48.949 Y12.094 F1000
X47.912 Y10.256
X47.863 Y10.173
X47.808 Y10.094
X47.409 Y9.548
X47.399 Y9.535
X45.827 Y7.433
X45.763 Y7.353
X45.695 Y7.276
X43.426 Y4.929
X43.359 Y4.864
X43.29 Y4.803
X42.963 Y4.534
X42.943 Y4.518
X40.71 Y2.738
X40.644 Y2.689
X40.575 Y2.642
X40.355 Y2.501
X40.319 Y2.478
X37.903 Y1.014
X48.943 Y1.016
X48.945 Y3.785
G3 X43.405 Y3.788 Z-7.7 I-2.77 J0.001 F333.3
X48.945 Y3.785 Z-8 I2.77 J-0.001
G1 X48.949 Y12.094 F1000
X47.912 Y10.256
X47.863 Y10.173
X47.808 Y10.094
X47.409 Y9.548
X47.399 Y9.535
X45.827 Y7.433
X45.763 Y7.353
X45.695 Y7.276
X43.426 Y4.929
X43.359 Y4.864
X43.29 Y4.803
X42.963 Y4.534
X42.943 Y4.518
X40.71 Y2.738
X40.644 Y2.689
X40.575 Y2.642
X40.355 Y2.501
X40.319 Y2.478
X37.903 Y1.014
X48.943 Y1.016
X48.945 Y3.785
G3 X43.405 Y3.788 Z-8.3 I-2.77 J0.001 F333.3
X48.945 Y3.785 Z-8.6 I2.77 J-0.001
G1 X48.949 Y12.094 F1000
X47.912 Y10.256
X47.863 Y10.173
X47.808 Y10.094
X47.409 Y9.548
X47.399 Y9.535
X45.827 Y7.433
X45.763 Y7.353
X45.695 Y7.276
X43.426 Y4.929
X43.359 Y4.864
X43.29 Y4.803
X42.963 Y4.534
X42.943 Y4.518
X40.71 Y2.738
X40.644 Y2.689
X40.575 Y2.642
X40.355 Y2.501
X40.319 Y2.478
X37.903 Y1.014
X48.943 Y1.016
X48.945 Y3.785
G3 X43.405 Y3.788 Z-8.9 I-2.77 J0.001 F333.3
X48.945 Y3.785 Z-9.2 I2.77 J-0.001
G1 X48.949 Y12.094 F1000
X47.912 Y10.256
X47.863 Y10.173
X47.808 Y10.094
X47.409 Y9.548
X47.399 Y9.535
X45.827 Y7.433
X45.763 Y7.353
X45.695 Y7.276
X43.426 Y4.929
X43.359 Y4.864
X43.29 Y4.803
X42.963 Y4.534
X42.943 Y4.518
X40.71 Y2.738
X40.644 Y2.689
X40.575 Y2.642
X40.355 Y2.501
X40.319 Y2.478
X37.903 Y1.014
X48.943 Y1.016
X48.945 Y3.785
G3 X43.405 Y3.788 Z-9.5 I-2.77 J0.001 F333.3
X48.945 Y3.785 Z-9.8 I2.77 J-0.001
G1 X48.949 Y12.094 F1000
X47.912 Y10.256
X47.863 Y10.173
X47.808 Y10.094
X47.409 Y9.548
X47.399 Y9.535
X45.827 Y7.433
X45.763 Y7.353
X45.695 Y7.276
X43.426 Y4.929
X43.359 Y4.864
X43.29 Y4.803
X42.963 Y4.534
X42.943 Y4.518
X40.71 Y2.738
X40.644 Y2.689
X40.575 Y2.642
X40.355 Y2.501
X40.319 Y2.478
X37.903 Y1.014
X48.943 Y1.016
X48.945 Y3.785
G3 X43.405 Y3.788 Z-10.1 I-2.77 J0.001 F333.3
X48.945 Y3.785 Z-10.4 I2.77 J-0.001
G1 X48.949 Y12.094 F1000
X47.912 Y10.256
X47.863 Y10.173
X47.808 Y10.094
X47.409 Y9.548
X47.399 Y9.535
X45.827 Y7.433
X45.763 Y7.353
X45.695 Y7.276
X43.426 Y4.929
X43.359 Y4.864
X43.29 Y4.803
X42.963 Y4.534
X42.943 Y4.518
X40.71 Y2.738
X40.644 Y2.689
X40.575 Y2.642
X40.355 Y2.501
X40.319 Y2.478
X37.903 Y1.014
X48.943 Y1.016
X48.945 Y3.785
G3 X43.405 Y3.788 Z-10.7 I-2.77 J0.001 F333.3
X48.945 Y3.785 Z-11 I2.77 J-0.001
G1 X48.949 Y12.094 F1000
X47.912 Y10.256
X47.863 Y10.173
X47.808 Y10.094
X47.409 Y9.548
X47.399 Y9.535
X45.827 Y7.433
X45.763 Y7.353
X45.695 Y7.276
X43.426 Y4.929
X43.359 Y4.864
X43.29 Y4.803
X42.963 Y4.534
X42.943 Y4.518
X40.71 Y2.738
X40.644 Y2.689
X40.575 Y2.642
X40.355 Y2.501
X40.319 Y2.478
X37.903 Y1.014
X48.943 Y1.016
X48.945 Y3.785
G3 X43.405 Y3.788 Z-11.3 I-2.77 J0.001 F333.3
X48.945 Y3.785 Z-11.6 I2.77 J-0.001
G1 X48.949 Y12.094 F1000
X47.912 Y10.256
X47.863 Y10.173
X47.808 Y10.094
X47.409 Y9.548
X47.399 Y9.535
X45.827 Y7.433
X45.763 Y7.353
X45.695 Y7.276
X43.426 Y4.929
X43.359 Y4.864
X43.29 Y4.803
X42.963 Y4.534
X42.943 Y4.518
X40.71 Y2.738
X40.644 Y2.689
X40.575 Y2.642
X40.355 Y2.501
X40.319 Y2.478
X37.903 Y1.014
X48.943 Y1.016
X48.945 Y3.785
G3 X43.405 Y3.788 Z-11.9 I-2.77 J0.001 F333.3
X48.945 Y3.785 Z-12.2 I2.77 J-0.001
G1 X48.949 Y12.094 F1000
X47.912 Y10.256
X47.863 Y10.173
X47.808 Y10.094
X47.409 Y9.548
X47.399 Y9.535
X45.827 Y7.433
X45.763 Y7.353
X45.695 Y7.276
X43.426 Y4.929
X43.359 Y4.864
X43.29 Y4.803
X42.963 Y4.534
X42.943 Y4.518
X40.71 Y2.738
X40.644 Y2.689
X40.575 Y2.642
X40.355 Y2.501
X40.319 Y2.478
X37.903 Y1.014
X48.943 Y1.016
X48.945 Y3.785
G3 X43.405 Y3.788 Z-12.5 I-2.77 J0.001 F333.3
X48.945 Y3.785 Z-12.8 I2.77 J-0.001
G1 X48.949 Y12.094 F1000
X47.912 Y10.256
X47.863 Y10.173
X47.808 Y10.094
X47.409 Y9.548
X47.399 Y9.535
X45.827 Y7.433
X45.763 Y7.353
X45.695 Y7.276
X43.426 Y4.929
X43.359 Y4.864
X43.29 Y4.803
X42.963 Y4.534
X42.943 Y4.518
X40.71 Y2.738
X40.644 Y2.689
X40.575 Y2.642
X40.355 Y2.501
X40.319 Y2.478
X37.903 Y1.014
X48.943 Y1.016
X48.945 Y3.785
G3 X43.405 Y3.788 Z-13.1 I-2.77 J0.001 F333.3
X48.945 Y3.785 Z-13.4 I2.77 J-0.001
G1 X48.949 Y12.094 F1000
X47.912 Y10.256
X47.863 Y10.173
X47.808 Y10.094
X47.409 Y9.548
X47.399 Y9.535
X45.827 Y7.433
X45.763 Y7.353
X45.695 Y7.276
X43.426 Y4.929
X43.359 Y4.864
X43.29 Y4.803
X42.963 Y4.534
X42.943 Y4.518
X40.71 Y2.738
X40.644 Y2.689
X40.575 Y2.642
X40.355 Y2.501
X40.319 Y2.478
X37.903 Y1.014
X48.943 Y1.016
X48.945 Y3.785
G3 X43.405 Y3.788 Z-13.7 I-2.77 J0.001 F333.3
X48.945 Y3.785 Z-14 I2.77 J-0.001
G1 X48.949 Y12.094 F1000
X47.912 Y10.256
X47.863 Y10.173
X47.808 Y10.094
X47.409 Y9.548
X47.399 Y9.535
X45.827 Y7.433
X45.763 Y7.353
X45.695 Y7.276
X43.426 Y4.929
X43.359 Y4.864
X43.29 Y4.803
X42.963 Y4.534
X42.943 Y4.518
X40.71 Y2.738
X40.644 Y2.689
X40.575 Y2.642
X40.355 Y2.501
X40.319 Y2.478
X37.903 Y1.014
X48.943 Y1.016
X48.945 Y3.785
G3 X43.405 Y3.788 Z-14.3 I-2.77 J0.001 F333.3
X48.945 Y3.785 Z-14.6 I2.77 J-0.001
G1 X48.949 Y12.094 F1000
X47.912 Y10.256
X47.863 Y10.173
X47.808 Y10.094
X47.409 Y9.548
X47.399 Y9.535
X45.827 Y7.433
X45.763 Y7.353
X45.695 Y7.276
X43.426 Y4.929
X43.359 Y4.864
X43.29 Y4.803
X42.963 Y4.534
X42.943 Y4.518
X40.71 Y2.738
X40.644 Y2.689
X40.575 Y2.642
X40.355 Y2.501
X40.319 Y2.478
X37.903 Y1.014
X48.943 Y1.016
X48.945 Y3.785
G3 X43.405 Y3.788 Z-14.675 I-2.77 J0.001 F333.3
X48.945 Y3.785 Z-14.75 I2.77 J-0.001
G1 X48.949 Y12.094 F1000
X47.912 Y10.256
X47.863 Y10.173
X47.808 Y10.094
X47.409 Y9.548
X47.399 Y9.535
X45.827 Y7.433
X45.763 Y7.353
X45.695 Y7.276
X43.426 Y4.929
X43.359 Y4.864
X43.29 Y4.803
X42.963 Y4.534
X42.943 Y4.518
X40.71 Y2.738
X40.644 Y2.689
X40.575 Y2.642
X40.355 Y2.501
X40.319 Y2.478
X37.903 Y1.014
X48.943 Y1.016
X48.945 Y3.785
X48.939 Y3.852 Z-14.742
X48.926 Y3.917 Z-14.735
X48.907 Y3.978 Z-14.713
X48.881 Y4.036 Z-14.691
X48.853 Y4.085 Z-14.655
X48.82 Y4.131 Z-14.619
X48.756 Y4.201 Z-14.524
X48.7 Y4.246 Z-14.41
X48.663 Y4.271 Z-14.284
X48.65 Y4.278 Z-14.15
G0 Z5
X3.189 Y1.076
Z1.83
G1 Z0.68 F333.3
X3.208 Y1.071 Z0.528
X3.264 Y1.06 Z0.386
X3.354 Y1.045 Z0.263
X3.473 Y1.029 Z0.167
X3.612 Y1.017 Z0.105
X3.764 Y1.013 Z0.08
G3 X3.789 Y6.559 Z-0.22 I0.013 J2.773
X3.764 Y1.013 Z-0.52 I-0.013 J-2.773
X3.789 Y6.559 Z-0.82 I0.013 J2.773
X3.764 Y1.013 Z-1.12 I-0.013 J-2.773
X5.642 Y5.838 Z-1.35 I0.013 J2.773
G1 X5.53 Y5.94 F1000
X5.468 Y5.999
X5.409 Y6.063
X5.199 Y6.299
X5.176 Y6.325
X3.255 Y8.582
X3.2 Y8.652
X3.148 Y8.724
X2.932 Y9.042
X2.915 Y9.068
X1.32 Y11.523
X1.266 Y11.611
X1.218 Y11.703
X1.002 Y12.152
X1.003 Y1.02
X1.047 Y1.013
X12.176 Y1.012
X11.425 Y1.402
X11.409 Y1.411
X10.928 Y1.667
X10.845 Y1.715
X10.764 Y1.768
X8.124 Y3.609
X8.053 Y3.661
X7.985 Y3.717
X7.748 Y3.924
X7.724 Y3.946
X5.642 Y5.838
G3 X1.911 Y1.734 Z-1.512 I-1.865 J-2.052 F333.3
X5.642 Y5.838 Z-1.675 I1.865 J2.052
G1 X5.53 Y5.94 F1000
X5.468 Y5.999
X5.409 Y6.063
X5.199 Y6.299
X5.176 Y6.325
X3.255 Y8.582
X3.2 Y8.652
X3.148 Y8.724
X2.932 Y9.042
X2.915 Y9.068
X1.32 Y11.523
X1.266 Y11.611
X1.218 Y11.703
X1.002 Y12.152
X1.003 Y1.02
X1.047 Y1.013
X12.176 Y1.012
X11.425 Y1.402
X11.409 Y1.411
X10.928 Y1.667
X10.845 Y1.715
X10.764 Y1.768
X8.124 Y3.609
X8.053 Y3.661
X7.985 Y3.717
X7.748 Y3.924
X7.724 Y3.946
X5.642 Y5.838
G3 X1.911 Y1.734 Z-1.837 I-1.865 J-2.052 F333.3
X5.642 Y5.838 Z-2 I1.865 J2.052
G1 X5.53 Y5.94 F1000
X5.468 Y5.999
X5.409 Y6.063
X5.199 Y6.299
X5.176 Y6.325
X3.255 Y8.582
X3.2 Y8.652
X3.148 Y8.724
X2.932 Y9.042
X2.915 Y9.068
X1.32 Y11.523
X1.266 Y11.611
X1.218 Y11.703
X1.002 Y12.152
X1.003 Y1.02
X1.047 Y1.013
X12.176 Y1.012
X11.425 Y1.402
X11.409 Y1.411
X10.928 Y1.667
X10.845 Y1.715
X10.764 Y1.768
X8.124 Y3.609
X8.053 Y3.661
X7.985 Y3.717
X7.748 Y3.924
X7.724 Y3.946
X5.642 Y5.838
G3 X1.911 Y1.734 Z-2.3 I-1.865 J-2.052 F333.3
X5.642 Y5.838 Z-2.6 I1.865 J2.052
G1 X5.53 Y5.94 F1000
X5.468 Y5.999
X5.409 Y6.063
X5.199 Y6.299
X5.176 Y6.325
X3.255 Y8.582
X3.2 Y8.652
X3.148 Y8.724
X2.932 Y9.042
X2.915 Y9.068
X1.32 Y11.523
X1.266 Y11.611
X1.218 Y11.703
X1.002 Y12.152
X1.003 Y1.02
X1.047 Y1.013
X12.176 Y1.012
X11.425 Y1.402
X11.409 Y1.411
X10.928 Y1.667
X10.845 Y1.715
X10.764 Y1.768
X8.124 Y3.609
X8.053 Y3.661
X7.985 Y3.717
X7.748 Y3.924
X7.724 Y3.946
X5.642 Y5.838
G3 X1.911 Y1.734 Z-2.9 I-1.865 J-2.052 F333.3
X5.642 Y5.838 Z-3.2 I1.865 J2.052
G1 X5.53 Y5.94 F1000
X5.468 Y5.999
X5.409 Y6.063
X5.199 Y6.299
X5.176 Y6.325
X3.255 Y8.582
X3.2 Y8.652
X3.148 Y8.724
X2.932 Y9.042
X2.915 Y9.068
X1.32 Y11.523
X1.266 Y11.611
X1.218 Y11.703
X1.002 Y12.152
X1.003 Y1.02
X1.047 Y1.013
X12.176 Y1.012
X11.425 Y1.402
X11.409 Y1.411
X10.928 Y1.667
X10.845 Y1.715
X10.764 Y1.768
X8.124 Y3.609
X8.053 Y3.661
X7.985 Y3.717
X7.748 Y3.924
X7.724 Y3.946
X5.642 Y5.838
G3 X1.911 Y1.734 Z-3.5 I-1.865 J-2.052 F333.3
X5.642 Y5.838 Z-3.8 I1.865 J2.052
G1 X5.53 Y5.94 F1000
X5.468 Y5.999
X5.409 Y6.063
X5.199 Y6.299
X5.176 Y6.325
X3.255 Y8.582
X3.2 Y8.652
X3.148 Y8.724
X2.932 Y9.042
X2.915 Y9.068
X1.32 Y11.523
X1.266 Y11.611
X1.218 Y11.703
X1.002 Y12.152
X1.003 Y1.02
X1.047 Y1.013
X12.176 Y1.012
X11.425 Y1.402
X11.409 Y1.411
X10.928 Y1.667
X10.845 Y1.715
X10.764 Y1.768
X8.124 Y3.609
X8.053 Y3.661
X7.985 Y3.717
X7.748 Y3.924
X7.724 Y3.946
X5.642 Y5.838
G3 X1.911 Y1.734 Z-4.1 I-1.865 J-2.052 F333.3
X5.642 Y5.838 Z-4.4 I1.865 J2.052
G1 X5.53 Y5.94 F1000
X5.468 Y5.999
X5.409 Y6.063
X5.199 Y6.299
X5.176 Y6.325
X3.255 Y8.582
X3.2 Y8.652
X3.148 Y8.724
X2.932 Y9.042
X2.915 Y9.068
X1.32 Y11.523
X1.266 Y11.611
X1.218 Y11.703
X1.002 Y12.152
X1.003 Y1.02
X1.047 Y1.013
X12.176 Y1.012
X11.425 Y1.402
X11.409 Y1.411
X10.928 Y1.667
X10.845 Y1.715
X10.764 Y1.768
X8.124 Y3.609
X8.053 Y3.661
X7.985 Y3.717
X7.748 Y3.924
X7.724 Y3.946
X5.642 Y5.838
G3 X1.911 Y1.734 Z-4.7 I-1.865 J-2.052 F333.3
X5.642 Y5.838 Z-5 I1.865 J2.052
G1 X5.53 Y5.94 F1000
X5.468 Y5.999
X5.409 Y6.063
X5.199 Y6.299
X5.176 Y6.325
X3.255 Y8.582
X3.2 Y8.652
X3.148 Y8.724
X2.932 Y9.042
X2.915 Y9.068
X1.32 Y11.523
X1.266 Y11.611
X1.218 Y11.703
X1.002 Y12.152
X1.003 Y1.02
X1.047 Y1.013
X12.176 Y1.012
X11.425 Y1.402
X11.409 Y1.411
X10.928 Y1.667
X10.845 Y1.715
X10.764 Y1.768
X8.124 Y3.609
X8.053 Y3.661
X7.985 Y3.717
X7.748 Y3.924
X7.724 Y3.946
X5.642 Y5.838
G3 X1.911 Y1.734 Z-5.3 I-1.865 J-2.052 F333.3
X5.642 Y5.838 Z-5.6 I1.865 J2.052
G1 X5.53 Y5.94 F1000
X5.468 Y5.999
X5.409 Y6.063
X5.199 Y6.299
X5.176 Y6.325
X3.255 Y8.582
X3.2 Y8.652
X3.148 Y8.724
X2.932 Y9.042
X2.915 Y9.068
X1.32 Y11.523
X1.266 Y11.611
X1.218 Y11.703
X1.002 Y12.152
X1.003 Y1.02
X1.047 Y1.013
X12.176 Y1.012
X11.425 Y1.402
X11.409 Y1.411
X10.928 Y1.667
X10.845 Y1.715
X10.764 Y1.768
X8.124 Y3.609
X8.053 Y3.661
X7.985 Y3.717
X7.748 Y3.924
X7.724 Y3.946
X5.642 Y5.838
G3 X1.911 Y1.734 Z-5.9 I-1.865 J-2.052 F333.3
X5.642 Y5.838 Z-6.2 I1.865 J2.052
G1 X5.53 Y5.94 F1000
X5.468 Y5.999
X5.409 Y6.063
X5.199 Y6.299
X5.176 Y6.325
X3.255 Y8.582
X3.2 Y8.652
X3.148 Y8.724
X2.932 Y9.042
X2.915 Y9.068
X1.32 Y11.523
X1.266 Y11.611
X1.218 Y11.703
X1.002 Y12.152
X1.003 Y1.02
X1.047 Y1.013
X12.176 Y1.012
X11.425 Y1.402
X11.409 Y1.411
X10.928 Y1.667
X10.845 Y1.715
X10.764 Y1.768
X8.124 Y3.609
X8.053 Y3.661
X7.985 Y3.717
X7.748 Y3.924
X7.724 Y3.946
X5.642 Y5.838
G3 X1.911 Y1.734 Z-6.5 I-1.865 J-2.052 F333.3
X5.642 Y5.838 Z-6.8 I1.865 J2.052
G1 X5.53 Y5.94 F1000
X5.468 Y5.999
X5.409 Y6.063
X5.199 Y6.299
X5.176 Y6.325
X3.255 Y8.582
X3.2 Y8.652
X3.148 Y8.724
X2.932 Y9.042
X2.915 Y9.068
X1.32 Y11.523
X1.266 Y11.611
X1.218 Y11.703
X1.002 Y12.152
X1.003 Y1.02
X1.047 Y1.013
X12.176 Y1.012
X11.425 Y1.402
X11.409 Y1.411
X10.928 Y1.667
X10.845 Y1.715
X10.764 Y1.768
X8.124 Y3.609
X8.053 Y3.661
X7.985 Y3.717
X7.748 Y3.924
X7.724 Y3.946
X5.642 Y5.838
G3 X1.911 Y1.734 Z-7.1 I-1.865 J-2.052 F333.3
X5.642 Y5.838 Z-7.4 I1.865 J2.052
G1 X5.53 Y5.94 F1000
X5.468 Y5.999
X5.409 Y6.063
X5.199 Y6.299
X5.176 Y6.325
X3.255 Y8.582
X3.2 Y8.652
X3.148 Y8.724
X2.932 Y9.042
X2.915 Y9.068
X1.32 Y11.523
X1.266 Y11.611
X1.218 Y11.703
X1.002 Y12.152
X1.003 Y1.02
X1.047 Y1.013
X12.176 Y1.012
X11.425 Y1.402
X11.409 Y1.411
X10.928 Y1.667
X10.845 Y1.715
X10.764 Y1.768
X8.124 Y3.609
X8.053 Y3.661
X7.985 Y3.717
X7.748 Y3.924
X7.724 Y3.946
X5.642 Y5.838
G3 X1.911 Y1.734 Z-7.7 I-1.865 J-2.052 F333.3
X5.642 Y5.838 Z-8 I1.865 J2.052
G1 X5.53 Y5.94 F1000
X5.468 Y5.999
X5.409 Y6.063
X5.199 Y6.299
X5.176 Y6.325
X3.255 Y8.582
X3.2 Y8.652
X3.148 Y8.724
X2.932 Y9.042
X2.915 Y9.068
X1.32 Y11.523
X1.266 Y11.611
X1.218 Y11.703
X1.002 Y12.152
X1.003 Y1.02
X1.047 Y1.013
X12.176 Y1.012
X11.425 Y1.402
X11.409 Y1.411
X10.928 Y1.667
X10.845 Y1.715
X10.764 Y1.768
X8.124 Y3.609
X8.053 Y3.661
X7.985 Y3.717
X7.748 Y3.924
X7.724 Y3.946
X5.642 Y5.838
G3 X1.911 Y1.734 Z-8.3 I-1.865 J-2.052 F333.3
X5.642 Y5.838 Z-8.6 I1.865 J2.052
G1 X5.53 Y5.94 F1000
X5.468 Y5.999
X5.409 Y6.063
X5.199 Y6.299
X5.176 Y6.325
X3.255 Y8.582
X3.2 Y8.652
X3.148 Y8.724
X2.932 Y9.042
X2.915 Y9.068
X1.32 Y11.523
X1.266 Y11.611
X1.218 Y11.703
X1.002 Y12.152
X1.003 Y1.02
X1.047 Y1.013
X12.176 Y1.012
X11.425 Y1.402
X11.409 Y1.411
X10.928 Y1.667
X10.845 Y1.715
X10.764 Y1.768
X8.124 Y3.609
X8.053 Y3.661
X7.985 Y3.717
X7.748 Y3.924
X7.724 Y3.946
X5.642 Y5.838
G3 X1.911 Y1.734 Z-8.9 I-1.865 J-2.052 F333.3
X5.642 Y5.838 Z-9.2 I1.865 J2.052
G1 X5.53 Y5.94 F1000
X5.468 Y5.999
X5.409 Y6.063
X5.199 Y6.299
X5.176 Y6.325
X3.255 Y8.582
X3.2 Y8.652
X3.148 Y8.724
X2.932 Y9.042
X2.915 Y9.068
X1.32 Y11.523
X1.266 Y11.611
X1.218 Y11.703
X1.002 Y12.152
X1.003 Y1.02
X1.047 Y1.013
X12.176 Y1.012
X11.425 Y1.402
X11.409 Y1.411
X10.928 Y1.667
X10.845 Y1.715
X10.764 Y1.768
X8.124 Y3.609
X8.053 Y3.661
X7.985 Y3.717
X7.748 Y3.924
X7.724 Y3.946
X5.642 Y5.838
G3 X1.911 Y1.734 Z-9.5 I-1.865 J-2.052 F333.3
X5.642 Y5.838 Z-9.8 I1.865 J2.052
G1 X5.53 Y5.94 F1000
X5.468 Y5.999
X5.409 Y6.063
X5.199 Y6.299
X5.176 Y6.325
X3.255 Y8.582
X3.2 Y8.652
X3.148 Y8.724
X2.932 Y9.042
X2.915 Y9.068
X1.32 Y11.523
X1.266 Y11.611
X1.218 Y11.703
X1.002 Y12.152
X1.003 Y1.02
X1.047 Y1.013
X12.176 Y1.012
X11.425 Y1.402
X11.409 Y1.411
X10.928 Y1.667
X10.845 Y1.715
X10.764 Y1.768
X8.124 Y3.609
X8.053 Y3.661
X7.985 Y3.717
X7.748 Y3.924
X7.724 Y3.946
X5.642 Y5.838
G3 X1.911 Y1.734 Z-10.1 I-1.865 J-2.052 F333.3
X5.642 Y5.838 Z-10.4 I1.865 J2.052
G1 X5.53 Y5.94 F1000
X5.468 Y5.999
X5.409 Y6.063
X5.199 Y6.299
X5.176 Y6.325
X3.255 Y8.582
X3.2 Y8.652
X3.148 Y8.724
X2.932 Y9.042
X2.915 Y9.068
X1.32 Y11.523
X1.266 Y11.611
X1.218 Y11.703
X1.002 Y12.152
X1.003 Y1.02
X1.047 Y1.013
X12.176 Y1.012
X11.425 Y1.402
X11.409 Y1.411
X10.928 Y1.667
X10.845 Y1.715
X10.764 Y1.768
X8.124 Y3.609
X8.053 Y3.661
X7.985 Y3.717
X7.748 Y3.924
X7.724 Y3.946
X5.642 Y5.838
G3 X1.911 Y1.734 Z-10.7 I-1.865 J-2.052 F333.3
X5.642 Y5.838 Z-11 I1.865 J2.052
G1 X5.53 Y5.94 F1000
X5.468 Y5.999
X5.409 Y6.063
X5.199 Y6.299
X5.176 Y6.325
X3.255 Y8.582
X3.2 Y8.652
X3.148 Y8.724
X2.932 Y9.042
X2.915 Y9.068
X1.32 Y11.523
X1.266 Y11.611
X1.218 Y11.703
X1.002 Y12.152
X1.003 Y1.02
X1.047 Y1.013
X12.176 Y1.012
X11.425 Y1.402
X11.409 Y1.411
X10.928 Y1.667
X10.845 Y1.715
X10.764 Y1.768
X8.124 Y3.609
X8.053 Y3.661
X7.985 Y3.717
X7.748 Y3.924
X7.724 Y3.946
X5.642 Y5.838
G3 X1.911 Y1.734 Z-11.3 I-1.865 J-2.052 F333.3
X5.642 Y5.838 Z-11.6 I1.865 J2.052
G1 X5.53 Y5.94 F1000
X5.468 Y5.999
X5.409 Y6.063
X5.199 Y6.299
X5.176 Y6.325
X3.255 Y8.582
X3.2 Y8.652
X3.148 Y8.724
X2.932 Y9.042
X2.915 Y9.068
X1.32 Y11.523
X1.266 Y11.611
X1.218 Y11.703
X1.002 Y12.152
X1.003 Y1.02
X1.047 Y1.013
X12.176 Y1.012
X11.425 Y1.402
X11.409 Y1.411
X10.928 Y1.667
X10.845 Y1.715
X10.764 Y1.768
X8.124 Y3.609
X8.053 Y3.661
X7.985 Y3.717
X7.748 Y3.924
X7.724 Y3.946
X5.642 Y5.838
G3 X1.911 Y1.734 Z-11.9 I-1.865 J-2.052 F333.3
X5.642 Y5.838 Z-12.2 I1.865 J2.052
G1 X5.53 Y5.94 F1000
X5.468 Y5.999
X5.409 Y6.063
X5.199 Y6.299
X5.176 Y6.325
X3.255 Y8.582
X3.2 Y8.652
X3.148 Y8.724
X2.932 Y9.042
X2.915 Y9.068
X1.32 Y11.523
X1.266 Y11.611
X1.218 Y11.703
X1.002 Y12.152
X1.003 Y1.02
X1.047 Y1.013
X12.176 Y1.012
X11.425 Y1.402
X11.409 Y1.411
X10.928 Y1.667
X10.845 Y1.715
X10.764 Y1.768
X8.124 Y3.609
X8.053 Y3.661
X7.985 Y3.717
X7.748 Y3.924
X7.724 Y3.946
X5.642 Y5.838
G3 X1.911 Y1.734 Z-12.5 I-1.865 J-2.052 F333.3
X5.642 Y5.838 Z-12.8 I1.865 J2.052
G1 X5.53 Y5.94 F1000
X5.468 Y5.999
X5.409 Y6.063
X5.199 Y6.299
X5.176 Y6.325
X3.255 Y8.582
X3.2 Y8.652
X3.148 Y8.724
X2.932 Y9.042
X2.915 Y9.068
X1.32 Y11.523
X1.266 Y11.611
X1.218 Y11.703
X1.002 Y12.152
X1.003 Y1.02
X1.047 Y1.013
X12.176 Y1.012
X11.425 Y1.402
X11.409 Y1.411
X10.928 Y1.667
X10.845 Y1.715
X10.764 Y1.768
X8.124 Y3.609
X8.053 Y3.661
X7.985 Y3.717
X7.748 Y3.924
X7.724 Y3.946
X5.642 Y5.838
G3 X1.911 Y1.734 Z-13.1 I-1.865 J-2.052 F333.3
X5.642 Y5.838 Z-13.4 I1.865 J2.052
G1 X5.53 Y5.94 F1000
X5.468 Y5.999
X5.409 Y6.063
X5.199 Y6.299
X5.176 Y6.325
X3.255 Y8.582
X3.2 Y8.652
X3.148 Y8.724
X2.932 Y9.042
X2.915 Y9.068
X1.32 Y11.523
X1.266 Y11.611
X1.218 Y11.703
X1.002 Y12.152
X1.003 Y1.02
X1.047 Y1.013
X12.176 Y1.012
X11.425 Y1.402
X11.409 Y1.411
X10.928 Y1.667
X10.845 Y1.715
X10.764 Y1.768
X8.124 Y3.609
X8.053 Y3.661
X7.985 Y3.717
X7.748 Y3.924
X7.724 Y3.946
X5.642 Y5.838
G3 X1.911 Y1.734 Z-13.7 I-1.865 J-2.052 F333.3
X5.642 Y5.838 Z-14 I1.865 J2.052
G1 X5.53 Y5.94 F1000
X5.468 Y5.999
X5.409 Y6.063
X5.199 Y6.299
X5.176 Y6.325
X3.255 Y8.582
X3.2 Y8.652
X3.148 Y8.724
X2.932 Y9.042
X2.915 Y9.068
X1.32 Y11.523
X1.266 Y11.611
X1.218 Y11.703
X1.002 Y12.152
X1.003 Y1.02
X1.047 Y1.013
X12.176 Y1.012
X11.425 Y1.402
X11.409 Y1.411
X10.928 Y1.667
X10.845 Y1.715
X10.764 Y1.768
X8.124 Y3.609
X8.053 Y3.661
X7.985 Y3.717
X7.748 Y3.924
X7.724 Y3.946
X5.642 Y5.838
G3 X1.911 Y1.734 Z-14.3 I-1.865 J-2.052 F333.3
X5.642 Y5.838 Z-14.6 I1.865 J2.052
G1 X5.53 Y5.94 F1000
X5.468 Y5.999
X5.409 Y6.063
X5.199 Y6.299
X5.176 Y6.325
X3.255 Y8.582
X3.2 Y8.652
X3.148 Y8.724
X2.932 Y9.042
X2.915 Y9.068
X1.32 Y11.523
X1.266 Y11.611
X1.218 Y11.703
X1.002 Y12.152
X1.003 Y1.02
X1.047 Y1.013
X12.176 Y1.012
X11.425 Y1.402
X11.409 Y1.411
X10.928 Y1.667
X10.845 Y1.715
X10.764 Y1.768
X8.124 Y3.609
X8.053 Y3.661
X7.985 Y3.717
X7.748 Y3.924
X7.724 Y3.946
X5.642 Y5.838
G3 X1.911 Y1.734 Z-14.675 I-1.865 J-2.052 F333.3
X5.642 Y5.838 Z-14.75 I1.865 J2.052
G1 X5.53 Y5.94 F1000
X5.468 Y5.999
X5.409 Y6.063
X5.199 Y6.299
X5.176 Y6.325
X3.255 Y8.582
X3.2 Y8.652
X3.148 Y8.724
X2.932 Y9.042
X2.915 Y9.068
X1.32 Y11.523
X1.266 Y11.611
X1.218 Y11.703
X1.002 Y12.152
X1.003 Y1.02
X1.047 Y1.013
X12.176 Y1.012
X11.425 Y1.402
X11.409 Y1.411
X10.928 Y1.667
X10.845 Y1.715
X10.764 Y1.768
X8.124 Y3.609
X8.053 Y3.661
X7.985 Y3.717
X7.748 Y3.924
X7.724 Y3.946
X5.642 Y5.838
X5.589 Y5.879 Z-14.742
X5.532 Y5.913 Z-14.735
X5.474 Y5.94 Z-14.713
X5.414 Y5.96 Z-14.691
X5.358 Y5.972 Z-14.655
X5.302 Y5.979 Z-14.619
X5.207 Y5.978 Z-14.524
X5.136 Y5.967 Z-14.41
X5.093 Y5.956 Z-14.284
X5.079 Y5.952 Z-14.15
G0 Z15
M9
M5
G28 G91 Z0
G90

(Pocket3)
T2
(CHANGE TO T2)
S5000 M3
G17 G90 G94
G54
M8
G0 X11.986 Y13.076
Z15
G0 Z0.658
G1 Z0.6 F333.3
Z-0.96 F1000
X11.981 Y13.074 Z-0.98
X11.967 Y13.07 Z-0.995
X11.948 Y13.063 Z-1
X11.903 Y13.042
X11.864 Y13.01
X11.834 Y12.97
X11.816 Y12.923
X11.81 Y12.873
Y12.203
G3 X12.193 Y11.819 I0.383 J0
G1 X12.856
X12.894 Y11.827
X12.926 Y11.847
X12.947 Y11.878
X12.956 Y11.915
X12.951 Y11.953
X12.932 Y11.985
X10.905 Y14.302
X10.878 Y14.324
X10.846 Y14.335
X10.811
X10.779 Y14.322
X10.753 Y14.3
X10.736 Y14.27
X10.73 Y14.236
Y11.123
G3 X11.113 Y10.739 I0.383 J0
G1 X14.226 Y10.74
X14.263 Y10.747
X14.295 Y10.768
X14.317 Y10.799
X14.326 Y10.836
X14.32 Y10.874
X14.3 Y10.907
X9.824 Y15.861
X9.797 Y15.883
X9.764 Y15.893
X9.73 Y15.892
X9.698 Y15.88
X9.672 Y15.858
X9.656 Y15.828
X9.65 Y15.794
Y10.042
G3 X10.033 Y9.659 I0.383 J0
G1 X15.77 Y9.66
X18.17
X18.222 Z-0.993
X18.27 Z-0.973
X18.312 Z-0.941
X18.344 Z-0.9
X18.364 Z-0.852
X18.37 Z-0.8
G0 Z5
X8.758 Y18.031
Z0.6
G1 Z-0.98 F1000
X8.752 Y18.03 Z-0.994
X8.738 Y18.028 Z-1
G3 X8.57 Y17.831 I0.031 J-0.198
G1 Y8.962
G3 X8.953 Y8.579 I0.383 J0
G1 X17.803 Y8.58
X20.203
X20.255 Z-0.993
X20.303 Z-0.973
X20.345 Z-0.941
X20.376 Z-0.9
X20.396 Z-0.852
X20.403 Z-0.8
G0 Z5
X7.49 Y22.896
Z0.6
G1 Z-0.8 F1000
G19 G2 Y22.696 Z-1 J-0.2 K0
G1 Y21.496
Y7.882
G17 G3 X7.873 Y7.499 I0.383 J0
G1 X21.446 Y7.5
X23.846
X23.898 Z-0.993
X23.946 Z-0.973
X23.987 Z-0.941
X24.019 Z-0.9
X24.039 Z-0.852
X24.046 Z-0.8
G0 Z5
X36.941 Y11.997
Z0.6
G1 Z-0.96 F1000
X36.943 Y11.992 Z-0.98
X36.947 Y11.978 Z-0.995
X36.953 Y11.959 Z-1
X36.975 Y11.914
X37.007 Y11.875
X37.047 Y11.846
X37.094 Y11.827
X37.144 Y11.821
X37.758
G3 X38.141 Y12.204 I0 J0.383
G1 Y12.819
X38.134 Y12.856
X38.113 Y12.888
X38.082 Y12.91
X38.045 Y12.919
X38.008 Y12.914
X37.975 Y12.894
X35.715 Y10.916
X35.693 Y10.89
X35.682 Y10.857
Y10.823
X35.694 Y10.79
X35.717 Y10.764
X35.747 Y10.747
X35.781 Y10.741
X38.838
G3 X39.221 Y11.125 I0 J0.383
G1 Y14.179
X39.214 Y14.216
X39.193 Y14.248
X39.162 Y14.27
X39.124 Y14.279
X39.087 Y14.273
X39.054 Y14.253
X34.165 Y9.835
X34.144 Y9.808
X34.133 Y9.776
X34.134 Y9.742
X34.146 Y9.71
X34.169 Y9.684
X34.199 Y9.667
X34.232 Y9.661
X39.918
G3 X40.301 Y10.045 I0 J0.383
G1 Y15.714
Y18.114
G19 G3 Y18.314 Z-0.8 J0 K0.2
G0 Z5
X32.005 Y8.769
Z0.6
G1 Z-0.98 F1000
X32.006 Y8.764 Z-0.994
X32.008 Y8.75 Z-1
G17 G3 X32.206 Y8.581 I0.198 J0.031
G1 X40.998
G3 X41.381 Y8.965 I0 J0.383
G1 Y17.698
Y20.098
G19 G3 Y20.298 Z-0.8 J0 K0.2
G0 Z5
X27.15 Y7.5
Z0.6
G1 Z-0.8 F1000
X27.156 Z-0.852
X27.176 Z-0.9
X27.208 Z-0.941
X27.25 Z-0.973
X27.298 Z-0.993
X27.35 Y7.501 Z-1
X28.55
X42.078 Y7.502
G17 G3 X42.461 Y7.885 I0 J0.383
G1 Y21.273
Y23.673
G19 G3 Y23.873 Z-0.8 J0 K0.2
G0 Z5
X37.965 Y36.982
Z0.6
G1 Z-0.96 F1000
X37.97 Y36.984 Z-0.98
X37.984 Y36.988 Z-0.995
X38.003 Y36.994 Z-1
X38.048 Y37.016
X38.087 Y37.048
X38.116 Y37.088
X38.135 Y37.135
X38.141 Y37.184
Y37.795
G17 G3 X37.758 Y38.178 I-0.383 J0
G1 X37.143
X37.106 Y38.171
X37.074 Y38.15
X37.052 Y38.119
X37.043 Y38.082
X37.049 Y38.045
X37.068 Y38.012
X39.046 Y35.756
X39.073 Y35.734
X39.105 Y35.723
X39.14
X39.172 Y35.735
X39.198 Y35.758
X39.215 Y35.788
X39.221 Y35.822
Y38.875
G3 X38.838 Y39.258 I-0.383 J0
G1 X35.774
X35.736 Y39.251
X35.704 Y39.23
X35.682 Y39.198
X35.674 Y39.161
X35.68 Y39.123
X35.7 Y39.091
X40.127 Y34.226
X40.159 Y34.202
X40.198 Y34.193
X40.237 Y34.2
X40.271 Y34.221
X40.293 Y34.254
X40.301 Y34.293
Y39.955
G3 X39.918 Y40.338 I-0.383 J0
G1 X34.229
X31.829
G18 G3 X31.629 Z-0.8 I0 K0.2
G0 Z5
X41.193 Y32.105
Z0.6
G1 Z-0.98 F1000
X41.198 Y32.106 Z-0.994
X41.212 Y32.108 Z-1
G17 G3 X41.381 Y32.305 I-0.031 J0.198
G1 Y41.035
G3 X40.998 Y41.418 I-0.383 J0
G1 X32.206
X29.806
G18 G3 X29.606 Z-0.8 I0 K0.2
G0 Z5
X42.461 Y27.327
Z0.6
G1 Z-0.8 F1000
G19 G3 Y27.527 Z-1 J0.2 K0
G1 Y28.727
Y42.115
G17 G3 X42.078 Y42.498 I-0.383 J0
G1 X28.553
X26.153
G18 G3 X25.953 Z-0.8 I0 K0.2
G0 Z5
X13.058 Y38.002
Z0.6
G1 Z-0.96 F1000
X13.057 Y38.007 Z-0.98
X13.052 Y38.021 Z-0.995
X13.046 Y38.04 Z-1
X13.025 Y38.085
X12.993 Y38.124
X12.952 Y38.153
X12.906 Y38.172
X12.856 Y38.178
X12.193
G17 G3 X11.81 Y37.795 I0 J-0.383
G1 Y37.131
X11.817 Y37.094
X11.837 Y37.062
X11.868 Y37.04
X11.905 Y37.031
X11.943 Y37.037
X11.976 Y37.056
X14.285 Y39.083
X14.306 Y39.11
X14.318 Y39.142
X14.317 Y39.177
X14.305 Y39.209
X14.283 Y39.235
X14.253 Y39.252
X14.219 Y39.258
X11.113
G3 X10.73 Y38.875 I0 J-0.383
G1 Y35.762
X10.737 Y35.724
X10.758 Y35.692
X10.789 Y35.671
X10.826 Y35.662
X10.864 Y35.668
X10.897 Y35.688
X15.834 Y40.164
X15.855 Y40.191
X15.866 Y40.223
X15.865 Y40.257
X15.853 Y40.289
X15.831 Y40.315
X15.801 Y40.332
X15.767 Y40.338
X10.033
G3 X9.65 Y39.955 I0 J-0.383
G1 Y34.207
Y31.807
G19 G2 Y31.607 Z-0.8 J0 K0.2
G0 Z5
X17.994 Y41.229
Z0.6
G1 Z-0.98 F1000
X17.993 Y41.235 Z-0.994
X17.991 Y41.249 Z-1
G17 G3 X17.794 Y41.418 I-0.198 J-0.031
G1 X8.953
G3 X8.57 Y41.035 I0 J-0.383
G1 Y32.175
Y29.775
G19 G2 Y29.575 Z-0.8 J0 K0.2
G0 Z5
X22.84 Y42.498
Z0.6
G1 Z-0.8 F1000
G18 G3 X22.64 Z-1 I-0.2 K0
G1 X21.44
X7.873
G17 G3 X7.49 Y42.115 I0 J-0.383
G1 Y28.503
Y26.103
G19 G2 Y25.903 Z-0.8 J0 K0.2
G0 Z5
X6.41 Y44.069
Z-0.8
G2 Y43.869 Z-1 J-0.2 K0 F1000
G1 Y41.741
Y8.262
X6.417 Y8.223
X6.439 Y8.191
X8.206 Y6.448
